;FLAVOR:Marlin
;TIME:1360
;Filament used: 0.406249m
;Layer height: 0.2
;MINX:105.44
;MINY:107.366
;MINZ:0.2
;MAXX:129.531
;MAXY:127.561
;MAXZ:18
;Generated with Cura_SteamEngine 5.4.0
M140 S60
M105
M190 S60
M104 S210
M105
M109 S210
M82 ;absolute extrusion mode
; Ender 3 Custom Start G-code
G92 E0 ; Reset Extruder
G28 ; Home all axes
G1 Z2.0 F3000 ; Move Z Axis up little to prevent scratching of Heat Bed
G1 X0.1 Y20 Z0.3 F5000.0 ; Move to start position
G1 X0.1 Y200.0 Z0.3 F1500.0 E15 ; Draw the first line
G1 X0.4 Y200.0 Z0.3 F5000.0 ; Move to side a little
G1 X0.4 Y20 Z0.3 F1500.0 E30 ; Draw the second line
G92 E0 ; Reset Extruder
G1 Z2.0 F3000 ; Move Z Axis up little to prevent scratching of Heat Bed
G1 X5 Y20 Z0.3 F5000.0 ; Move over to prevent blob squish
G92 E0
G92 E0
G1 F2700 E-5
;LAYER_COUNT:90
;LAYER:0
M106 S255
;MESH:pinky clip01.stl
G0 F6000 X112.606 Y108.272 Z0.2
;TYPE:WALL-INNER
G1 F2700 E0
G1 F631.6 X113.06 Y108.379 E0.01474
G1 X113.155 Y108.339 E0.018
G1 X113.25 Y108.209 E0.02308
G1 X113.216 Y108.067 E0.0277
G1 X113.07 Y107.972 E0.0332
G1 X112.905 Y108.033 E0.03876
G1 X112.606 Y108.272 E0.05085
G1 F2700 E-4.94915
G0 F6000 X113.366 Y108.39
G0 X114.096 Y109.19
G0 X126.141 Y117.458
G0 X127.467 Y118.635
G1 F2700 E0.05085
G1 F628.3 X127.605 Y118.192 E0.06559
G1 X127.447 Y118.032 E0.07273
G1 X127.328 Y118.024 E0.07652
G1 X127.218 Y118.106 E0.08088
G1 X127.211 Y118.323 E0.08778
G1 X127.467 Y118.635 E0.1006
G0 F6000 X127.651 Y119.175
G0 X127.962 Y119.885
;TYPE:WALL-OUTER
G1 F468.8 X127.957 Y119.464 E0.11852
G1 F638.3 X127.844 Y119.046 E0.13206
G1 F600 X127.863 Y118.678 E0.14431
G1 X127.969 Y118.341 E0.15606
G1 X127.981 Y118.085 E0.16459
G1 X127.872 Y117.873 E0.17252
G1 X127.627 Y117.674 E0.18301
G1 X127.428 Y117.622 E0.18986
G1 X127.228 Y117.641 E0.19654
G1 X127.067 Y117.713 E0.2024
G1 X126.908 Y117.86 E0.20961
G1 X126.794 Y118.185 E0.22106
G1 X126.842 Y118.495 E0.23149
G1 X127.108 Y118.809 E0.24518
G1 X127.438 Y119.243 E0.26332
G1 F638.3 X127.638 Y119.611 E0.27641
G1 F468.8 X127.962 Y119.885 E0.29448
G1 F363.1 X128.203 Y120.424 E0.32693
G1 F368.1 X128.425 Y120.955 E0.35813
G1 F363.6 X128.706 Y121.707 E0.40218
G1 F357.1 X128.855 Y122.16 E0.42883
G1 F354 X129.065 Y122.906 E0.47252
G1 F355.6 X129.177 Y123.466 E0.50458
G1 F359.8 X129.237 Y123.948 E0.53151
G1 F365.3 X129.256 Y124.218 E0.5463
G1 F370.9 X129.256 Y124.675 E0.57089
G1 F376.2 X129.221 Y125.093 E0.59314
G1 F383.4 X129.169 Y125.43 E0.61089
G1 F390.2 X129.091 Y125.76 E0.62823
G1 F389 X129.017 Y126.018 E0.642
G1 F386.5 X128.85 Y126.425 E0.66471
G1 F377.4 X128.714 Y126.663 E0.67921
G1 F364.2 X128.534 Y126.936 E0.69713
G1 F354.5 X128.173 Y127.219 E0.72295
G1 F343.8 X127.877 Y127.264 E0.74033
G1 F344.3 X127.664 Y127.255 E0.75268
G1 F361.4 X127.336 Y127.13 E0.77206
G1 F373.8 X127.133 Y126.969 E0.78589
G1 F365.3 X126.97 Y126.734 E0.80152
G1 F368.1 X126.88 Y126.53 E0.81361
G1 F391.5 X126.814 Y126.058 E0.8379
G1 F401.3 X126.783 Y125.76 E0.8528
G1 F399.3 X126.701 Y125.2 E0.88108
G1 F401.3 X126.618 Y124.756 E0.90354
G1 F402.7 X126.498 Y124.241 E0.92975
G1 X126.342 Y123.664 E0.95937
G1 F400 X126.166 Y123.109 E0.98842
G1 F398 X125.948 Y122.531 E1.01939
G1 F399.3 X125.716 Y121.992 E1.04871
G1 X125.472 Y121.487 E1.07674
G1 X125.212 Y121.001 E1.10429
G1 F401.3 X124.971 Y120.59 E1.12798
G1 F400.7 X124.616 Y120.041 E1.16054
G1 F400 X124.343 Y119.658 E1.184
G1 F401.3 X123.943 Y119.143 E1.21643
G1 F400.7 X123.578 Y118.716 E1.24441
G1 F400 X123.207 Y118.317 E1.27159
G1 F400.7 X122.802 Y117.919 E1.29987
G1 F402 X122.433 Y117.583 E1.32465
G1 F400.7 X121.881 Y117.127 E1.36031
G1 F398.7 X121.113 Y116.571 E1.40777
G1 X120.578 Y116.234 E1.43942
G1 F399.3 X120.097 Y115.959 E1.46711
G1 F400 X119.559 Y115.682 E1.4973
G1 F400.7 X119.121 Y115.479 E1.52134
G1 F402 X118.587 Y115.258 E1.55003
G1 F402.7 X118.087 Y115.075 E1.57641
G1 F401.3 X117.536 Y114.901 E1.60515
G1 F399.3 X116.967 Y114.749 E1.63458
G1 X116.422 Y114.628 E1.66248
G1 F400.7 X115.855 Y114.528 E1.69115
G1 X115.323 Y114.458 E1.71788
G1 X114.754 Y114.407 E1.74633
G1 F401.3 X114.171 Y114.381 E1.77535
G1 X113.632 Y114.38 E1.80215
G1 F400 X113.049 Y114.405 E1.83126
G1 F398.7 X112.478 Y114.453 E1.85995
G1 F400 X111.953 Y114.521 E1.88636
G1 F401.3 X111.414 Y114.614 E1.91356
G1 F400.7 X110.848 Y114.736 E1.94239
G1 F408.2 X109.716 Y115.026 E1.99953
G1 F413.1 X109.253 Y115.111 E2.02227
G1 F414.5 X108.937 Y115.136 E2.03753
G1 F428.6 X108.475 Y115.127 E2.05905
G1 F443.6 X108.112 Y115.081 E2.07551
G1 F449.4 X107.662 Y114.967 E2.09612
G1 F444.4 X107.298 Y114.818 E2.11378
G1 F430.9 X107.016 Y114.66 E2.12875
G1 F415.9 X106.725 Y114.461 E2.14566
G1 F413.1 X106.443 Y114.207 E2.164
G1 F418.8 X106.155 Y113.871 E2.18508
G1 F430.1 X105.944 Y113.505 E2.20469
G1 F442 X105.798 Y113.149 E2.22206
G1 F447.8 X105.711 Y112.759 E2.23987
G1 F449.4 X105.682 Y112.339 E2.25856
G1 F445.3 X105.732 Y111.834 E2.2813
G1 F435.6 X105.83 Y111.411 E2.3012
G1 F426.3 X106.02 Y110.908 E2.32637
G1 F418.8 X106.282 Y110.447 E2.35163
G1 F408.9 X106.532 Y110.103 E2.37239
G1 F401.3 X106.807 Y109.79 E2.39311
G1 F400 X107.14 Y109.489 E2.4155
G1 F404.7 X107.471 Y109.234 E2.4361
G1 F415.2 X107.881 Y108.984 E2.45918
G1 F425.5 X108.175 Y108.839 E2.47456
G1 F430.9 X108.587 Y108.681 E2.49499
G1 F441.2 X108.961 Y108.582 E2.51249
G1 F457.1 X109.425 Y108.499 E2.53307
G1 F482.9 X109.967 Y108.449 E2.55556
G1 F504.2 X110.401 Y108.422 E2.57277
G1 F475.2 X111.298 Y108.399 E2.61045
G1 F512.8 X111.812 Y108.518 E2.63098
G1 F600 X112.157 Y108.569 E2.64258
G1 X112.745 Y108.704 E2.66265
G1 X112.916 Y108.758 E2.66861
G1 X113.163 Y108.758 E2.67683
G1 X113.381 Y108.668 E2.68467
G1 X113.57 Y108.468 E2.69383
G1 X113.651 Y108.247 E2.70165
G1 X113.603 Y107.958 E2.7114
G1 X113.522 Y107.815 E2.71686
G1 X113.336 Y107.655 E2.72502
G1 X113.123 Y107.575 E2.73259
G1 X112.933 Y107.593 E2.73894
G1 X112.692 Y107.702 E2.74774
G1 X112.447 Y107.912 E2.75847
G1 X112.136 Y108.095 E2.77047
G1 X111.83 Y108.21 E2.78134
G1 F578.3 X111.586 Y108.28 E2.7901
G1 F496.9 X111.298 Y108.399 E2.80262
;MESH:NONMESH
G0 F300 X111.298 Y108.399 Z0.4
G0 F6000 X112.128 Y108.339
G0 X112.341 Y108.314
;TIME_ELAPSED:13.847958
;LAYER:1
M106 S85
;TYPE:WALL-INNER
;MESH:pinky clip01.stl
G1 F492.9 X112.807 Y108.423 E2.82566
G1 X113.105 Y108.468 E2.84017
G1 X113.305 Y108.349 E2.85137
G1 X113.353 Y108.22 E2.858
G1 X113.326 Y108.055 E2.86605
G1 X113.186 Y107.908 E2.87582
G1 X113.085 Y107.87 E2.88102
G1 X112.849 Y107.95 E2.89301
G1 X112.618 Y108.149 E2.90769
G1 X112.341 Y108.314 E2.92322
G1 F2700 E-2.07678
G0 F7875 X112.733 Y108.254
G0 X109.387 Y108.523
G0 X108.211 Y108.868
G0 X107.3 Y109.429
G0 X106.598 Y110.114
G0 X106.111 Y110.841
G0 X105.75 Y111.845
G0 X105.738 Y112.773
G0 X105.981 Y113.504
G0 X106.461 Y114.157
G0 X106.867 Y114.516
G0 X107.661 Y114.938
G0 X108.106 Y115.054
G0 X108.933 Y115.089
G0 X113.626 Y114.319
G0 X117.524 Y114.835
G0 X121.076 Y116.475
G0 X124.004 Y119.12
G0 X125.995 Y122.487
G0 X126.955 Y126.524
G0 X127.259 Y127.023
G0 X127.778 Y127.184
G0 X128.296 Y127.017
G0 X128.631 Y126.659
G0 X128.861 Y126.257
G0 X129.1 Y125.412
G0 X129.167 Y124.161
G0 X128.943 Y122.829
G0 X128.603 Y121.785
G0 X127.433 Y118.518
G0 X127.544 Y118.898
G1 F2700 E2.92322
G1 F489.5 X127.573 Y118.611 E2.9372
G1 X127.68 Y118.286 E2.95379
G1 X127.678 Y118.136 E2.96106
G1 F488.7 X127.622 Y118.025 E2.9671
G1 X127.408 Y117.918 E2.97871
G1 X127.229 Y117.96 E2.98764
G1 X127.116 Y118.086 E2.99586
G1 X127.091 Y118.196 E3.00134
G1 F489.5 X127.129 Y118.385 E3.01068
G1 X127.366 Y118.664 E3.02843
G1 X127.544 Y118.898 E3.04268
G1 F2700 E-1.95732
G0 F7875 X127.433 Y118.518
G0 X128.817 Y122.374
G0 X129.118 Y123.691
G0 X129.151 Y125.036
G0 X129.028 Y125.744
G0 X128.861 Y126.257
G0 X128.631 Y126.659
G0 X128.33 Y126.981
G0 X127.705 Y127.225
G0 X127.772 Y127.008
;TYPE:WALL-OUTER
G1 F2700 E3.04268
G1 F540.5 X127.47 Y126.904 E3.05671
G1 F547.8 X127.33 Y126.803 E3.06418
G1 F545.7 X127.134 Y126.474 E3.08084
G1 F560.7 X127.059 Y126.023 E3.10019
G1 F573.1 X127.03 Y125.719 E3.11283
G1 F569.6 X126.947 Y125.158 E3.13646
G1 F570.8 X126.841 Y124.611 E3.15962
G1 X126.706 Y124.041 E3.18398
G1 F569.6 X126.551 Y123.491 E3.20778
G1 X126.408 Y123.041 E3.22745
G1 X126.18 Y122.436 E3.25439
G1 F570.8 X125.943 Y121.888 E3.27921
G1 X125.695 Y121.374 E3.30293
G1 X125.425 Y120.87 E3.32671
G1 F569.6 X125.134 Y120.379 E3.35048
G1 X124.823 Y119.9 E3.37427
G1 F570.8 X124.498 Y119.447 E3.39745
G1 X124.137 Y118.985 E3.42183
G1 X123.768 Y118.554 E3.44542
G1 X123.38 Y118.137 E3.4691
G1 X122.972 Y117.736 E3.49288
G1 X122.542 Y117.347 E3.51699
G1 X122.109 Y116.99 E3.54032
G1 F571.9 X121.658 Y116.649 E3.56378
G1 X121.177 Y116.316 E3.58806
G1 X120.692 Y116.011 E3.61183
G1 X120.245 Y115.755 E3.6332
G1 X119.688 Y115.467 E3.65922
G1 F570.8 X119.181 Y115.233 E3.68243
G1 F571.9 X118.639 Y115.011 E3.70674
G1 F573.1 X118.042 Y114.797 E3.733
G1 F571.9 X117.56 Y114.648 E3.75393
G1 F570.8 X117.017 Y114.504 E3.77729
G1 F571.9 X116.46 Y114.381 E3.80095
G1 X115.896 Y114.283 E3.82471
G1 X115.33 Y114.206 E3.84841
G1 X114.761 Y114.157 E3.8721
G1 X114.175 Y114.131 E3.89644
G1 X113.618 Y114.13 E3.91955
G1 X113.034 Y114.155 E3.94381
G1 F570.8 X112.451 Y114.205 E3.96813
G1 X111.907 Y114.276 E3.99094
G1 X111.334 Y114.376 E4.01512
G1 X110.782 Y114.495 E4.0386
G1 F578.9 X109.763 Y114.768 E4.08185
G1 F583.6 X109.217 Y114.867 E4.10441
G1 X108.935 Y114.893 E4.11592
G1 F593.3 X108.605 Y114.896 E4.12912
G1 F604.6 X108.141 Y114.849 E4.14743
G1 F611.1 X107.726 Y114.742 E4.16407
G1 F605.9 X107.367 Y114.588 E4.17937
G1 F595.8 X106.998 Y114.365 E4.19654
G1 F589.6 X106.606 Y114.025 E4.21742
G1 F590.9 X106.312 Y113.667 E4.23603
G1 F598.3 X106.162 Y113.411 E4.2478
G1 F604.6 X106.024 Y113.084 E4.26173
G1 F611.1 X105.944 Y112.743 E4.27533
G1 F612.4 X105.917 Y112.343 E4.29086
G1 F609.8 X105.952 Y111.896 E4.30831
G1 F602.1 X106.056 Y111.49 E4.32483
G1 F594.6 X106.164 Y111.194 E4.3374
G1 F590.9 X106.287 Y110.927 E4.34921
G1 F586 X106.474 Y110.599 E4.3645
G1 F577.7 X106.746 Y110.231 E4.3833
G1 F573.1 X107.045 Y109.904 E4.40164
G1 F576.5 X107.423 Y109.577 E4.42222
G1 F581.2 X107.709 Y109.37 E4.43663
G1 F586 X107.985 Y109.204 E4.44967
G1 F592.1 X108.29 Y109.051 E4.46335
G1 F598.3 X108.689 Y108.898 E4.4803
G1 F605.9 X109.025 Y108.807 E4.49393
G1 F617.7 X109.421 Y108.729 E4.50943
G1 F635.6 X109.973 Y108.669 E4.53016
G1 F651.6 X110.414 Y108.641 E4.54626
G1 F639.9 X111.063 Y108.627 E4.57033
G1 F668.4 X111.068 Y108.653 E4.57127
G1 F713.5 X111.565 Y108.686 E4.58784
G1 X112.135 Y108.769 E4.607
G1 X112.711 Y108.903 E4.62667
G1 X112.886 Y108.957 E4.63276
G1 X113.202 Y108.957 E4.64327
G1 X113.499 Y108.835 E4.65395
G1 X113.724 Y108.63 E4.66407
G1 X113.857 Y108.267 E4.67693
G1 X113.794 Y107.89 E4.68964
G1 X113.678 Y107.684 E4.69751
G1 X113.439 Y107.48 E4.70796
G1 X113.152 Y107.372 E4.71816
G1 X112.882 Y107.398 E4.72718
G1 X112.582 Y107.533 E4.73812
G1 X112.343 Y107.741 E4.74866
G1 X112.053 Y107.916 E4.75992
G1 X111.735 Y108.031 E4.77117
G1 X111.419 Y108.102 E4.78194
G1 X111.054 Y108.148 E4.79418
G1 F668.4 X111.054 Y108.176 E4.79517
G1 F639.9 X110.374 Y108.204 E4.82041
G1 F637 X109.4 Y108.27 E4.85678
G1 F616.4 X108.89 Y108.358 E4.8767
G1 F603.4 X108.497 Y108.459 E4.89266
G1 F595.8 X108.07 Y108.624 E4.91089
G1 F590.9 X107.734 Y108.789 E4.92593
G1 F582.4 X107.334 Y109.027 E4.94489
G1 F575.4 X106.966 Y109.309 E4.96401
G1 F571.9 X106.631 Y109.612 E4.98275
G1 F570.8 X106.371 Y109.906 E4.99907
G1 F575.4 X106.131 Y110.229 E5.01567
G1 F580.1 X105.946 Y110.531 E5.03016
G1 F583.6 X105.77 Y110.878 E5.04598
G1 F590.9 X105.594 Y111.361 E5.06662
G1 F602.1 X105.49 Y111.841 E5.08598
G1 F608.5 X105.461 Y112.119 E5.09688
G1 F609.8 X105.449 Y112.391 E5.10747
G1 X105.464 Y112.669 E5.11831
G1 F604.6 X105.543 Y113.118 E5.1362
G1 F599.6 X105.658 Y113.456 E5.15033
G1 F594.6 X105.863 Y113.859 E5.16838
G1 F590.9 X106.146 Y114.257 E5.18799
G1 F586 X106.49 Y114.579 E5.20707
G1 F587.2 X106.692 Y114.739 E5.21749
G1 F590.9 X106.909 Y114.877 E5.22781
G1 F595.8 X107.139 Y115.005 E5.2383
G1 F603.4 X107.416 Y115.124 E5.25015
G1 F608.5 X107.675 Y115.214 E5.26085
G1 F611.1 X108.007 Y115.298 E5.27415
G1 F604.6 X108.376 Y115.355 E5.2888
G1 F595.8 X108.71 Y115.381 E5.30214
G1 F588.4 X109.169 Y115.374 E5.32065
G1 F582.4 X109.588 Y115.304 E5.33796
G1 F577.7 X110.412 Y115.11 E5.37274
G1 F574.2 X110.922 Y114.975 E5.39454
G1 F571.9 X111.474 Y114.858 E5.41795
G1 F573.1 X112.017 Y114.764 E5.44077
G1 F571.9 X112.553 Y114.697 E5.46318
G1 X113.109 Y114.652 E5.48633
G1 X113.668 Y114.63 E5.50954
G1 X114.207 Y114.633 E5.5319
G1 F573.1 X114.765 Y114.658 E5.55503
G1 F571.9 X115.286 Y114.704 E5.57673
G1 X115.859 Y114.781 E5.60072
G1 F573.1 X116.412 Y114.88 E5.62399
G1 X116.938 Y114.999 E5.64632
G1 F571.9 X117.473 Y115.143 E5.66931
G1 F573.1 X117.91 Y115.277 E5.68823
G1 X118.507 Y115.494 E5.71454
G1 F571.9 X119.04 Y115.716 E5.73849
G1 X119.539 Y115.95 E5.76136
G1 X120.007 Y116.193 E5.78324
G1 F573.1 X120.495 Y116.476 E5.8066
G1 X120.965 Y116.774 E5.82965
G1 F571.9 X121.406 Y117.082 E5.85196
G1 X121.863 Y117.432 E5.87585
G1 X122.276 Y117.778 E5.8982
G1 X122.686 Y118.153 E5.92126
G1 X123.085 Y118.551 E5.94464
G1 X123.449 Y118.947 E5.96696
G1 X123.804 Y119.367 E5.98978
G1 F573.1 X124.142 Y119.805 E6.01269
G1 X124.461 Y120.256 E6.03556
G1 F571.9 X124.766 Y120.733 E6.05905
G1 X125.036 Y121.197 E6.08133
G1 F573.1 X125.294 Y121.686 E6.10422
G1 X125.535 Y122.198 E6.12765
G1 X125.745 Y122.694 E6.14996
G1 F570.8 X125.94 Y123.225 E6.17348
G1 X126.104 Y123.739 E6.19591
G1 F571.9 X126.249 Y124.271 E6.21879
G1 F573.1 X126.373 Y124.81 E6.24169
G1 X126.475 Y125.368 E6.26518
G1 X126.55 Y125.913 E6.28796
G1 F559.6 X126.632 Y126.628 E6.31848
G1 F542.6 X126.752 Y126.883 E6.3308
G1 F541.5 X126.923 Y127.133 E6.34408
G1 F548.8 X127.201 Y127.35 E6.35933
G1 F540.5 X127.54 Y127.501 E6.37562
G1 F523.6 X127.825 Y127.554 E6.38875
G1 F508.7 X128.213 Y127.487 E6.40712
G1 F510.5 X128.487 Y127.333 E6.42173
G1 F522.7 X128.719 Y127.125 E6.43588
G1 F536.4 X128.949 Y126.79 E6.45385
G1 F555.2 X129.129 Y126.445 E6.47048
G1 F560.7 X129.288 Y125.995 E6.49068
G1 X129.403 Y125.559 E6.50977
G1 F557.4 X129.475 Y125.13 E6.52829
G1 F550.9 X129.517 Y124.686 E6.5475
G1 F545.7 X129.519 Y124.214 E6.56802
G1 F540.5 X129.502 Y123.925 E6.58073
G1 F535.4 X129.44 Y123.423 E6.60315
G1 F530.5 X129.324 Y122.833 E6.63005
G1 F529.5 X129.119 Y122.098 E6.66425
G1 F531.4 X128.954 Y121.609 E6.68729
G1 F538.5 X128.67 Y120.856 E6.72276
G1 F530.5 X128.067 Y119.464 E6.79062
G1 F602.1 X128.049 Y119.05 E6.80695
G1 F713.5 X128.058 Y118.715 E6.8181
G1 X128.168 Y118.375 E6.82998
G1 X128.183 Y118.043 E6.84104
G1 X128.031 Y117.743 E6.85222
G1 X127.72 Y117.49 E6.86556
G1 X127.447 Y117.42 E6.87493
G1 X127.176 Y117.445 E6.88398
G1 X126.955 Y117.544 E6.89204
G1 X126.75 Y117.734 E6.90133
G1 X126.652 Y117.905 E6.90789
G1 X126.59 Y118.179 E6.91723
G1 X126.639 Y118.494 E6.92784
G1 X126.709 Y118.65 E6.93352
G1 X126.999 Y118.992 E6.94844
G1 X127.276 Y119.365 E6.96389
G1 F602.1 X127.567 Y119.691 E6.98111
G1 F529.5 X127.801 Y120.164 E7.00476
G1 F542.6 X127.963 Y120.525 E7.02207
G1 F543.6 X128.179 Y121.048 E7.04677
G1 F538.5 X128.438 Y121.75 E7.07975
G1 F533.4 X128.653 Y122.42 E7.11105
G1 F531.4 X128.778 Y122.87 E7.1319
G1 F533.4 X128.855 Y123.196 E7.14681
G1 F536.4 X128.948 Y123.736 E7.17104
G1 F540.5 X128.991 Y124.175 E7.19041
G1 F546.7 X128.998 Y124.615 E7.20951
G1 F553.1 X128.97 Y125.023 E7.22706
G1 F558.5 X128.917 Y125.396 E7.24307
G1 F564 X128.849 Y125.691 E7.2558
G1 F567.4 X128.692 Y126.173 E7.277
G1 F559.6 X128.493 Y126.54 E7.29471
G1 F544.6 X128.236 Y126.851 E7.31229
G1 F518.9 X128.027 Y126.943 E7.32273
G1 F516.1 X127.772 Y127.008 E7.33483
G1 F2700 E2.33483
;MESH:NONMESH
G0 F300 X127.772 Y127.008 Z0.6
G0 F7875 X127.705 Y127.225
G0 X127.259 Y127.023
G0 X126.955 Y126.524
G0 X126.286 Y123.687
G0 X125.703 Y122.11
G0 X124.921 Y120.624
G0 X123.953 Y119.25
G0 X122.815 Y118.014
G0 X121.527 Y116.936
G0 X120.11 Y116.033
G0 X117.524 Y114.835
G0 X113.626 Y114.319
G0 X108.933 Y115.089
G0 X108.106 Y115.054
G0 X107.311 Y114.789
G0 X106.867 Y114.516
G0 X106.461 Y114.157
G0 X105.981 Y113.504
