;FLAVOR:Marlin
;TIME:2000
;Filament used: 1.20334m
;Layer height: 0.2
;MINX:89.196
;MINY:87.363
;MINZ:0.2
;MAXX:143.5
;MAXY:150.573
;MAXZ:12
;Generated with Cura_SteamEngine 5.4.0
M140 S60
M105
M190 S60
M104 S210
M105
M109 S210
M82 ;absolute extrusion mode
; Ender 3 Custom Start G-code
G92 E0 ; Reset Extruder
G28 ; Home all axes
G1 Z2.0 F3000 ; Move Z Axis up little to prevent scratching of Heat Bed
G1 X0.1 Y20 Z0.3 F5000.0 ; Move to start position
G1 X0.1 Y200.0 Z0.3 F1500.0 E15 ; Draw the first line
G1 X0.4 Y200.0 Z0.3 F5000.0 ; Move to side a little
G1 X0.4 Y20 Z0.3 F1500.0 E30 ; Draw the second line
G92 E0 ; Reset Extruder
G1 Z2.0 F3000 ; Move Z Axis up little to prevent scratching of Heat Bed
G1 X5 Y20 Z0.3 F5000.0 ; Move over to prevent blob squish
G92 E0
G92 E0
G1 F2700 E-5
;LAYER_COUNT:60
;LAYER:0
M107
;MESH:trigger 03.stl
G0 F6000 X103.698 Y120.299 Z0.2
;TYPE:WALL-INNER
G1 F2700 E0
G1 F1203 X117.412 Y120.298 E0.45499
G1 F1283.4 X118.515 Y120.325 E0.4893
G1 X119.618 Y120.3 E0.52361
G1 F1206 X126.651 Y120.297 E0.75636
G1 F1200 X126.661 Y119.636 E0.77835
G1 X126.755 Y117.818 E0.8389
G1 X126.918 Y116.036 E0.89841
G1 X127.15 Y114.275 E0.95749
G1 X127.457 Y112.517 E1.01685
G1 X127.823 Y110.857 E1.07338
G1 X128.249 Y109.216 E1.12977
G1 X128.725 Y107.651 E1.18418
G1 X129.29 Y106.004 E1.24209
G1 X129.905 Y104.402 E1.29917
G1 X130.614 Y102.741 E1.35923
G1 X131.375 Y101.131 E1.41846
G1 X132.21 Y99.528 E1.47858
G1 X132.635 Y98.772 E1.50742
G1 X133.408 Y97.493 E1.55713
G1 F1253.3 X134.213 Y96.31 E1.6027
G1 F1008.4 X134.559 Y95.633 E1.63279
G1 X133.937 Y96.07 E1.66288
G1 F1253.3 X132.277 Y97.688 E1.7367
G1 F1200 X130.945 Y98.893 E1.79644
G1 X130.224 Y99.516 E1.82814
G1 X129.544 Y100.085 E1.85763
G1 X128.932 Y100.581 E1.88383
G1 X128.362 Y101.024 E1.90784
G1 X127.809 Y101.432 E1.93069
G1 X127.323 Y101.771 E1.9504
G1 X126.813 Y102.101 E1.97061
G1 X126.315 Y102.4 E1.98993
G1 X125.838 Y102.663 E2.00804
G1 X125.372 Y102.895 E2.02536
G1 X124.713 Y103.19 E2.04937
G1 X124.168 Y103.401 E2.06881
G1 X123.571 Y103.603 E2.08977
G1 X122.939 Y103.79 E2.11169
G1 X122.163 Y103.985 E2.1383
G1 X121.224 Y104.178 E2.17019
G1 X119.989 Y104.374 E2.21178
G1 X118.275 Y104.574 E2.26917
G1 X118.095 Y104.788 E2.27847
G1 X117.81 Y104.923 E2.28896
G1 X117.307 Y104.978 E2.30579
G1 X116.589 Y105.101 E2.33002
G1 X116.165 Y105.201 E2.34451
G1 X115.71 Y105.335 E2.36029
G1 X115.37 Y105.45 E2.37222
G1 X114.952 Y105.614 E2.38716
G1 X114.587 Y105.776 E2.40044
G1 X114.259 Y105.938 E2.41261
G1 X113.903 Y106.133 E2.42611
G1 X113.458 Y106.409 E2.44353
G1 X113.224 Y106.565 E2.45288
G1 X112.903 Y106.801 E2.46613
G1 X112.583 Y107.059 E2.4798
G1 X112.283 Y107.324 E2.49312
G1 X111.991 Y107.602 E2.50653
G1 X111.73 Y107.875 E2.51909
G1 X111.449 Y108.196 E2.53328
G1 X111.2 Y108.507 E2.54653
G1 X110.962 Y108.832 E2.55993
G1 X110.752 Y109.147 E2.57252
G1 X110.531 Y109.513 E2.58674
G1 X106.64 Y114.528 E2.79785
G1 X103.698 Y120.299 E3.0133
G0 F6000 X117.451 Y120.103
G0 X117.455 Y119.905
G1 F1203 X116.949 Y119.79 E3.03052
G1 F1200 X116.327 Y119.59 E3.05225
G1 X115.757 Y119.319 E3.07324
G1 X115.364 Y119.094 E3.0883
G1 X114.858 Y118.745 E3.10875
G1 X114.316 Y118.25 E3.13316
G1 X114.019 Y117.934 E3.14758
G1 X113.662 Y117.47 E3.16706
G1 X113.409 Y117.073 E3.18271
G1 X113.144 Y116.566 E3.20174
G1 X112.964 Y116.131 E3.2174
G1 X112.773 Y115.534 E3.23825
G1 X112.654 Y114.863 E3.26091
G1 X112.611 Y114.392 E3.27664
G1 X112.611 Y113.82 E3.29567
G1 X112.66 Y113.296 E3.31317
G1 X112.778 Y112.655 E3.33485
G1 X112.995 Y111.961 E3.35904
G1 X113.199 Y111.497 E3.37589
G1 X113.594 Y110.815 E3.40211
G1 X113.994 Y110.294 E3.42395
G1 X114.422 Y109.828 E3.445
G1 X114.918 Y109.413 E3.46651
G1 X115.356 Y109.109 E3.48424
G1 X115.8 Y108.854 E3.50127
G1 X116.253 Y108.644 E3.51788
G1 X117.052 Y108.348 E3.54622
G1 X117.082 Y108.377 E3.54761
G1 X117.328 Y108.312 E3.55607
G1 X117.977 Y108.221 E3.57786
G1 X118.47 Y108.199 E3.59428
G1 X118.996 Y108.22 E3.61179
G1 X119.478 Y108.28 E3.62794
G1 X120.034 Y108.4 E3.64686
G1 X120.527 Y108.555 E3.66405
G1 X121.049 Y108.769 E3.68281
G1 X121.789 Y109.191 E3.71115
G1 X122.299 Y109.579 E3.73246
G1 X122.647 Y109.895 E3.74809
G1 X123.112 Y110.403 E3.771
G1 X123.459 Y110.893 E3.79097
G1 X123.744 Y111.384 E3.80985
G1 X124.02 Y111.985 E3.83185
G1 X124.209 Y112.591 E3.85296
G1 X124.31 Y113.04 E3.86827
G1 X124.382 Y113.557 E3.88563
G1 X124.406 Y114.1 E3.90371
G1 X124.38 Y114.631 E3.92139
G1 X124.321 Y115.092 E3.93685
G1 X124.212 Y115.604 E3.95426
G1 X124.033 Y116.176 E3.97419
G1 X123.738 Y116.823 E3.99785
G1 X123.417 Y117.376 E4.01911
G1 X123.02 Y117.898 E4.04092
G1 X122.656 Y118.293 E4.05879
G1 X122.295 Y118.62 E4.07499
G1 X121.856 Y118.963 E4.09352
G1 X121.143 Y119.382 E4.12103
G1 X120.517 Y119.645 E4.14361
G1 X120.062 Y119.79 E4.15949
G1 F1206 X119.544 Y119.906 E4.17706
G1 F1266.5 X119.044 Y119.957 E4.1929
G1 F1348.3 X118.515 Y119.974 E4.20857
G1 X117.977 Y119.956 E4.2245
G1 F1263.2 X117.455 Y119.905 E4.24107
G1 F2700 E-0.75893
G0 F6000 X117.396 Y119.994
G0 X118.475 Y120.15
G0 X119.069 Y120.175
G0 X126.482 Y120.125
G0 X128.096 Y109.168
G0 X131.85 Y100.307
G0 X134.565 Y95.628
G1 F2700 E4.24107
G1 F893.9 X135.027 Y95.076 E4.27321
G1 F1116.3 X135.657 Y94.352 E4.30753
G1 F2700 E-0.69247
G0 F6000 X137.012 Y92.875
G0 X138.708 Y91.119
G0 X139.8 Y90.176
;TYPE:WALL-OUTER
G1 F2700 E4.30753
G1 F761.9 X140.614 Y89.543 E4.36155
G1 F852.6 X141.167 Y89.148 E4.39336
G1 F912.5 X141.76 Y88.747 E4.42467
G1 F948.6 X142.389 Y88.347 E4.45603
G1 F965.8 X142.636 Y88.204 E4.46783
G1 F2700 E-0.53217
G0 F6000 X142.834 Y89.147
G0 X132.499 Y101.709
G0 X118.504 Y119.599
G1 F2700 E4.46783
G1 F1200 X118.025 Y119.577 E4.48378
G1 X117.543 Y119.516 E4.49993
G1 X117.068 Y119.408 E4.51614
G1 X116.497 Y119.228 E4.53605
G1 X115.956 Y118.972 E4.55596
G1 X115.548 Y118.738 E4.5716
G1 X115.087 Y118.417 E4.59028
G1 X114.608 Y117.976 E4.61194
G1 X114.311 Y117.66 E4.62636
G1 X114 Y117.255 E4.64335
G1 X113.738 Y116.843 E4.65959
G1 X113.521 Y116.429 E4.67513
G1 X113.328 Y115.962 E4.69194
G1 X113.161 Y115.438 E4.71023
G1 X113.052 Y114.827 E4.73087
G1 X113.009 Y114.356 E4.7466
G1 X113.009 Y113.856 E4.76323
G1 X113.051 Y113.383 E4.77903
G1 X113.16 Y112.773 E4.79964
G1 X113.362 Y112.121 E4.82234
G1 X113.556 Y111.679 E4.8384
G1 X113.927 Y111.037 E4.86306
G1 X114.287 Y110.566 E4.88277
G1 X114.698 Y110.117 E4.90302
G1 X115.155 Y109.735 E4.92283
G1 X115.557 Y109.455 E4.93913
G1 X115.97 Y109.216 E4.955
G1 X116.394 Y109.018 E4.97056
G1 X117.102 Y108.758 E4.99565
G1 X117.125 Y108.779 E4.99668
G1 X117.424 Y108.7 E5.00697
G1 X118.034 Y108.618 E5.02744
G1 X118.506 Y108.599 E5.04315
G1 X118.985 Y108.621 E5.0591
G1 X119.445 Y108.68 E5.07452
G1 X119.916 Y108.782 E5.09055
G1 X120.375 Y108.925 E5.10654
G1 X120.921 Y109.151 E5.1262
G1 X121.548 Y109.511 E5.15024
G1 X122.03 Y109.875 E5.17033
G1 X122.378 Y110.191 E5.18597
G1 X122.803 Y110.657 E5.20694
G1 X123.141 Y111.138 E5.2265
G1 X123.391 Y111.573 E5.24319
G1 X123.638 Y112.105 E5.26269
G1 X123.819 Y112.679 E5.28271
G1 X123.923 Y113.145 E5.29859
G1 X123.985 Y113.61 E5.3142
G1 X124.006 Y114.094 E5.33031
G1 X123.983 Y114.58 E5.34649
G1 X123.921 Y115.058 E5.36252
G1 X123.825 Y115.5 E5.37757
G1 X123.651 Y116.056 E5.39694
G1 X123.39 Y116.625 E5.41776
G1 X123.097 Y117.135 E5.43733
G1 X122.736 Y117.614 E5.45728
G1 X122.386 Y117.997 E5.47453
G1 X122.049 Y118.304 E5.48969
G1 X121.587 Y118.663 E5.50916
G1 X120.943 Y119.036 E5.53391
G1 X120.396 Y119.263 E5.55361
G1 X119.924 Y119.413 E5.57008
G1 X119.468 Y119.515 E5.58562
G1 X118.993 Y119.579 E5.60156
G1 X118.504 Y119.599 E5.61784
G1 F2700 E0.61784
G0 F6000 X118.492 Y119.897
G0 X117.451 Y120.103
G0 X103.457 Y120.447
G0 X103.045 Y120.699
G1 F2700 E5.61784
G1 F1200 X127.045 Y120.697 E6.41608
G1 X127.061 Y119.656 E6.45071
G1 X127.153 Y117.854 E6.51072
G1 X127.315 Y116.088 E6.56971
G1 X127.544 Y114.344 E6.62821
G1 X127.848 Y112.603 E6.68699
G1 X128.216 Y110.936 E6.74377
G1 X128.632 Y109.332 E6.79889
G1 X129.103 Y107.781 E6.8528
G1 X129.664 Y106.148 E6.91023
G1 X130.273 Y104.559 E6.96683
G1 X130.976 Y102.912 E7.02639
G1 X131.73 Y101.316 E7.0851
G1 X132.559 Y99.724 E7.1448
G1 X132.977 Y98.979 E7.17321
G1 X133.742 Y97.714 E7.22238
G1 X134.524 Y96.534 E7.26946
G1 X135.376 Y95.347 E7.31806
G1 X135.963 Y94.59 E7.34992
G1 F993.8 X136.142 Y94.224 E7.36628
G1 F907.4 X137.295 Y92.884 E7.44404
G1 F1034.5 X138.23 Y91.875 E7.49711
G1 F1159.4 X138.968 Y91.144 E7.53287
G1 F1297.3 X139.612 Y90.558 E7.55966
G1 F937.5 X139.8 Y90.176 E7.57778
G1 X139.386 Y90.291 E7.59608
G1 F1318.7 X138.981 Y90.619 E7.61185
G1 F1212.1 X138.371 Y91.148 E7.63844
G1 F1100.9 X137.638 Y91.837 E7.67491
G1 F1019.1 X137.132 Y92.343 E7.70293
G1 F912.5 X135.716 Y93.853 E7.79347
G1 F993.8 X135.38 Y94.081 E7.80978
G1 F1200 X134.215 Y95.274 E7.86524
G1 X131.995 Y97.402 E7.96752
G1 X130.683 Y98.59 E8.02639
G1 X129.967 Y99.209 E8.05787
G1 X129.292 Y99.774 E8.08715
G1 X128.686 Y100.265 E8.11309
G1 X128.124 Y100.702 E8.13677
G1 X127.58 Y101.104 E8.15926
G1 X127.088 Y101.446 E8.17919
G1 X126.607 Y101.758 E8.19826
G1 X126.122 Y102.05 E8.21709
G1 X125.66 Y102.305 E8.23464
G1 X125.186 Y102.54 E8.25224
G1 X124.54 Y102.828 E8.27576
G1 X124.022 Y103.028 E8.29423
G1 X123.457 Y103.219 E8.31407
G1 X122.817 Y103.408 E8.33626
G1 X122.082 Y103.593 E8.36147
G1 X121.161 Y103.783 E8.39275
G1 X119.943 Y103.976 E8.43377
G1 X118.018 Y104.196 E8.49821
G1 X117.875 Y104.454 E8.50802
G1 X117.721 Y104.526 E8.51368
G1 X117.298 Y104.576 E8.52784
G1 X116.854 Y104.644 E8.54278
G1 X116.506 Y104.709 E8.55456
G1 X116.022 Y104.825 E8.57111
G1 X115.622 Y104.942 E8.58497
G1 X115.233 Y105.074 E8.59863
G1 X114.83 Y105.231 E8.61302
G1 X114.451 Y105.398 E8.62679
G1 X114.075 Y105.583 E8.64073
G1 X113.703 Y105.787 E8.65484
G1 X113.308 Y106.029 E8.67025
G1 X112.995 Y106.237 E8.68275
G1 X112.659 Y106.484 E8.69662
G1 X112.325 Y106.753 E8.71088
G1 X112.012 Y107.029 E8.72476
G1 X111.708 Y107.319 E8.73874
G1 X111.435 Y107.605 E8.75189
G1 X111.143 Y107.938 E8.76662
G1 X110.882 Y108.263 E8.78048
G1 X110.634 Y108.603 E8.79448
G1 X110.414 Y108.933 E8.80767
G1 X110.189 Y109.305 E8.82213
G1 X106.301 Y114.312 E9.03298
G1 X103.045 Y120.699 E9.27142
G0 F6000 X103.457 Y120.447
G0 X117.451 Y120.103
G0 X120.97 Y119.567
G0 X120.747 Y119.94
;TYPE:SKIN
G1 F1200 X121.259 Y119.731 E9.28981
G1 X122.047 Y119.269 E9.32019
G1 X122.508 Y118.91 E9.33963
G1 X122.906 Y118.551 E9.35746
G1 X123.283 Y118.143 E9.37593
G1 X123.72 Y117.573 E9.39982
G1 X124.1 Y116.907 E9.42532
G1 X124.369 Y116.31 E9.4471
G1 X124.561 Y115.701 E9.46834
G1 X124.667 Y115.21 E9.48505
G1 X124.735 Y114.685 E9.50266
G1 X124.765 Y114.11 E9.52181
G1 X124.737 Y113.5 E9.54212
G1 X124.678 Y113.043 E9.55744
G1 X124.558 Y112.498 E9.576
G1 X124.354 Y111.851 E9.59857
G1 X124.071 Y111.229 E9.6213
G1 X123.753 Y110.686 E9.64222
G1 X123.4 Y110.184 E9.66264
G1 X122.946 Y109.686 E9.68505
G1 X122.527 Y109.3 E9.704
G1 X121.922 Y108.848 E9.72912
G1 X121.201 Y108.442 E9.75664
G1 X120.674 Y108.225 E9.77559
G1 X120.122 Y108.05 E9.79485
G1 X119.542 Y107.925 E9.81459
G1 X119.025 Y107.861 E9.83191
G1 X118.484 Y107.84 E9.84992
G1 X117.947 Y107.863 E9.8678
G1 X117.307 Y107.949 E9.88928
G1 X117.037 Y108.017 E9.89854
G1 X116.888 Y108.027 E9.9035
G1 X116.124 Y108.308 E9.93058
G1 X115.623 Y108.541 E9.94896
G1 X115.138 Y108.82 E9.96757
G1 X114.71 Y109.12 E9.98495
G1 X114.164 Y109.575 E10.00859
G1 X113.723 Y110.055 E10.03027
G1 X113.289 Y110.624 E10.05407
G1 X112.883 Y111.324 E10.08098
G1 X112.666 Y111.815 E10.09884
G1 X112.435 Y112.547 E10.12437
G1 X112.292 Y113.321 E10.15055
G1 X112.249 Y113.862 E10.1686
G1 X112.252 Y114.433 E10.18759
G1 X112.301 Y114.952 E10.20493
G1 X112.422 Y115.617 E10.22741
G1 X112.603 Y116.189 E10.24737
G1 X112.811 Y116.704 E10.26584
G1 X113.066 Y117.197 E10.2843
G1 X113.405 Y117.73 E10.30531
G1 X113.699 Y118.112 E10.32134
G1 X114.044 Y118.488 E10.33831
G1 X114.585 Y118.993 E10.36293
G1 X115.17 Y119.398 E10.38659
G1 X115.59 Y119.639 E10.4027
G1 X116.222 Y119.939 E10.42597
G1 X104.285 Y119.939 E10.82299
G1 X106.948 Y114.718 E11.01793
G1 X110.794 Y109.765 E11.2265
G1 X111.04 Y109.366 E11.24209
G1 X111.253 Y109.045 E11.2549
G1 X111.482 Y108.732 E11.2678
G1 X111.72 Y108.433 E11.28051
G1 X111.98 Y108.139 E11.29357
G1 X112.254 Y107.85 E11.30681
G1 X112.784 Y107.361 E11.3308
G1 X113.118 Y107.092 E11.34506
G1 X113.431 Y106.861 E11.358
G1 X114.052 Y106.464 E11.38251
G1 X114.378 Y106.284 E11.3949
G1 X114.751 Y106.098 E11.40876
G1 X115.158 Y105.92 E11.42354
G1 X115.472 Y105.797 E11.43475
G1 X115.859 Y105.664 E11.44836
G1 X116.225 Y105.557 E11.46105
G1 X116.735 Y105.435 E11.47849
G1 X117.303 Y105.343 E11.49763
G1 X117.927 Y105.267 E11.51853
G1 X118.282 Y105.095 E11.53165
G1 X118.445 Y104.917 E11.53968
G1 X120.066 Y104.726 E11.59397
G1 X121.31 Y104.529 E11.63586
G1 X122.235 Y104.338 E11.66728
G1 X123.054 Y104.132 E11.69536
G1 X123.631 Y103.962 E11.71537
G1 X124.289 Y103.74 E11.73847
G1 X124.839 Y103.527 E11.75808
G1 X125.49 Y103.236 E11.7818
G1 X126.003 Y102.982 E11.80084
G1 X126.483 Y102.719 E11.81905
G1 X127.002 Y102.407 E11.83919
G1 X127.506 Y102.081 E11.85915
G1 X128.011 Y101.73 E11.87961
G1 X128.579 Y101.313 E11.90304
G1 X129.156 Y100.864 E11.92736
G1 X129.774 Y100.362 E11.95384
G1 X130.588 Y99.678 E11.9892
G1 F991.7 X131.253 Y99.215 E12.02181
G1 F845.1 X132.559 Y98.04 E12.10479
G1 X132.25 Y98.545 E12.13275
G1 X131.829 Y99.298 E12.17349
G1 X131.691 Y99.562 E12.18756
G1 F991.7 X131.392 Y100.312 E12.22005
G1 F1200 X131.094 Y100.877 E12.2413
G1 X130.291 Y102.579 E12.30389
G1 X129.565 Y104.279 E12.36538
G1 X128.963 Y105.851 E12.42136
G1 X128.386 Y107.527 E12.48032
G1 X127.902 Y109.117 E12.5356
G1 X127.488 Y110.713 E12.59044
G1 X127.106 Y112.432 E12.64901
G1 X126.793 Y114.218 E12.70931
G1 X126.562 Y115.983 E12.76852
G1 X126.392 Y117.823 E12.82998
G1 X126.301 Y119.623 E12.88992
G1 X126.296 Y119.937 E12.90037
G1 X120.747 Y119.94 E13.08493
G0 F6000 X120.97 Y119.567
G0 X117.451 Y120.103
G0 X103.99 Y120.119
G0 X104.344 Y119.252
G0 X104.752 Y119.46
G1 F1200 X105.03 Y119.737 E13.09798
G0 F6000 X105.595 Y119.737
G1 F1200 X104.943 Y119.085 E13.12865
G0 F6000 X105.134 Y118.711
G1 F1200 X106.161 Y119.737 E13.17693
G0 F6000 X106.727 Y119.737
G1 F1200 X105.325 Y118.336 E13.24286
G0 F6000 X105.517 Y117.962
G1 F1200 X107.292 Y119.737 E13.32635
G0 F6000 X107.858 Y119.737
G1 F1200 X105.708 Y117.587 E13.42748
G0 F6000 X105.899 Y117.212
G1 F1200 X108.424 Y119.737 E13.54624
G0 F6000 X108.989 Y119.737
G1 F1200 X106.09 Y116.838 E13.6826
G0 F6000 X106.281 Y116.464
G1 F1200 X109.555 Y119.737 E13.83658
G0 F6000 X110.12 Y119.737
G1 F1200 X106.472 Y116.089 E14.00817
G0 F6000 X106.663 Y115.714
G1 F1200 X110.686 Y119.737 E14.1974
G0 F6000 X111.251 Y119.737
G1 F1200 X106.855 Y115.34 E14.4042
G0 F6000 X107.046 Y114.965
G1 F1200 X111.817 Y119.737 E14.62863
G0 F6000 X112.383 Y119.737
G1 F1200 X107.272 Y114.626 E14.86904
G0 F6000 X107.519 Y114.308
G1 F1200 X112.948 Y119.737 E15.1244
G0 F6000 X113.514 Y119.737
G1 F1200 X107.766 Y113.989 E15.39477
G0 F6000 X108.014 Y113.67
G1 F1200 X114.08 Y119.737 E15.68012
G0 F6000 X114.646 Y119.737
G1 F1200 X108.261 Y113.352 E15.98045
G0 F6000 X108.508 Y113.033
G1 F1200 X113.108 Y117.633 E16.19682
G0 F6000 X113.661 Y117.637
G0 X113.015 Y116.517
G0 X112.495 Y116.455
G1 F1200 X108.755 Y112.715 E16.37274
G0 F6000 X109.003 Y112.397
G1 F1200 X112.218 Y115.612 E16.52396
G0 F6000 X112.098 Y114.926
G1 F1200 X109.25 Y112.078 E16.65793
G0 F6000 X109.497 Y111.76
G1 F1200 X112.053 Y114.315 E16.77813
G0 F6000 X112.058 Y113.755
G1 F1200 X109.745 Y111.442 E16.88692
G0 F6000 X109.991 Y111.123
G1 F1200 X112.103 Y113.234 E16.98624
G0 F6000 X112.19 Y112.756
G1 F1200 X110.239 Y110.805 E17.07801
G0 F6000 X110.486 Y110.486
G1 F1200 X112.304 Y112.304 E17.16353
G0 F6000 X112.439 Y111.873
G1 F1200 X110.733 Y110.167 E17.24377
G0 F6000 X110.976 Y109.844
G1 F1200 X112.6 Y111.469 E17.32018
G0 F6000 X112.787 Y111.09
G1 F1200 X111.197 Y109.5 E17.39497
G0 F6000 X111.418 Y109.156
G1 F1200 X112.994 Y110.732 E17.4691
G0 F6000 X113.218 Y110.389
G1 F1200 X111.657 Y108.829 E17.5425
G0 F6000 X111.911 Y108.517
