;FLAVOR:Marlin
;TIME:564
;Filament used: 0.241106m
;Layer height: 0.2
;MINX:107.732
;MINY:112.7
;MINZ:0.2
;MAXX:127.91
;MAXY:122.965
;MAXZ:7.8
;Generated with Cura_SteamEngine 5.4.0
M140 S60
M105
M190 S60
M104 S210
M105
M109 S210
M82 ;absolute extrusion mode
; Ender 3 Custom Start G-code
G92 E0 ; Reset Extruder
G28 ; Home all axes
G1 Z2.0 F3000 ; Move Z Axis up little to prevent scratching of Heat Bed
G1 X0.1 Y20 Z0.3 F5000.0 ; Move to start position
G1 X0.1 Y200.0 Z0.3 F1500.0 E15 ; Draw the first line
G1 X0.4 Y200.0 Z0.3 F5000.0 ; Move to side a little
G1 X0.4 Y20 Z0.3 F1500.0 E30 ; Draw the second line
G92 E0 ; Reset Extruder
G1 Z2.0 F3000 ; Move Z Axis up little to prevent scratching of Heat Bed
G1 X5 Y20 Z0.3 F5000.0 ; Move over to prevent blob squish
G92 E0
G92 E0
G1 F2700 E-5
;LAYER_COUNT:39
;LAYER:0
M107
;MESH:pinky cap 01.stl
G0 F6000 X116.516 Y121.135 Z0.2
;TYPE:WALL-INNER
G1 F2700 E0
G1 F612.2 X119.126 Y121.135 E0.08681
G1 X119.126 Y113.868 E0.32851
G1 X116.514 Y113.867 E0.41539
G1 X116.516 Y121.135 E0.65712
G1 F2700 E-4.34288
G0 F6000 X116.786 Y121.035
G0 X119.256 Y121.265
G0 X119.526 Y121.479
;TYPE:WALL-OUTER
G1 F2700 E0.65712
G1 F612.2 X119.526 Y113.498 E0.92257
G1 X119.461 Y113.468 E0.92495
G1 X116.182 Y113.467 E1.03401
G1 X116.113 Y113.513 E1.03677
G1 X116.116 Y121.457 E1.30099
G1 X116.191 Y121.536 E1.30461
G1 X119.472 Y121.535 E1.41374
G1 X119.526 Y121.479 E1.41632
G0 F6000 X119.256 Y121.265
G0 X116.876 Y121.035
G0 X116.876 Y120.775
;TYPE:SKIN
G1 F612.2 X116.874 Y114.227 E1.63411
G1 X118.766 Y114.228 E1.69704
G1 X118.766 Y120.775 E1.91479
G1 X116.876 Y120.775 E1.97766
G0 F6000 X117.074 Y120.469
G1 F612.2 X117.18 Y120.574 E1.98262
G0 F6000 X117.746 Y120.574
G1 F612.2 X117.074 Y119.903 E2.0142
G0 F6000 X117.074 Y119.337
G1 F612.2 X118.311 Y120.574 E2.07239
G0 F6000 X118.566 Y120.263
G1 F612.2 X117.074 Y118.771 E2.14257
G0 F6000 X117.074 Y118.205
G1 F612.2 X118.566 Y119.697 E2.21275
G0 F6000 X118.566 Y119.131
G1 F612.2 X117.074 Y117.639 E2.28293
G0 F6000 X117.073 Y117.073
G1 F612.2 X118.566 Y118.566 E2.35315
G0 F6000 X118.566 Y118
G1 F612.2 X117.073 Y116.507 E2.42338
G0 F6000 X117.072 Y115.941
G1 F612.2 X118.566 Y117.434 E2.49363
G0 F6000 X118.566 Y116.869
G1 F612.2 X117.072 Y115.375 E2.5639
G0 F6000 X117.072 Y114.81
G1 F612.2 X118.566 Y116.303 E2.63415
G0 F6000 X118.566 Y115.737
G1 F612.2 X117.255 Y114.427 E2.69579
G0 F6000 X117.821 Y114.427
G1 F612.2 X118.566 Y115.172 E2.73083
G0 F6000 X118.566 Y114.606
G1 F612.2 X118.387 Y114.427 E2.73925
;MESH:NONMESH
G0 F300 X118.387 Y114.427 Z0.4
G0 F6000 X118.388 Y113.968
G0 X118.954 Y114.04
G0 X119.256 Y121.265
G0 X119.572 Y121.568
;TIME_ELAPSED:14.398304
;LAYER:1
M106 S85
;TYPE:WALL-INNER
;MESH:pinky cap 01.stl
G1 F692.5 X119.6 Y121.486 E2.74214
G1 X119.601 Y113.486 E3.00822
G1 X119.493 Y113.387 E3.01309
G1 X116.135 Y113.389 E3.12478
G1 X116.066 Y113.437 E3.12757
G1 X116.036 Y113.538 E3.13108
G1 X116.038 Y121.508 E3.39616
G1 X116.177 Y121.611 E3.40192
G1 X119.484 Y121.613 E3.51191
G1 X119.572 Y121.568 E3.51519
G0 F7875 X119.581 Y122.013
;TYPE:WALL-OUTER
G1 F692.5 X119.823 Y121.888 E3.52425
G1 X119.924 Y121.772 E3.52937
G1 X120 Y121.552 E3.53711
G1 X120.001 Y113.444 E3.80678
G1 X119.946 Y113.27 E3.81285
G1 X119.764 Y113.07 E3.82185
G1 X119.579 Y112.987 E3.82859
G1 X116.114 Y112.989 E3.94384
G1 X115.964 Y113.023 E3.94895
G1 X115.78 Y113.147 E3.95633
G1 X115.703 Y113.252 E3.96066
G1 X115.636 Y113.482 E3.96863
G1 X115.637 Y121.517 E4.23588
G1 X115.685 Y121.708 E4.24243
G1 X115.847 Y121.908 E4.25099
G1 X116.098 Y122.011 E4.26001
G1 X119.581 Y122.013 E4.37586
G0 F7875 X119.33 Y121.511
G0 X116.397 Y121.511
G0 X116.398 Y121.251
;TYPE:SKIN
G1 F692.5 X116.398 Y113.748 E4.62541
G1 X119.24 Y113.748 E4.71993
G1 X119.24 Y121.251 E4.96948
G1 X116.398 Y121.251 E5.06401
G0 F7875 X116.397 Y121.511
G0 X118.799 Y121.511
G0 X118.8 Y121.05
G1 F692.5 X119.039 Y120.811 E5.07525
G0 F7875 X119.039 Y120.245
G1 F692.5 X118.234 Y121.05 E5.11311
G0 F7875 X117.668 Y121.05
G1 F692.5 X119.039 Y119.679 E5.1776
G0 F7875 X119.039 Y119.114
G1 F692.5 X117.103 Y121.05 E5.26867
G0 F7875 X116.598 Y120.989
G1 F692.5 X119.039 Y118.548 E5.38348
G0 F7875 X119.039 Y117.982
G1 F692.5 X116.598 Y120.423 E5.4983
G0 F7875 X116.598 Y119.858
G1 F692.5 X119.039 Y117.417 E5.61312
G0 F7875 X119.039 Y116.851
G1 F692.5 X116.598 Y119.292 E5.72793
G0 F7875 X116.598 Y118.726
G1 F692.5 X119.039 Y116.285 E5.84275
G0 F7875 X119.039 Y115.72
G1 F692.5 X116.598 Y118.161 E5.95757
G0 F7875 X116.598 Y117.595
G1 F692.5 X119.039 Y115.154 E6.07239
G0 F7875 X119.039 Y114.588
G1 F692.5 X116.597 Y117.03 E6.18725
G0 F7875 X116.597 Y116.464
G1 F692.5 X119.039 Y114.023 E6.30209
G0 F7875 X118.548 Y113.948
G1 F692.5 X116.597 Y115.899 E6.39386
G0 F7875 X116.597 Y115.333
G1 F692.5 X117.982 Y113.948 E6.45901
G0 F7875 X117.417 Y113.948
G1 F692.5 X116.597 Y114.767 E6.49755
G0 F7875 X116.597 Y114.201
G1 F692.5 X116.851 Y113.948 E6.50948
;MESH:NONMESH
G0 F300 X116.851 Y113.948 Z0.6
G0 F7875 X116.137 Y113.948
G0 X116.209 Y121.439
G0 X119.33 Y121.511
G0 X119.553 Y121.755
;TIME_ELAPSED:26.169540
;LAYER:2
M106 S170
;TYPE:WALL-INNER
;MESH:pinky cap 01.stl
G1 F754.7 X119.689 Y121.664 E6.51492
G1 X119.758 Y121.497 E6.52093
G1 X119.758 Y113.556 E6.78505
G1 X119.716 Y113.371 E6.79136
G1 X119.612 Y113.269 E6.7962
G1 X119.507 Y113.239 E6.79983
G1 X116.172 Y113.235 E6.91076
G1 X116.014 Y113.283 E6.91625
G1 X115.921 Y113.396 E6.92112
G1 X115.885 Y113.536 E6.92593
G1 X115.884 Y121.464 E7.18961
G1 X115.922 Y121.606 E7.1945
G1 X115.998 Y121.7 E7.19852
G1 X116.13 Y121.767 E7.20344
G1 X119.553 Y121.755 E7.31729
G0 F9750 X119.655 Y122.159
;TYPE:WALL-OUTER
G1 F754.7 X119.923 Y122.003 E7.32761
G1 X120.034 Y121.88 E7.33312
G1 X120.158 Y121.574 E7.3441
G1 X120.158 Y113.522 E7.61191
G1 X120.114 Y113.269 E7.62045
G1 X120.043 Y113.131 E7.62561
G1 X119.818 Y112.911 E7.63608
G1 X119.562 Y112.839 E7.64493
G1 X116.132 Y112.835 E7.75901
G1 X115.919 Y112.878 E7.76624
G1 X115.753 Y112.97 E7.77255
G1 X115.556 Y113.21 E7.78287
G1 X115.485 Y113.485 E7.79232
G1 X115.484 Y121.515 E8.0594
G1 X115.556 Y121.79 E8.06886
G1 X115.74 Y122.019 E8.07863
G1 X116.034 Y122.167 E8.08957
G1 X119.655 Y122.159 E8.21001
G0 F9750 X119.612 Y121.558
G0 X116.115 Y121.6
G0 X116.245 Y121.406
;TYPE:SKIN
G1 F754.7 X116.249 Y113.596 E8.46977
G1 X119.398 Y113.599 E8.57451
G1 X119.398 Y121.398 E8.8339
G1 X116.245 Y121.406 E8.93877
G0 F9750 X116.678 Y121.204
G1 F754.7 X116.444 Y120.969 E8.9498
G0 F9750 X116.444 Y120.404
G1 F754.7 X117.243 Y121.203 E8.98738
G0 F9750 X117.807 Y121.201
G1 F754.7 X116.444 Y119.838 E9.0515
G0 F9750 X116.444 Y119.272
G1 F754.7 X118.371 Y121.199 E9.14214
G0 F9750 X118.935 Y121.198
G1 F754.7 X116.444 Y118.706 E9.25933
G0 F9750 X116.444 Y118.141
G1 F754.7 X119.197 Y120.894 E9.38882
G0 F9750 X119.197 Y120.329
G1 F754.7 X116.444 Y117.575 E9.51834
G0 F9750 X116.444 Y117.01
G1 F754.7 X119.197 Y119.763 E9.64783
G0 F9750 X119.197 Y119.197
G1 F754.7 X116.444 Y116.444 E9.77732
G0 F9750 X116.444 Y115.879
G1 F754.7 X119.197 Y118.632 E9.90682
G0 F9750 X119.197 Y118.066
G1 F754.7 X116.444 Y115.313 E10.03631
G0 F9750 X116.444 Y114.747
G1 F754.7 X119.197 Y117.5 E10.1658
G0 F9750 X119.197 Y116.934
G1 F754.7 X116.444 Y114.182 E10.29527
G0 F9750 X116.625 Y113.797
G1 F754.7 X119.197 Y116.369 E10.41625
G0 F9750 X119.197 Y115.803
G1 F754.7 X117.191 Y113.797 E10.51061
G0 F9750 X117.758 Y113.798
G1 F754.7 X119.197 Y115.237 E10.57829
G0 F9750 X119.197 Y114.672
G1 F754.7 X118.324 Y113.798 E10.61938
G0 F9750 X118.89 Y113.798
G1 F754.7 X119.197 Y114.106 E10.63384
;MESH:NONMESH
G0 F300 X119.197 Y114.106 Z0.8
G0 F9750 X119.198 Y113.339
G0 X116.127 Y113.402
G0 X116.015 Y121.532
G0 X115.967 Y121.793
;TIME_ELAPSED:37.963150
;LAYER:3
M106 S255
;TYPE:WALL-INNER
;MESH:pinky cap 01.stl
G1 F808.3 X116.152 Y121.854 E10.64032
G1 X119.49 Y121.851 E10.75134
G1 X119.647 Y121.806 E10.75678
G1 X119.774 Y121.707 E10.76213
G1 X119.865 Y121.523 E10.76896
G1 X119.865 Y113.47 E11.0368
G1 X119.755 Y113.258 E11.04475
G1 X119.518 Y113.146 E11.05346
G1 X116.172 Y113.146 E11.16475
G1 X116.04 Y113.174 E11.16924
G1 X115.887 Y113.28 E11.17543
G1 X115.776 Y113.457 E11.18238
G1 X115.78 Y121.565 E11.45205
G1 X115.967 Y121.793 E11.46186
G1 F2700 E6.46186
G0 F9750 X115.955 Y121.638
G0 X119.59 Y121.698
G0 X119.83 Y122.17
;TYPE:WALL-OUTER
G1 F2700 E11.46186
G1 F808.3 X120.067 Y121.987 E11.47182
G1 X120.184 Y121.82 E11.4786
G1 X120.265 Y121.591 E11.48668
G1 X120.265 Y113.404 E11.75898
G1 X120.198 Y113.206 E11.76593
G1 X120.037 Y112.96 E11.77571
G1 X119.747 Y112.793 E11.78684
G1 X119.571 Y112.746 E11.7929
G1 X116.13 Y112.746 E11.90735
G1 X115.88 Y112.8 E11.91586
G1 X115.592 Y112.997 E11.92746
G1 X115.417 Y113.276 E11.93842
G1 X115.376 Y113.478 E11.94527
G1 X115.38 Y121.563 E12.21418
G1 X115.428 Y121.756 E12.2208
G1 X115.619 Y122.033 E12.23199
G1 X115.781 Y122.153 E12.23869
G1 X116.089 Y122.254 E12.24947
G1 X119.546 Y122.251 E12.36445
G1 X119.83 Y122.17 E12.37428
G0 F9750 X119.505 Y121.452
;TYPE:SKIN
G1 F808.3 X119.427 Y121.491 E12.37718
G1 X116.212 Y121.494 E12.48411
G1 X116.145 Y121.455 E12.48669
G1 X116.136 Y113.577 E12.74871
G1 X116.195 Y113.506 E12.75178
G1 X119.454 Y113.506 E12.86017
G1 X119.505 Y113.544 E12.86229
G1 X119.505 Y121.452 E13.12531
G0 F9750 X119.304 Y121.111
G1 F808.3 X119.124 Y121.291 E13.13378
G0 F9750 X118.559 Y121.291
G1 F808.3 X119.304 Y120.546 E13.16882
G0 F9750 X119.304 Y119.98
G1 F808.3 X117.993 Y121.291 E13.23049
G0 F9750 X117.427 Y121.292
G1 F808.3 X119.304 Y119.414 E13.3188
G0 F9750 X119.304 Y118.849
G1 F808.3 X116.861 Y121.292 E13.43371
G0 F9750 X116.343 Y121.244
G1 F808.3 X119.304 Y118.283 E13.57299
G0 F9750 X119.304 Y117.717
G1 F808.3 X116.343 Y120.678 E13.71226
G0 F9750 X116.343 Y120.113
G1 F808.3 X119.304 Y117.152 E13.85154
G0 F9750 X119.304 Y116.586
G1 F808.3 X116.342 Y119.548 E13.99086
G0 F9750 X116.341 Y118.983
G1 F808.3 X119.304 Y116.02 E14.13023
G0 F9750 X119.304 Y115.454
G1 F808.3 X116.34 Y118.418 E14.26965
G0 F9750 X116.34 Y117.852
G1 F808.3 X119.304 Y114.889 E14.40904
G0 F9750 X119.304 Y114.323
G1 F808.3 X116.34 Y117.287 E14.54846
G0 F9750 X116.339 Y116.722
G1 F808.3 X119.304 Y113.757 E14.68793
G0 F9750 X118.791 Y113.705
G1 F808.3 X116.338 Y116.157 E14.80328
G0 F9750 X116.338 Y115.592
G1 F808.3 X118.225 Y113.705 E14.89204
G0 F9750 X117.659 Y113.705
G1 F808.3 X116.337 Y115.027 E14.95422
G0 F9750 X116.337 Y114.462
G1 F808.3 X117.094 Y113.705 E14.98983
G0 F9750 X116.528 Y113.705
G1 F808.3 X116.336 Y113.897 E14.99886
;MESH:NONMESH
G0 F300 X116.336 Y113.897 Z1
G0 F9750 X115.876 Y113.897
G0 X115.946 Y121.517
G0 X115.812 Y121.758
;TIME_ELAPSED:49.930694
;LAYER:4
;TYPE:WALL-INNER
;MESH:pinky cap 01.stl
G1 F717.2 X116.143 Y121.893 E15.01075
G1 X119.525 Y121.89 E15.12324
G1 X119.764 Y121.81 E15.13162
G1 X119.91 Y121.677 E15.13819
G1 X119.974 Y121.528 E15.14358
G1 X119.974 Y113.533 E15.4095
G1 X119.928 Y113.355 E15.41561
G1 X119.782 Y113.204 E15.4226
G1 X119.533 Y113.106 E15.4315
G1 X116.182 Y113.106 E15.54295
G1 X115.926 Y113.17 E15.55173
G1 X115.762 Y113.28 E15.5583
G1 X115.667 Y113.472 E15.56542
G1 X115.668 Y121.53 E15.83343
G1 X115.812 Y121.758 E15.8424
G1 F2700 E10.8424
G0 F9750 X116.143 Y121.608
G0 X119.656 Y121.745
G0 X119.974 Y122.154
;TYPE:WALL-OUTER
G1 F2700 E15.8424
G1 F717.2 X120.256 Y121.885 E15.85536
G1 X120.374 Y121.61 E15.86532
G1 X120.374 Y113.483 E16.13562
G1 X120.3 Y113.195 E16.14551
G1 X120.214 Y113.058 E16.15089
G1 X120.013 Y112.873 E16.15998
G1 X119.587 Y112.706 E16.1752
G1 X116.133 Y112.706 E16.29008
G1 X115.761 Y112.799 E16.30283
G1 X115.442 Y113.014 E16.31563
G1 X115.267 Y113.382 E16.32918
G1 X115.268 Y121.615 E16.60301
G1 X115.389 Y121.888 E16.61294
G1 X115.562 Y122.078 E16.62149
G1 X115.873 Y122.245 E16.63323
G1 X116.103 Y122.293 E16.64104
G1 X119.571 Y122.29 E16.75639
G1 X119.974 Y122.154 E16.77054
G0 F9750 X119.656 Y121.745
G0 X118.884 Y121.713
G0 X116.696 Y119.333
G0 X116.595 Y119.333
;TYPE:FILL
G1 F717.2 X116.68 Y119.015 E16.78149
G0 F9750 X116.696 Y119.104
G0 X116.73 Y121.593
G0 X116.065 Y121.676
G0 X115.83 Y121.498
G0 X115.828 Y113.509
G0 X116.199 Y113.267
G0 X116.753 Y113.286
G0 X117.055 Y115.681
G0 X117.091 Y115.773
G1 F717.2 X116.592 Y115.274 E16.80496
G0 F9750 X116.694 Y115.274
G0 X117.608 Y115.496
G0 X117.596 Y115.595
G1 F717.2 X118.242 Y113.185 E16.88794
G0 F9750 X118.242 Y113.406
G0 X118.85 Y113.285
G0 X119.517 Y113.268
G0 X119.775 Y113.417
G0 X119.811 Y121.499
G0 X119.619 Y121.757
G0 X119.523 Y121.498
;TYPE:SKIN
G1 F618.3 X119.076 Y121.499 E16.90519
G1 X119.118 Y121.35 E16.91116
G1 X119.118 Y119.384 E16.98701
G1 F664.1 X118.853 Y119.186 E16.9989
G1 F717.2 X117.718 Y119.371 E17.03714
G1 X117.473 Y119.302 E17.04561
G1 X117.355 Y119.287 E17.04957
G1 X117.12 Y119.198 E17.05792
G1 X116.812 Y119.106 E17.06862
G1 X116.678 Y119.113 E17.07308
G1 F664.1 X116.523 Y119.298 E17.08175
G1 F618.3 X116.524 Y121.317 E17.15965
G1 X116.585 Y121.5 E17.16709
G1 X116.202 Y121.501 E17.18186
G1 X116.06 Y121.44 E17.18783
G1 X116.059 Y119.298 E17.27047
G1 F664.1 X116.027 Y118.677 E17.29281
G1 F717.2 X116.028 Y116.371 E17.3695
G1 F662.5 X116.061 Y115.802 E17.39002
G1 F618.3 X116.058 Y113.568 E17.47622
G1 F619.6 X116.242 Y113.497 E17.48381
G1 X116.638 Y113.498 E17.49905
G1 X116.522 Y113.729 E17.50901
G1 F618.3 X116.524 Y115.762 E17.58744
G1 F662.5 X116.685 Y115.911 E17.59534
G1 F717.2 X116.819 Y115.912 E17.5998
G1 X117.081 Y115.822 E17.60901
G1 X117.34 Y115.713 E17.61836
G1 X117.583 Y115.635 E17.62685
G1 X118.008 Y115.688 E17.64109
G1 X118.867 Y115.769 E17.66979
G1 F662.5 X119.117 Y115.609 E17.68048
G1 F616.9 X119.118 Y113.677 E17.75518
G1 F618.3 X119.058 Y113.499 E17.76242
G1 X119.457 Y113.498 E17.77782
G1 X119.577 Y113.567 E17.78316
G1 F616.9 X119.581 Y115.649 E17.86366
G1 F662.5 X119.614 Y116.588 E17.89749
G1 F717.2 X119.614 Y118.293 E17.9542
G1 F664.1 X119.582 Y119.384 E17.9934
G1 F618.3 X119.582 Y121.421 E18.07199
G1 X119.523 Y121.498 E18.07574
G0 F9750 X119.619 Y121.757
G0 X118.884 Y121.713
G0 X116.696 Y119.201
G0 X116.372 Y119.201
G1 F717.2 X116.27 Y119.098 E18.08056
G0 F9750 X116.66 Y118.923
G1 F717.2 X116.227 Y118.489 E18.10095
G0 F9750 X116.227 Y117.924
G1 F717.2 X117.386 Y119.083 E18.15546
G0 F9750 X117.991 Y119.122
G1 F717.2 X116.227 Y117.358 E18.23844
G0 F9750 X116.227 Y116.792
G1 F717.2 X118.477 Y119.043 E18.34429
G0 F9750 X119.351 Y119.351
G1 F717.2 X116.241 Y116.241 E18.49058
G0 F9750 X116.665 Y116.099
G1 F717.2 X119.382 Y118.817 E18.6184
G0 F9750 X119.413 Y118.281
G1 F717.2 X117.143 Y116.012 E18.72515
G0 F9750 X117.543 Y115.846
G1 F717.2 X119.413 Y117.716 E18.81311
G0 F9750 X119.413 Y117.15
G1 F717.2 X118.166 Y115.903 E18.87177
G0 F9750 X118.791 Y115.962
G1 F717.2 X119.413 Y116.584 E18.90102
G0 F9750 X119.37 Y115.976
G1 F717.2 X119.161 Y115.767 E18.91085
G0 F9750 X118.646 Y115.451
;MESH:NONMESH
G0 F300 X118.646 Y115.451 Z1.2
G0 F9750 X118.85 Y113.285
G0 X119.517 Y113.268
G0 X119.775 Y113.417
G0 X119.811 Y121.499
G0 X119.541 Y121.717
G0 X116.143 Y121.608
G0 X115.801 Y121.827
;TIME_ELAPSED:63.259940
;LAYER:5
;TYPE:WALL-INNER
;MESH:pinky cap 01.stl
G1 F600 X116.067 Y121.898 E18.92001
G1 X119.579 Y121.9 E19.03682
G1 X119.86 Y121.816 E19.04657
G1 X120.012 Y121.691 E19.05312
G1 X120.092 Y121.524 E19.05928
G1 X120.093 Y113.546 E19.32463
G1 X120.063 Y113.392 E19.32985
G1 X119.92 Y113.226 E19.33713
G1 X119.634 Y113.103 E19.34749
G1 X116.066 Y113.103 E19.46616
G1 X115.856 Y113.142 E19.47326
G1 X115.717 Y113.228 E19.4787
G1 X115.591 Y113.375 E19.48514
G1 X115.548 Y113.504 E19.48966
G1 X115.548 Y116.419 E19.58662
G1 F589.7 X115.556 Y116.878 E19.60215
G1 F555.6 X115.574 Y117.16 E19.6123
G1 F541.8 X115.566 Y117.558 E19.62697
G1 F544.2 X115.572 Y117.762 E19.63445
G1 F567.4 X115.548 Y118.223 E19.65069
G1 F600 X115.549 Y121.48 E19.75901
G1 X115.585 Y121.627 E19.76405
G1 X115.801 Y121.827 E19.77384
G0 F9750 X115.939 Y121.56
G0 X118.737 Y119.47
G0 X118.668 Y119.044
G1 F600 X118.376 Y119.222 E19.78521
G1 X117.904 Y119.303 E19.80114
G1 X117.377 Y119.252 E19.81875
G1 X116.964 Y119.093 E19.83347
G1 X116.488 Y118.725 E19.85348
G1 F586.8 X116.183 Y118.269 E19.87214
