;FLAVOR:Marlin
;TIME:555
;Filament used: 0.240306m
;Layer height: 0.2
;MINX:107.765
;MINY:111.716
;MINZ:0.2
;MAXX:127.956
;MAXY:122.856
;MAXZ:7.6
;Generated with Cura_SteamEngine 5.4.0
M140 S60
M105
M190 S60
M104 S210
M105
M109 S210
M82 ;absolute extrusion mode
; Ender 3 Custom Start G-code
G92 E0 ; Reset Extruder
G28 ; Home all axes
G1 Z2.0 F3000 ; Move Z Axis up little to prevent scratching of Heat Bed
G1 X0.1 Y20 Z0.3 F5000.0 ; Move to start position
G1 X0.1 Y200.0 Z0.3 F1500.0 E15 ; Draw the first line
G1 X0.4 Y200.0 Z0.3 F5000.0 ; Move to side a little
G1 X0.4 Y20 Z0.3 F1500.0 E30 ; Draw the second line
G92 E0 ; Reset Extruder
G1 Z2.0 F3000 ; Move Z Axis up little to prevent scratching of Heat Bed
G1 X5 Y20 Z0.3 F5000.0 ; Move over to prevent blob squish
G92 E0
G92 E0
G1 F2700 E-5
;LAYER_COUNT:38
;LAYER:0
M107
;MESH:pinky cap 02.stl
G0 F6000 X119.352 Y121.133 Z0.2
;TYPE:WALL-INNER
G1 F2700 E0
G1 F674.5 X119.353 Y113.865 E0.24173
G1 X116.374 Y113.872 E0.34082
G1 X116.375 Y121.128 E0.58215
G1 X119.352 Y121.133 E0.68117
G1 F2700 E-4.31883
G0 F6000 X119.082 Y121.031
G0 X116.244 Y121.258
G0 X115.975 Y121.489
;TYPE:WALL-OUTER
G1 F2700 E0.68117
G1 F674.5 X116.043 Y121.528 E0.68378
G1 X119.707 Y121.534 E0.80564
G1 X119.752 Y121.478 E0.80803
G1 X119.753 Y113.508 E1.07311
G1 X119.705 Y113.464 E1.07528
G1 X116.008 Y113.473 E1.19824
G1 X115.974 Y113.537 E1.20065
G1 X115.975 Y121.489 E1.46514
G0 F6000 X116.244 Y121.258
G0 X118.991 Y121.031
G0 X118.992 Y120.772
;TYPE:SKIN
G1 F674.5 X116.736 Y120.767 E1.54017
G1 X116.734 Y114.233 E1.75749
G1 X118.992 Y114.226 E1.8326
G1 X118.992 Y120.772 E2.05032
G0 F6000 X118.991 Y121.031
G0 X117.17 Y121.028
G0 X117.171 Y120.565
G1 F674.5 X116.934 Y120.329 E2.06144
G0 F6000 X116.934 Y119.763
G1 F674.5 X117.738 Y120.567 E2.09926
G0 F6000 X118.306 Y120.568
G1 F674.5 X116.934 Y119.197 E2.16377
G0 F6000 X116.934 Y118.632
G1 F674.5 X118.792 Y120.489 E2.25114
G0 F6000 X118.792 Y119.923
G1 F674.5 X116.934 Y118.065 E2.33854
G0 F6000 X116.934 Y117.499
G1 F674.5 X118.792 Y119.358 E2.42595
G0 F6000 X118.792 Y118.792
G1 F674.5 X116.934 Y116.934 E2.51335
G0 F6000 X116.933 Y116.367
G1 F674.5 X118.792 Y118.226 E2.60079
G0 F6000 X118.792 Y117.661
G1 F674.5 X116.933 Y115.802 E2.68823
G0 F6000 X116.933 Y115.236
G1 F674.5 X118.791 Y117.094 E2.77563
G0 F6000 X118.791 Y116.529
G1 F674.5 X116.933 Y114.67 E2.86304
G0 F6000 X117.259 Y114.431
G1 F674.5 X118.791 Y115.963 E2.9351
G0 F6000 X118.791 Y115.397
G1 F674.5 X117.823 Y114.429 E2.98064
G0 F6000 X118.388 Y114.428
G1 F674.5 X118.791 Y114.832 E2.99962
;MESH:NONMESH
G0 F300 X118.791 Y114.832 Z0.4
G0 F6000 X119.252 Y114.833
G0 X119.18 Y120.96
G0 X116.244 Y121.258
G0 X116.008 Y121.608
;TIME_ELAPSED:14.588338
;LAYER:1
M106 S85
;TYPE:WALL-INNER
;MESH:pinky cap 02.stl
G1 F754.2 X119.761 Y121.612 E3.12444
G1 X119.83 Y121.448 E3.13036
G1 X119.83 Y113.496 E3.39484
G1 X119.779 Y113.424 E3.39778
G1 X119.678 Y113.389 E3.40133
G1 X116.037 Y113.391 E3.52243
G1 X115.939 Y113.42 E3.52583
G1 X115.892 Y113.502 E3.52898
G1 X115.891 Y121.446 E3.79319
G1 X115.933 Y121.574 E3.79768
G1 X116.008 Y121.608 E3.80041
G1 F2700 E-1.19959
G0 F7875 X115.99 Y121.338
G0 X119.559 Y121.512
G0 X119.914 Y121.972
;TYPE:WALL-OUTER
G1 F2700 E3.80041
G1 F754.2 X120.142 Y121.78 E3.81033
G1 X120.23 Y121.512 E3.81971
G1 X120.23 Y113.414 E4.08905
G1 X120.151 Y113.231 E4.09568
G1 X119.997 Y113.076 E4.10295
G1 X119.744 Y112.989 E4.11185
G1 X115.979 Y112.991 E4.23707
G1 X115.746 Y113.06 E4.24515
G1 X115.635 Y113.147 E4.24984
G1 X115.49 Y113.398 E4.25948
G1 X115.491 Y121.51 E4.52929
G1 X115.579 Y121.78 E4.53874
G1 X115.69 Y121.902 E4.54422
G1 X115.962 Y122.008 E4.55393
G1 X119.698 Y122.013 E4.67819
G1 X119.914 Y121.972 E4.6855
G0 F7875 X119.47 Y121.253
;TYPE:SKIN
G1 F754.2 X116.251 Y121.247 E4.79257
G1 X116.25 Y113.75 E5.04192
G1 X119.47 Y113.75 E5.14902
G1 X119.47 Y121.253 E5.39857
G0 F7875 X118.798 Y121.051
G1 F754.2 X119.269 Y120.58 E5.42072
G0 F7875 X119.269 Y120.015
G1 F754.2 X118.234 Y121.05 E5.46941
G0 F7875 X117.67 Y121.048
G1 F754.2 X119.269 Y119.449 E5.54462
G0 F7875 X119.269 Y118.883
G1 F754.2 X117.105 Y121.048 E5.64643
G0 F7875 X116.541 Y121.046
G1 F754.2 X119.269 Y118.318 E5.77475
G0 F7875 X119.269 Y117.752
G1 F754.2 X116.451 Y120.57 E5.9073
G0 F7875 X116.451 Y120.005
G1 F754.2 X119.269 Y117.187 E6.03985
G0 F7875 X119.269 Y116.621
G1 F754.2 X116.451 Y119.439 E6.1724
G0 F7875 X116.451 Y118.873
G1 F754.2 X119.269 Y116.056 E6.30492
G0 F7875 X119.269 Y115.49
G1 F754.2 X116.45 Y118.308 E6.4375
G0 F7875 X116.45 Y117.743
G1 F754.2 X119.269 Y114.924 E6.57009
G0 F7875 X119.269 Y114.358
G1 F754.2 X116.45 Y117.177 E6.70269
G0 F7875 X116.45 Y116.611
G1 F754.2 X119.112 Y113.95 E6.82788
G0 F7875 X118.546 Y113.95
G1 F754.2 X116.449 Y116.046 E6.92649
G0 F7875 X116.449 Y115.481
G1 F754.2 X117.98 Y113.95 E6.99851
G0 F7875 X117.415 Y113.95
G1 F754.2 X116.449 Y114.915 E7.04392
G0 F7875 X116.449 Y114.349
G1 F754.2 X116.849 Y113.95 E7.06271
;MESH:NONMESH
G0 F300 X116.849 Y113.95 Z0.6
G0 F7875 X116.849 Y113.49
G0 X116.062 Y113.562
G0 X115.99 Y121.338
G0 X115.942 Y121.763
;TIME_ELAPSED:26.471965
;LAYER:2
M106 S255
;TYPE:WALL-INNER
;MESH:pinky cap 02.stl
G1 F820.8 X119.754 Y121.766 E7.1895
G1 X119.93 Y121.644 E7.19662
G1 X119.982 Y121.465 E7.20282
G1 X119.982 Y113.425 E7.47023
G1 X119.841 Y113.274 E7.4771
G1 X119.739 Y113.241 E7.48067
G1 X115.966 Y113.238 E7.60616
G1 X115.737 Y113.408 E7.61565
G1 X115.737 Y121.466 E7.88366
G1 X115.779 Y121.625 E7.88913
G1 X115.942 Y121.763 E7.89623
G1 F2700 E2.89623
G0 F9750 X119.659 Y121.661
G0 X119.94 Y122.123
;TYPE:WALL-OUTER
G1 F2700 E7.89623
G1 F820.8 X120.22 Y121.931 E7.90752
G1 X120.307 Y121.801 E7.91272
G1 X120.382 Y121.516 E7.92253
G1 X120.382 Y113.512 E8.18874
G1 X120.344 Y113.252 E8.19748
G1 X120.191 Y113.034 E8.20634
G1 X120.025 Y112.912 E8.21319
G1 X119.801 Y112.841 E8.22101
G1 X116.009 Y112.838 E8.34713
G1 X115.813 Y112.866 E8.35371
G1 X115.565 Y113.002 E8.36312
G1 X115.39 Y113.212 E8.37221
G1 X115.337 Y113.48 E8.3813
G1 X115.337 Y121.516 E8.64858
G1 X115.41 Y121.798 E8.65827
G1 X115.527 Y121.961 E8.66494
G1 X115.748 Y122.112 E8.67384
G1 X115.92 Y122.163 E8.67981
G1 X119.735 Y122.166 E8.8067
G1 X119.94 Y122.123 E8.81366
G0 F9750 X119.659 Y121.661
G0 X116.099 Y121.663
G0 X116.098 Y121.402
;TYPE:SKIN
G1 F820.8 X116.098 Y113.604 E9.07303
G1 X119.622 Y113.602 E9.19023
G1 X119.622 Y121.4 E9.4496
G1 X116.098 Y121.402 E9.56681
G0 F9750 X116.297 Y120.822
G1 F820.8 X116.674 Y121.2 E9.58456
G0 F9750 X117.24 Y121.2
G1 F820.8 X116.297 Y120.256 E9.62894
G0 F9750 X116.297 Y119.691
G1 F820.8 X117.806 Y121.2 E9.69992
G0 F9750 X118.371 Y121.199
G1 F820.8 X116.297 Y119.125 E9.79747
G0 F9750 X116.297 Y118.559
G1 F820.8 X118.936 Y121.199 E9.92163
G0 F9750 X119.421 Y121.118
G1 F820.8 X116.297 Y117.994 E10.06857
G0 F9750 X116.297 Y117.428
G1 F820.8 X119.421 Y120.553 E10.21554
G0 F9750 X119.421 Y119.987
G1 F820.8 X116.297 Y116.862 E10.36251
G0 F9750 X116.297 Y116.297
G1 F820.8 X119.421 Y119.421 E10.50945
G0 F9750 X119.421 Y118.856
G1 F820.8 X116.297 Y115.731 E10.65642
G0 F9750 X116.297 Y115.165
G1 F820.8 X119.421 Y118.29 E10.80338
G0 F9750 X119.421 Y117.724
G1 F820.8 X116.297 Y114.6 E10.95033
G0 F9750 X116.297 Y114.034
G1 F820.8 X119.421 Y117.159 E11.09729
G0 F9750 X119.421 Y116.593
G1 F820.8 X116.632 Y113.803 E11.2285
G0 F9750 X117.197 Y113.803
G1 F820.8 X119.421 Y116.027 E11.33311
G0 F9750 X119.421 Y115.462
G1 F820.8 X117.763 Y113.803 E11.41112
G0 F9750 X118.328 Y113.803
G1 F820.8 X119.421 Y114.896 E11.46254
G0 F9750 X119.421 Y114.33
G1 F820.8 X118.894 Y113.803 E11.48732
;MESH:NONMESH
G0 F300 X118.894 Y113.803 Z0.8
G0 F9750 X118.893 Y113.341
G0 X119.718 Y113.403
G0 X119.817 Y121.521
G0 X119.799 Y121.849
;TIME_ELAPSED:38.587715
;LAYER:3
;TYPE:WALL-INNER
;MESH:pinky cap 02.stl
G1 F867 X120.024 Y121.672 E11.49685
G1 X120.086 Y121.487 E11.50333
G1 X120.089 Y113.439 E11.77101
G1 X119.899 Y113.211 E11.78088
G1 X119.671 Y113.147 E11.78876
G1 X115.953 Y113.148 E11.91242
G1 X115.754 Y113.263 E11.92007
G1 X115.672 Y113.359 E11.92426
G1 X115.631 Y113.514 E11.9296
G1 X115.633 Y121.52 E12.19588
G1 X115.716 Y121.714 E12.2029
G1 X115.822 Y121.793 E12.20729
G1 X116.015 Y121.851 E12.214
G1 X119.799 Y121.849 E12.33985
G1 F2700 E7.33985
G0 F9750 X119.818 Y121.714
G0 X116.416 Y121.693
G0 X115.802 Y121.633
G0 X115.404 Y121.982
;TYPE:WALL-OUTER
G1 F2700 E12.33985
G1 F867 X115.641 Y122.157 E12.34965
G1 X115.957 Y122.251 E12.36062
G1 X119.791 Y122.249 E12.48814
G1 X119.988 Y122.2 E12.49489
G1 X120.25 Y122.03 E12.50528
G1 X120.382 Y121.866 E12.51228
G1 X120.486 Y121.551 E12.52331
G1 X120.489 Y113.522 E12.79036
G1 X120.445 Y113.268 E12.79893
G1 X120.301 Y113.023 E12.80838
G1 X120.088 Y112.849 E12.81753
G1 X119.727 Y112.747 E12.83001
G1 X115.963 Y112.748 E12.9552
G1 X115.794 Y112.779 E12.96091
G1 X115.494 Y112.95 E12.9724
G1 X115.329 Y113.145 E12.98089
G1 X115.231 Y113.479 E12.99247
G1 X115.233 Y121.565 E13.26141
G1 X115.271 Y121.729 E13.26701
G1 X115.404 Y121.982 E13.27652
G0 F9750 X115.999 Y121.461
;TYPE:SKIN
G1 F867 X115.991 Y113.56 E13.53931
G1 X116.056 Y113.51 E13.54203
G1 X119.621 Y113.508 E13.66061
G1 X119.728 Y113.557 E13.66452
G1 X119.726 Y121.428 E13.92631
G1 X119.687 Y121.488 E13.92869
G1 X116.068 Y121.491 E14.04906
G1 X115.999 Y121.461 E14.05156
G0 F9750 X115.737 Y121.461
G0 X116.038 Y121.69
G0 X119.745 Y121.687
G0 X119.986 Y120.891
G0 X119.525 Y120.89
G1 F867 X119.127 Y121.288 E14.07028
G0 F9750 X118.562 Y121.288
G1 F867 X119.525 Y120.324 E14.1156
G0 F9750 X119.525 Y119.759
G1 F867 X117.996 Y121.288 E14.18752
G0 F9750 X117.429 Y121.289
G1 F867 X119.525 Y119.193 E14.28611
G0 F9750 X119.525 Y118.627
G1 F867 X116.864 Y121.289 E14.4113
G0 F9750 X116.298 Y121.289
G1 F867 X119.525 Y118.062 E14.56309
G0 F9750 X119.526 Y117.495
G1 F867 X116.198 Y120.824 E14.71965
G0 F9750 X116.197 Y120.259
G1 F867 X119.526 Y116.93 E14.87624
G0 F9750 X119.526 Y116.364
G1 F867 X116.196 Y119.694 E15.03287
G0 F9750 X116.196 Y119.129
G1 F867 X119.526 Y115.798 E15.18953
G0 F9750 X119.526 Y115.232
G1 F867 X116.196 Y118.563 E15.34618
G0 F9750 X116.195 Y117.998
G1 F867 X119.526 Y114.667 E15.50286
G0 F9750 X119.526 Y114.101
G1 F867 X116.194 Y117.433 E15.65959
G0 F9750 X116.193 Y116.868
G1 F867 X119.354 Y113.707 E15.80827
G0 F9750 X118.788 Y113.707
G1 F867 X116.193 Y116.303 E15.93036
G0 F9750 X116.192 Y115.738
G1 F867 X118.223 Y113.707 E16.02589
G0 F9750 X117.657 Y113.707
G1 F867 X116.192 Y115.172 E16.0948
G0 F9750 X116.191 Y114.607
G1 F867 X117.091 Y113.707 E16.13713
G0 F9750 X116.526 Y113.707
G1 F867 X116.191 Y114.042 E16.15289
;MESH:NONMESH
G0 F300 X116.191 Y114.042 Z1
G0 F9750 X115.731 Y114.042
G0 X115.801 Y121.532
G0 X119.866 Y121.683
G0 X120.081 Y121.746
;TIME_ELAPSED:50.962051
;LAYER:4
;TYPE:WALL-INNER
;MESH:pinky cap 02.stl
G1 F754 X120.193 Y121.506 E16.1617
G1 X120.198 Y113.467 E16.42908
G1 X120.133 Y113.314 E16.43461
G1 X119.99 Y113.194 E16.44082
G1 X119.741 Y113.106 E16.4496
G1 X115.961 Y113.105 E16.57532
G1 X115.799 Y113.159 E16.581
G1 X115.555 Y113.368 E16.59169
G1 X115.524 Y113.516 E16.59672
G1 X115.523 Y121.52 E16.86293
G1 X115.59 Y121.679 E16.86867
G1 X115.775 Y121.832 E16.87666
G1 X115.987 Y121.895 E16.88401
G1 X119.728 Y121.894 E17.00844
G1 X120.081 Y121.746 E17.02117
G1 F2700 E12.02117
G0 F9750 X119.785 Y121.674
G0 X115.874 Y121.755
G0 X115.93 Y122.295
;TYPE:WALL-OUTER
G1 F2700 E17.02117
G1 F754 X119.784 Y122.294 E17.14935
G1 X120.109 Y122.201 E17.1606
G1 X120.367 Y122.04 E17.17071
G1 X120.523 Y121.804 E17.18012
G1 X120.593 Y121.563 E17.18847
G1 X120.598 Y113.386 E17.46044
G1 X120.464 Y113.07 E17.47185
G1 X120.207 Y112.853 E17.48304
G1 X119.788 Y112.706 E17.49781
G1 X115.897 Y112.705 E17.62722
G1 X115.621 Y112.796 E17.63689
G1 X115.355 Y112.975 E17.64755
G1 X115.182 Y113.194 E17.65684
G1 X115.124 Y113.476 E17.66641
G1 X115.123 Y121.57 E17.93562
G1 X115.264 Y121.919 E17.94814
G1 X115.449 Y122.104 E17.95684
G1 X115.615 Y122.202 E17.96325
G1 X115.93 Y122.295 E17.97418
G0 F9750 X115.874 Y121.755
G0 X116.679 Y121.714
G0 X116.554 Y120.035
G0 X116.453 Y120.035
;TYPE:FILL
G1 F754 X116.712 Y119.069 E18.00744
G0 F9750 X116.664 Y119.156
G0 X116.679 Y121.714
G0 X116.011 Y121.734
G0 X115.686 Y121.509
G0 X115.69 Y113.45
G0 X115.983 Y113.267
G0 X116.668 Y113.285
G0 X117.045 Y115.643
G0 X117.094 Y115.729
G1 F754 X116.453 Y115.088 E18.03759
G0 F9750 X116.554 Y115.088
G0 X117.648 Y115.478
G0 X117.648 Y115.577
G1 F754 X118.289 Y113.185 E18.11996
G0 F9750 X118.289 Y113.405
G0 X116.668 Y113.285
G0 X115.983 Y113.267
G0 X115.69 Y113.45
G0 X115.686 Y121.509
G0 X116.011 Y121.734
G0 X116.679 Y121.714
G0 X116.599 Y121.417
G0 X116.449 Y121.502
;TYPE:SKIN
G1 F648.6 X115.986 Y121.503 E18.13786
G1 X115.916 Y121.423 E18.14197
G1 X115.916 Y119.267 E18.22533
G1 F698.1 X115.884 Y118.603 E18.24921
G1 F754 X115.884 Y116.525 E18.31832
G1 F693.3 X115.918 Y115.873 E18.34194
G1 F645.8 X115.916 Y113.578 E18.43106
G1 F648.6 X116.049 Y113.497 E18.43708
G1 X116.451 Y113.497 E18.45262
G1 X116.382 Y113.687 E18.46044
G1 F645.8 X116.382 Y115.833 E18.54377
G1 F693.3 X116.566 Y115.987 E18.55245
G1 F754 X116.7 Y115.973 E18.55693
G1 X117.451 Y115.62 E18.58453
G1 X118.147 Y115.613 E18.60768
G1 X118.501 Y115.728 E18.62006
G1 X119.113 Y115.727 E18.64041
G1 F698.1 X119.343 Y115.567 E18.65048
G1 F651.4 X119.344 Y113.497 E18.73017
G1 F652.8 X119.684 Y113.498 E18.74323
G1 X119.806 Y113.576 E18.74879
G1 F651.4 X119.804 Y115.607 E18.82698
G1 F698.1 X119.836 Y116.45 E18.85729
G1 F754 X119.834 Y118.472 E18.92454
G1 F701.4 X119.804 Y119.221 E18.95134
G1 F655.6 X119.803 Y121.448 E19.03652
G1 X119.665 Y121.504 E19.04222
G1 X119.296 Y121.503 E19.05633
G1 X119.343 Y121.343 E19.06271
G1 X119.344 Y119.221 E19.14388
G1 F701.4 X119.155 Y119.024 E19.15364
G1 F754 X119.022 Y119.042 E19.1581
G1 X118.624 Y119.243 E19.17293
G1 X118.054 Y119.386 E19.19248
G1 X117.36 Y119.359 E19.21558
G1 X117.151 Y119.25 E19.22342
G1 X116.683 Y119.078 E19.24
G1 X116.548 Y119.077 E19.24449
G1 F698.1 X116.382 Y119.267 E19.25355
G1 F648.6 X116.382 Y121.321 E19.33297
G1 X116.449 Y121.502 E19.34043
G0 F9750 X116.599 Y121.416
G0 X116.554 Y119.112
G0 X116.284 Y119.112
G1 F754 X116.117 Y118.945 E19.34829
G0 F9750 X116.625 Y118.887
G1 F754 X116.082 Y118.345 E19.37381
G0 F9750 X116.082 Y117.779
G1 F754 X117.465 Y119.162 E19.43886
G0 F9750 X118.048 Y119.18
G1 F754 X116.082 Y117.214 E19.53133
G0 F9750 X116.082 Y116.648
G1 F754 X118.5 Y119.066 E19.64507
G0 F9750 X118.885 Y118.885
G1 F754 X116.123 Y116.123 E19.77498
G0 F9750 X116.725 Y116.159
G1 F754 X119.589 Y119.023 E19.9097
G0 F9750 X119.631 Y118.499
G1 F754 X117.125 Y115.994 E20.02755
G0 F9750 X117.517 Y115.82
G1 F754 X119.633 Y117.936 E20.12708
G0 F9750 X119.634 Y117.371
G1 F754 X118.076 Y115.813 E20.20036
G0 F9750 X118.756 Y115.928
G1 F754 X119.635 Y116.806 E20.24168
G0 F9750 X119.618 Y116.224
G1 F754 X119.235 Y115.841 E20.2597
G0 F9750 X118.873 Y115.287
;MESH:NONMESH
G0 F300 X118.873 Y115.287 Z1.2
G0 F9750 X119.245 Y113.398
G0 X119.904 Y113.333
G0 X120.032 Y121.486
G0 X119.798 Y121.679
G0 X119.155 Y121.595
G0 X118.949 Y119.236
G0 X118.85 Y119.038
;TIME_ELAPSED:64.335897
;LAYER:5
;TYPE:WALL-INNER
;MESH:pinky cap 02.stl
G1 F600 X118.564 Y119.217 E20.27092
G1 X118.017 Y119.352 E20.28966
G1 X117.324 Y119.281 E20.31283
G1 X116.811 Y119.032 E20.3318
G1 X116.491 Y118.753 E20.34592
G1 F560.7 X116.174 Y118.322 E20.36496
G1 F495.9 X115.954 Y117.691 E20.39185
G1 F466.9 X115.978 Y117.187 E20.41342
G1 F524 X116.225 Y116.636 E20.43641
G1 F600 X116.481 Y116.255 E20.45168
G1 X116.813 Y115.962 E20.46641
G1 X117.371 Y115.704 E20.48685
G1 X118.024 Y115.648 E20.50865
G1 X118.574 Y115.785 E20.5275
G1 X118.862 Y115.966 E20.53882
G1 X119.011 Y116.367 E20.55305
G1 X118.996 Y118.73 E20.63164
G1 X118.85 Y119.038 E20.64298
G0 F9750 X118.947 Y119.432
G0 X119.897 Y121.579
G0 X120.021 Y121.854
G1 F600 X120.251 Y121.666 E20.65286
G1 X120.312 Y121.49 E20.65905
G1 X120.314 Y113.52 E20.92414
G1 X120.267 Y113.355 E20.92984
G1 X120.138 Y113.222 E20.93601
G1 X119.829 Y113.101 E20.94704
G1 X115.826 Y113.101 E21.08018
G1 X115.545 Y113.246 E21.0907
G1 X115.434 Y113.406 E21.09718
