;FLAVOR:Marlin
;TIME:506
;Filament used: 0.223886m
;Layer height: 0.2
;MINX:108.272
;MINY:108.272
;MINZ:0.2
;MAXX:126.728
;MAXY:126.728
;MAXZ:7.8
;Generated with Cura_SteamEngine 5.4.0
M140 S60
M105
M190 S60
M104 S210
M105
M109 S210
M82 ;absolute extrusion mode
; Ender 3 Custom Start G-code
G92 E0 ; Reset Extruder
G28 ; Home all axes
G1 Z2.0 F3000 ; Move Z Axis up little to prevent scratching of Heat Bed
G1 X0.1 Y20 Z0.3 F5000.0 ; Move to start position
G1 X0.1 Y200.0 Z0.3 F1500.0 E15 ; Draw the first line
G1 X0.4 Y200.0 Z0.3 F5000.0 ; Move to side a little
G1 X0.4 Y20 Z0.3 F1500.0 E30 ; Draw the second line
G92 E0 ; Reset Extruder
G1 Z2.0 F3000 ; Move Z Axis up little to prevent scratching of Heat Bed
G1 X5 Y20 Z0.3 F5000.0 ; Move over to prevent blob squish
G92 E0
G92 E0
G1 F2700 E-5
;LAYER_COUNT:39
;LAYER:0
M106 S255
;MESH:joy hat 01.stl
G0 F6000 X117.128 Y119.624 Z0.2
;TYPE:WALL-OUTER
G1 F2700 E0
G1 F364.2 X117.515 Y119.635 E0.02121
G1 F367 X117.883 Y119.619 E0.04125
G1 F2700 E-4.95875
G0 F6000 X117.882 Y118.635
G0 X117.873 Y116.365
G0 X117.872 Y115.376
G1 F2700 E0.04125
G1 F364.7 X117.485 Y115.365 E0.06243
G1 F367 X117.117 Y115.381 E0.08246
;MESH:NONMESH
G0 F300 X117.117 Y115.381 Z0.4
G0 F6000 X117.173 Y115.201
;TIME_ELAPSED:5.300670
;LAYER:1
;TYPE:WALL-INNER
;MESH:joy hat 01.stl
G1 F395.4 X117.687 Y115.192 E0.10841
G1 F406.1 X117.984 Y115.216 E0.12305
G0 F7875 X119.047 Y115.464
G0 X119.488 Y115.904
G0 X119.903 Y116.671
G0 X120.035 Y117.327
G0 X120.035 Y117.771
G0 X119.829 Y118.517
G0 X119.421 Y119.164
G0 X119.084 Y119.498
G0 X117.827 Y119.799
G1 F395.4 X117.313 Y119.808 E0.14899
G0 F7875 X117.273 Y120.317
;TYPE:WALL-OUTER
G1 F600 X117.659 Y120.316 E0.16183
G1 X118.13 Y120.248 E0.17766
G1 X118.622 Y120.099 E0.19476
G1 F588.2 X118.941 Y119.912 E0.2073
G1 F544.2 X119.211 Y119.707 E0.21973
G1 F516.1 X119.562 Y119.387 E0.2381
G1 F519.5 X119.796 Y119.083 E0.25284
G1 F520.6 X119.979 Y118.775 E0.26657
G1 X120.086 Y118.546 E0.27626
G1 X120.228 Y118.077 E0.29504
G1 X120.287 Y117.725 E0.30872
G1 X120.287 Y117.355 E0.32291
G1 X120.246 Y116.964 E0.33798
G1 F521.7 X120.106 Y116.505 E0.35633
G1 X119.895 Y116.073 E0.37472
G1 X119.711 Y115.789 E0.38766
G1 F519.5 X119.387 Y115.438 E0.40602
G1 F541.8 X119.094 Y115.188 E0.4202
G1 F583.9 X118.793 Y114.996 E0.4324
G1 F600 X118.557 Y114.886 E0.44106
G1 X118.083 Y114.743 E0.45753
G1 X117.727 Y114.684 E0.46953
G1 X117.366 Y114.683 E0.48154
G1 X116.982 Y114.718 E0.49437
G1 F595.5 X116.384 Y114.899 E0.5153
G1 F586.8 X116.057 Y115.086 E0.52811
G1 F551.7 X115.67 Y115.394 E0.546
G1 F520.6 X115.44 Y115.611 E0.55812
G1 F519.5 X115.203 Y115.918 E0.57302
G1 F521.7 X114.952 Y116.343 E0.5919
G1 F522.9 X114.79 Y116.814 E0.61091
G1 X114.714 Y117.275 E0.62874
G1 F521.7 X114.715 Y117.665 E0.64366
G1 X114.784 Y118.134 E0.66179
G1 X114.894 Y118.495 E0.67623
G1 X115.105 Y118.927 E0.69462
G1 X115.29 Y119.213 E0.70764
G1 F520.6 X115.613 Y119.562 E0.72587
G1 F534.5 X115.91 Y119.807 E0.74025
G1 F574.2 X116.191 Y119.995 E0.752
G1 F600 X116.443 Y120.114 E0.76127
G1 X116.917 Y120.257 E0.77773
G1 X117.273 Y120.317 E0.78974
G1 F2700 E-4.21026
G0 F7875 X117.294 Y120.018
G0 X115.834 Y119.507
G0 X116.024 Y119.32
G1 F2700 E0.78974
G1 F539.3 X115.664 Y118.945 E0.80898
G1 F522.9 X115.465 Y118.637 E0.82297
G1 X115.316 Y118.312 E0.83662
G1 F521.7 X115.215 Y117.958 E0.8507
G1 X115.175 Y117.667 E0.86193
G1 F524 X115.178 Y117.235 E0.87839
G1 X115.256 Y116.869 E0.89264
G1 F522.9 X115.364 Y116.565 E0.90495
G1 F521.7 X115.55 Y116.226 E0.91974
G1 F519.5 X115.775 Y115.932 E0.93396
G1 F516.1 X116.023 Y115.689 E0.94739
G1 F554.3 X116.452 Y115.7 E0.96284
G1 F600 X118.619 Y115.699 E1.03491
G1 F579.7 X118.977 Y115.689 E1.04724
G1 F543 X119.313 Y116.026 E1.06473
G1 F525.2 X119.535 Y116.363 E1.08007
G1 F522.9 X119.684 Y116.688 E1.09371
G1 F524 X119.785 Y117.042 E1.10773
G1 F525.2 X119.825 Y117.333 E1.11889
G1 F526.3 X119.822 Y117.765 E1.13527
G1 F527.5 X119.744 Y118.131 E1.14943
G1 F526.3 X119.636 Y118.434 E1.16163
G1 X119.45 Y118.774 E1.17632
G1 F521.7 X119.227 Y119.066 E1.19037
G1 F516.1 X118.967 Y119.317 E1.20435
G1 F554.3 X118.545 Y119.301 E1.21955
G1 F600 X116.381 Y119.3 E1.29153
G1 F578.3 X116.024 Y119.32 E1.30387
;MESH:NONMESH
G0 F300 X116.024 Y119.32 Z0.6
G0 F7875 X115.834 Y119.507
G0 X115.272 Y118.723
G0 X115.009 Y118.002
G0 X114.965 Y117.229
G0 X115.171 Y116.483
G0 X115.579 Y115.836
G0 X116.005 Y115.468
G0 X115.898 Y115.301
;TIME_ELAPSED:10.139456
;LAYER:2
;TYPE:WALL-INNER
;MESH:joy hat 01.stl
G1 F505.3 X115.744 Y115.404 E1.31118
G1 F517.2 X115.432 Y115.712 E1.3281
G1 F516.1 X115.125 Y116.136 E1.34834
G1 F517.2 X114.935 Y116.558 E1.36619
G1 F519.5 X114.802 Y117.005 E1.38411
G1 F520.6 X114.763 Y117.544 E1.40482
G1 F519.5 X114.827 Y118.08 E1.42556
G1 F520.6 X114.972 Y118.555 E1.4446
G1 F524 X115.242 Y119.053 E1.46617
G1 F526.3 X115.596 Y119.467 E1.48683
G1 F531 X115.769 Y119.625 E1.49563
G0 F9750 X115.821 Y119.668
G1 F519.5 X116.218 Y119.913 E1.51355
G1 F507.4 X116.506 Y120.04 E1.52593
G1 X116.839 Y120.146 E1.53968
G1 X117.179 Y120.209 E1.55328
G1 F502.1 X117.486 Y120.226 E1.5655
G1 F501 X117.787 Y120.211 E1.5775
G1 F520.6 X118.139 Y120.165 E1.59111
G1 F535.7 X118.386 Y120.094 E1.60068
G1 X118.636 Y120 E1.61063
G1 F534.5 X118.902 Y119.852 E1.622
G1 F524 X119.17 Y119.66 E1.63455
G1 X118.865 Y119.726 E1.64644
G1 F534.5 X118.09 Y119.724 E1.67537
G1 F516.1 X117.487 Y119.742 E1.6987
G1 F503.1 X116.016 Y119.735 E1.75704
G1 F521.7 X115.769 Y119.625 E1.76738
G1 F534.5 X115.821 Y119.668 E1.7699
G0 F9750 X119.17 Y119.66
G1 F519.5 X119.257 Y119.596 E1.77405
G1 F522.9 X119.57 Y119.287 E1.79084
G1 X119.876 Y118.864 E1.81076
G1 F524 X120.065 Y118.441 E1.82841
G1 F527.5 X120.196 Y118.002 E1.84574
G1 F528.6 X120.236 Y117.455 E1.86644
G1 F525.2 X120.173 Y116.923 E1.8868
G1 F524 X120.028 Y116.446 E1.90579
G1 F528.6 X119.779 Y115.986 E1.92553
G1 F520.6 X119.573 Y115.722 E1.93837
G1 F518.4 X119.396 Y115.524 E1.94859
G1 F531 X119.243 Y115.383 E1.95641
G1 F526.3 X119.022 Y115.23 E1.9666
G1 F512.8 X118.787 Y115.09 E1.97725
G1 F507.4 X118.502 Y114.963 E1.98952
G1 X118.161 Y114.853 E2.00361
G1 X117.821 Y114.791 E2.01721
G1 F503.1 X117.499 Y114.775 E2.02999
G1 F502.1 X117.213 Y114.789 E2.04137
G1 F520.6 X116.873 Y114.832 E2.05451
G1 F536.9 X116.614 Y114.905 E2.06451
G1 X116.364 Y115 E2.07445
G1 F528.6 X116.099 Y115.153 E2.086
G1 F506.3 X115.898 Y115.301 E2.09584
G1 X116.134 Y115.27 E2.10522
G1 F528.6 X116.91 Y115.277 E2.13452
G1 F517.2 X117.513 Y115.257 E2.1578
G1 F503.1 X118.973 Y115.264 E2.2157
G1 F521.7 X119.243 Y115.383 E2.22699
G1 F2700 E-2.77301
G0 F9750 X115.953 Y115.464
G0 X115.571 Y115.845
G0 X115.125 Y116.595
G0 X114.979 Y117.11
G0 X115.01 Y118.01
G0 X115.136 Y118.433
G0 X115.754 Y119.454
G0 X115.982 Y119.262
;TYPE:WALL-OUTER
G1 F2700 E2.22699
G1 F600 X115.578 Y118.779 E2.24793
G1 X115.357 Y118.341 E2.26425
G1 X115.25 Y117.981 E2.27674
G1 X115.201 Y117.572 E2.29044
G1 X115.219 Y117.144 E2.30469
G1 X115.356 Y116.664 E2.32129
G1 X115.528 Y116.314 E2.33426
G1 X115.743 Y116.014 E2.34654
G1 X116.011 Y115.742 E2.35924
G1 F601.5 X116.134 Y115.701 E2.36354
G1 X118.928 Y115.704 E2.45624
G1 X119.025 Y115.749 E2.45979
G1 F600 X119.422 Y116.22 E2.48027
G1 X119.643 Y116.659 E2.49662
G1 X119.756 Y117.042 E2.5099
G1 X119.799 Y117.428 E2.52282
G1 X119.782 Y117.855 E2.53703
G1 X119.655 Y118.31 E2.55275
G1 X119.473 Y118.686 E2.56664
G1 X119.246 Y119.002 E2.57958
G1 X118.99 Y119.258 E2.59162
G1 X118.865 Y119.301 E2.59602
G1 F601.5 X116.068 Y119.296 E2.68881
G1 X115.982 Y119.262 E2.69188
G1 F2700 E-2.30812
G0 F9750 X115.754 Y119.454
G0 X117.481 Y119.968
G0 X117.484 Y120.668
G1 F2700 E2.69188
G1 F600 X117.824 Y120.647 E2.70321
G1 X118.232 Y120.579 E2.71697
G1 X118.512 Y120.499 E2.72666
G1 X118.813 Y120.386 E2.73735
G1 X119.12 Y120.218 E2.74899
G1 X119.363 Y120.058 E2.75867
G1 X119.574 Y119.892 E2.7676
G1 X119.87 Y119.613 E2.78112
G1 X120.128 Y119.264 E2.79556
G1 X120.296 Y118.991 E2.80622
G1 X120.445 Y118.659 E2.81832
G1 X120.572 Y118.265 E2.83209
G1 X120.642 Y117.875 E2.84527
G1 X120.668 Y117.516 E2.85724
G1 X120.649 Y117.199 E2.86781
G1 X120.579 Y116.768 E2.88233
G1 X120.499 Y116.488 E2.89201
G1 X120.385 Y116.188 E2.90269
G1 X120.221 Y115.883 E2.91421
G1 X119.979 Y115.519 E2.92874
G1 F601.5 X119.611 Y115.127 E2.94658
G1 X119.265 Y114.872 E2.96084
G1 X118.992 Y114.704 E2.97148
G1 F600 X118.659 Y114.555 E2.98361
G1 X118.268 Y114.429 E2.99727
G1 X117.876 Y114.357 E3.01053
G1 X117.516 Y114.332 E3.02253
G1 X117.176 Y114.353 E3.03386
G1 X116.768 Y114.421 E3.04762
G1 X116.488 Y114.5 E3.0573
G1 X116.187 Y114.615 E3.06801
G1 F601.5 X115.879 Y114.781 E3.07962
G1 X115.624 Y114.952 E3.08981
G1 F600 X115.427 Y115.107 E3.09815
G1 X115.216 Y115.306 E3.10779
G1 X115.043 Y115.505 E3.11656
G1 X114.872 Y115.736 E3.12612
G1 X114.704 Y116.008 E3.13675
G1 X114.555 Y116.341 E3.14889
G1 X114.429 Y116.732 E3.16255
G1 X114.358 Y117.121 E3.1757
G1 X114.332 Y117.48 E3.18768
G1 X114.353 Y117.824 E3.19914
G1 X114.421 Y118.233 E3.21293
G1 X114.501 Y118.512 E3.22258
G1 X114.615 Y118.812 E3.23326
G1 X114.779 Y119.117 E3.24477
G1 X115.018 Y119.477 E3.25915
G1 X115.298 Y119.775 E3.27275
G1 X115.502 Y119.955 E3.2818
G1 F601.5 X115.723 Y120.121 E3.29097
G1 X116.008 Y120.297 E3.30208
G1 F600 X116.341 Y120.445 E3.3142
G1 X116.732 Y120.571 E3.32786
G1 X117.124 Y120.643 E3.34112
G1 X117.484 Y120.668 E3.35312
;MESH:NONMESH
G0 F300 X117.484 Y120.668 Z0.8
G0 F9750 X117.481 Y119.968
G0 X115.821 Y119.635
;TIME_ELAPSED:17.965450
;LAYER:3
;TYPE:WALL-INNER
;MESH:joy hat 01.stl
G1 F586.8 X115.502 Y119.322 E3.36832
G1 F591.1 X115.209 Y118.936 E3.38468
G1 X115.037 Y118.617 E3.39691
G1 X114.885 Y118.187 E3.41231
G1 F592.6 X114.805 Y117.71 E3.4286
G1 X114.801 Y117.327 E3.4415
G1 X114.861 Y116.862 E3.45729
G1 F594.1 X115.026 Y116.41 E3.47345
G1 F595.5 X115.303 Y115.902 E3.49284
G1 F597 X115.719 Y115.454 E3.51327
G1 F588.2 X115.875 Y115.349 E3.51965
G1 F586.8 X116.057 Y115.302 E3.52605
G1 F595.5 X118.984 Y115.299 E3.62413
G1 F594.1 X119.225 Y115.411 E3.63306
G1 F592.6 X119.542 Y115.728 E3.64815
G1 F594.1 X119.791 Y116.064 E3.6622
G1 F592.6 X119.963 Y116.383 E3.67441
G1 F591.1 X120.115 Y116.811 E3.68974
G1 F594.1 X120.195 Y117.29 E3.70605
G1 F595.5 X120.2 Y117.67 E3.71879
G1 F600 X120.135 Y118.14 E3.73457
G1 F603 X119.957 Y118.64 E3.75213
G1 X119.689 Y119.1 E3.76975
G1 F598.5 X119.306 Y119.516 E3.78861
G1 F585.4 X119.111 Y119.661 E3.79689
G1 F586.8 X118.944 Y119.698 E3.80271
G1 F597 X116.137 Y119.7 E3.89654
G1 F592.6 X115.821 Y119.635 E3.9074
G0 F9750 X115.475 Y119.718
G0 X116.432 Y120.239
G0 X117.275 Y120.495
G0 X117.274 Y120.609
G1 F600 X117.636 Y120.609 E3.91944
G1 X117.963 Y120.577 E3.93037
G1 X118.245 Y120.521 E3.93993
G1 X118.496 Y120.447 E3.94863
G1 X118.79 Y120.336 E3.95909
G1 F597 X119.113 Y120.157 E3.97143
G1 F591.1 X119.58 Y119.824 E3.99079
G1 F592.6 X119.932 Y119.436 E4.00844
G1 F595.5 X120.085 Y119.225 E4.01717
G1 F591.1 X120.259 Y118.931 E4.0287
G1 F586.8 X120.402 Y118.611 E4.04062
G1 F595.5 X120.521 Y118.236 E4.05381
G1 F597 X120.588 Y117.849 E4.06693
G1 F589.7 X120.606 Y117.371 E4.08312
G1 F588.2 X120.573 Y117.037 E4.09451
G1 F589.7 X120.519 Y116.756 E4.10419
G1 X120.445 Y116.511 E4.11285
G1 F588.2 X120.333 Y116.211 E4.12372
G1 F591.1 X120.167 Y115.904 E4.1355
G1 F589.7 X120.001 Y115.656 E4.1456
G1 F586.8 X119.778 Y115.379 E4.15769
G1 F589.7 X119.438 Y115.071 E4.17322
G1 F594.1 X119.225 Y114.914 E4.18211
G1 F598.5 X118.946 Y114.742 E4.19304
G1 F600 X118.61 Y114.594 E4.20525
G1 X118.366 Y114.513 E4.2138
G1 X118.112 Y114.449 E4.22251
G1 X117.735 Y114.392 E4.23519
G1 X117.364 Y114.391 E4.24753
G1 X117.037 Y114.423 E4.25846
G1 X116.755 Y114.479 E4.26802
G1 X116.504 Y114.553 E4.27673
G1 X116.21 Y114.664 E4.28718
G1 F597 X115.896 Y114.836 E4.29915
G1 F592.6 X115.413 Y115.181 E4.31913
G1 X115.075 Y115.556 E4.33614
G1 F595.5 X114.914 Y115.775 E4.34524
G1 F589.7 X114.746 Y116.056 E4.35632
G1 F588.2 X114.551 Y116.493 E4.37256
G1 F594.1 X114.451 Y116.887 E4.38621
G1 X114.394 Y117.276 E4.39942
G1 F591.1 X114.395 Y117.643 E4.41181
G1 F588.2 X114.428 Y117.964 E4.42276
G1 F589.7 X114.501 Y118.347 E4.43595
G1 X114.667 Y118.789 E4.45193
G1 X114.916 Y119.24 E4.46936
G1 F588.2 X115.225 Y119.624 E4.48609
G1 F589.7 X115.562 Y119.929 E4.50147
G1 X115.777 Y120.084 E4.51044
G1 F594.1 X116.054 Y120.258 E4.52143
G1 F600 X116.39 Y120.406 E4.53364
G1 X116.634 Y120.487 E4.54219
G1 X116.888 Y120.551 E4.5509
G1 X117.274 Y120.609 E4.56388
G0 F9750 X117.656 Y121.009
;TYPE:WALL-OUTER
G1 F600 X118.021 Y120.973 E4.57608
G1 X118.341 Y120.91 E4.58693
G1 X118.61 Y120.831 E4.59626
G1 X118.957 Y120.701 E4.60858
G1 X119.311 Y120.508 E4.62199
G1 X119.576 Y120.334 E4.63253
G1 X119.9 Y120.074 E4.64635
G1 X120.238 Y119.698 E4.66317
G1 X120.415 Y119.456 E4.67314
G1 X120.613 Y119.132 E4.68577
G1 X120.776 Y118.767 E4.69906
G1 X120.867 Y118.494 E4.70863
G1 X120.943 Y118.192 E4.71899
G1 X120.988 Y117.903 E4.72872
G1 X121.009 Y117.642 E4.73743
G1 X121.009 Y117.343 E4.74737
G1 X120.975 Y116.988 E4.75924
G1 X120.91 Y116.659 E4.77039
G1 X120.831 Y116.39 E4.77971
G1 X120.701 Y116.043 E4.79204
G1 X120.513 Y115.697 E4.80514
G1 X120.334 Y115.425 E4.81597
G1 X120.073 Y115.101 E4.8298
G1 X119.701 Y114.764 E4.8465
G1 X119.456 Y114.585 E4.85659
G1 X119.132 Y114.387 E4.86922
G1 X118.772 Y114.226 E4.88234
G1 X118.493 Y114.133 E4.89212
G1 X118.192 Y114.057 E4.90244
G1 X117.903 Y114.012 E4.91217
G1 X117.642 Y113.992 E4.92088
G1 X117.344 Y113.991 E4.93079
G1 X116.979 Y114.027 E4.94299
G1 X116.659 Y114.09 E4.95384
G1 X116.39 Y114.169 E4.96316
G1 X116.043 Y114.299 E4.97549
G1 X115.666 Y114.506 E4.98979
G1 X115.426 Y114.666 E4.99938
G1 X115.089 Y114.936 E5.01375
G1 X114.768 Y115.294 E5.02974
G1 X114.585 Y115.544 E5.04004
G1 X114.387 Y115.868 E5.05267
G1 X114.224 Y116.234 E5.066
G1 X114.135 Y116.497 E5.07523
G1 X114.057 Y116.807 E5.08587
G1 X114.012 Y117.097 E5.09563
G1 X113.991 Y117.358 E5.10434
G1 X113.991 Y117.652 E5.11411
G1 X114.025 Y118.012 E5.12614
G1 X114.09 Y118.339 E5.13723
G1 X114.169 Y118.61 E5.14662
G1 X114.299 Y118.957 E5.15894
G1 X114.487 Y119.303 E5.17204
G1 X114.666 Y119.575 E5.18287
G1 X114.93 Y119.903 E5.19687
G1 X115.299 Y120.236 E5.21341
G1 X115.544 Y120.415 E5.2235
G1 X115.868 Y120.613 E5.23613
G1 X116.228 Y120.774 E5.24924
G1 X116.507 Y120.867 E5.25903
G1 X116.808 Y120.943 E5.26935
G1 X117.097 Y120.988 E5.27908
G1 X117.358 Y121.009 E5.28779
G1 X117.656 Y121.009 E5.2977
G1 F2700 E0.2977
G0 F9750 X117.641 Y120.71
G0 X116.421 Y120.232
G0 X115.475 Y119.718
G0 X116.058 Y119.3
G1 F2700 E5.2977
G1 F600 X115.768 Y119.013 E5.31127
G1 X115.545 Y118.715 E5.32365
G1 X115.392 Y118.422 E5.33464
G1 X115.271 Y118.074 E5.3469
G1 X115.205 Y117.672 E5.36045
G1 X115.203 Y117.358 E5.37089
G1 X115.254 Y116.959 E5.38427
G1 X115.388 Y116.587 E5.39742
G1 X115.635 Y116.136 E5.41452
G1 X116.007 Y115.744 E5.4325
G1 X116.107 Y115.701 E5.43612
G1 X118.94 Y115.699 E5.53034
G1 X119.228 Y115.981 E5.54375
G1 X119.455 Y116.285 E5.55637
G1 X119.608 Y116.578 E5.56736
G1 X119.729 Y116.926 E5.57962
G1 X119.796 Y117.345 E5.59373
G1 X119.798 Y117.639 E5.60351
G1 X119.746 Y118.042 E5.61702
G1 X119.607 Y118.426 E5.63061
G1 X119.366 Y118.864 E5.64723
G1 X118.993 Y119.257 E5.66526
G1 X118.893 Y119.299 E5.66886
G1 X116.058 Y119.3 E5.76316
G0 F9750 X115.475 Y119.718
G0 X116.539 Y120.297
G0 X116.812 Y120.343
G0 X117.943 Y120.477
G0 X117.907 Y120.14
;TYPE:SKIN
G1 F414.5 X117.507 Y120.16 E5.78244
G1 F422.5 X116.974 Y120.129 E5.80765
G0 F9750 X116.894 Y120.448
G0 X115.862 Y119.941
G0 X115.304 Y119.471
G0 X115.043 Y119.135
G0 X114.964 Y117.356
G0 X115.02 Y116.904
G0 X115.537 Y115.291
G0 X116.277 Y114.81
G0 X116.901 Y114.629
G0 X117.916 Y114.512
G0 X117.903 Y114.855
G1 F415.2 X117.379 Y114.845 E5.83284
G1 F418.1 X117.094 Y114.86 E5.84646
;MESH:NONMESH
G0 F300 X117.094 Y114.86 Z1
G0 F9750 X117.057 Y114.523
G0 X115.978 Y114.978
G0 X115.537 Y115.291
G0 X115.02 Y116.904
G0 X114.966 Y117.692
G0 X115.043 Y119.135
G0 X115.227 Y119.335
G0 X115.884 Y120.028
G0 X115.83 Y119.726
;TIME_ELAPSED:27.312677
;LAYER:4
;TYPE:WALL-INNER
;MESH:joy hat 01.stl
G1 F411.7 X115.647 Y119.595 E5.85737
