;FLAVOR:Marlin
;TIME:3412
;Filament used: 3.76395m
;Layer height: 0.3
;MINX:62.524
;MINY:76.202
;MINZ:0.2
;MAXX:172.475
;MAXY:158.798
;MAXZ:2
;Generated with Cura_SteamEngine 5.4.0
M140 S60
M105
M190 S60
M104 S210
M105
M109 S210
M82 ;absolute extrusion mode
; Ender 3 Custom Start G-code
G92 E0 ; Reset Extruder
G28 ; Home all axes
G1 Z2.0 F3000 ; Move Z Axis up little to prevent scratching of Heat Bed
G1 X0.1 Y20 Z0.3 F5000.0 ; Move to start position
G1 X0.1 Y200.0 Z0.3 F1500.0 E15 ; Draw the first line
G1 X0.4 Y200.0 Z0.3 F5000.0 ; Move to side a little
G1 X0.4 Y20 Z0.3 F1500.0 E30 ; Draw the second line
G92 E0 ; Reset Extruder
G1 Z2.0 F3000 ; Move Z Axis up little to prevent scratching of Heat Bed
G1 X5 Y20 Z0.3 F5000.0 ; Move over to prevent blob squish
G92 E0
G92 E0
G1 F2700 E-5
;LAYER_COUNT:7
;LAYER:0
M107
;MESH:Top Plate.stl
G0 F6000 X80.562 Y82.821 Z0.2
;TYPE:WALL-INNER
G1 F2700 E0
G1 F1200 X80.049 Y83.132 E0.01995
G1 X79.63 Y83.279 E0.03472
G1 X79.261 Y83.344 E0.04718
G1 X78.656 Y83.323 E0.06732
G1 X78.219 Y83.203 E0.08239
G1 X77.729 Y82.973 E0.10039
G1 X77.298 Y82.575 E0.11991
G1 X77.069 Y82.274 E0.13249
G1 X76.806 Y81.725 E0.15273
G1 X76.713 Y81.295 E0.16737
G1 X76.712 Y80.728 E0.18622
G1 X76.844 Y80.124 E0.20679
G1 X77.197 Y79.553 E0.22911
G1 X77.441 Y79.284 E0.24119
G1 X77.787 Y79.013 E0.25581
G1 X78.319 Y78.763 E0.27536
G1 X78.747 Y78.667 E0.28995
G1 X79.344 Y78.667 E0.30981
G1 X79.914 Y78.793 E0.32922
G1 X80.471 Y79.13 E0.35088
G1 X80.865 Y79.487 E0.36856
G1 X81.171 Y79.992 E0.3882
G1 X81.317 Y80.385 E0.40214
G1 X81.394 Y80.808 E0.41644
G1 X81.362 Y81.399 E0.43613
G1 X81.218 Y81.953 E0.45517
G1 X80.901 Y82.447 E0.47469
G1 X80.562 Y82.821 E0.49148
G1 F2700 E-4.50852
G0 F6000 X80.616 Y82.907
G0 X79.668 Y83.455
G0 X72.616 Y96.623
G0 X70.61 Y103.256
G1 F2700 E0.49148
G1 F1200 X70.198 Y103.363 E0.50564
G1 X69.896 Y103.418 E0.51585
G1 X69.523 Y103.453 E0.52831
G1 X69.129 Y103.453 E0.54141
G1 X68.825 Y103.428 E0.55156
G1 X68.465 Y103.366 E0.56371
G1 X68.072 Y103.263 E0.57722
G1 X67.644 Y103.101 E0.59244
G1 X67.258 Y102.899 E0.60693
G1 X67 Y102.737 E0.61706
G1 X66.677 Y102.491 E0.63057
G1 X66.341 Y102.178 E0.64584
G1 X66.059 Y101.839 E0.66051
G1 X65.881 Y101.584 E0.67085
G1 X65.68 Y101.238 E0.68416
G1 X65.529 Y100.909 E0.6962
G1 X65.375 Y100.477 E0.71145
G1 X65.271 Y100.009 E0.7274
G1 X65.229 Y99.567 E0.74217
G1 X65.228 Y99.164 E0.75557
G1 X65.259 Y98.781 E0.76835
G1 X65.389 Y98.19 E0.78848
G1 X65.521 Y97.821 E0.80151
G1 X65.696 Y97.446 E0.81528
G1 X65.842 Y97.19 E0.82508
G1 X66.052 Y96.888 E0.83731
G1 X66.317 Y96.57 E0.85108
G1 X66.522 Y96.363 E0.86077
G1 X66.841 Y96.094 E0.87465
G1 X67.139 Y95.888 E0.8867
G1 X67.398 Y95.738 E0.89665
G1 X67.767 Y95.566 E0.91019
G1 X68.206 Y95.409 E0.9257
G1 X68.716 Y95.3 E0.94304
G1 X69.204 Y95.255 E0.95934
G1 X69.687 Y95.273 E0.97542
G1 X70.037 Y95.319 E0.98716
G1 X70.407 Y95.404 E0.99979
G1 X70.88 Y95.564 E1.0164
G1 X71.215 Y95.718 E1.02866
G1 X71.594 Y95.936 E1.0432
G1 X71.955 Y96.213 E1.05834
G1 X72.22 Y96.453 E1.07023
G1 X72.463 Y96.72 E1.08223
G1 X72.732 Y97.07 E1.09692
G1 X72.948 Y97.442 E1.11122
G1 X73.113 Y97.793 E1.12412
G1 X73.234 Y98.123 E1.13581
G1 X73.328 Y98.475 E1.14793
G1 X73.387 Y98.804 E1.15905
G1 X73.42 Y99.17 E1.17127
G1 X73.419 Y99.549 E1.18388
G1 X73.381 Y99.986 E1.19847
G1 X73.287 Y100.409 E1.21288
G1 X73.183 Y100.741 E1.22445
G1 X73.035 Y101.102 E1.23743
G1 X72.872 Y101.412 E1.24908
G1 X72.68 Y101.713 E1.26095
G1 X72.47 Y101.988 E1.27246
G1 X72.213 Y102.269 E1.28513
G1 X71.969 Y102.49 E1.29607
G1 X71.686 Y102.71 E1.308
G1 X71.374 Y102.91 E1.32032
G1 X71.065 Y103.071 E1.33191
G1 X70.61 Y103.256 E1.34825
G1 F2700 E-3.65175
G0 F6000 X69.537 Y103.634
G0 X67.86 Y109.262
G0 X67.491 Y114.107
G1 F2700 E1.34825
G1 F1200 X66.68 Y114.024 E1.37536
G1 X66.017 Y113.717 E1.39966
G1 X65.476 Y113.228 E1.42392
G1 X65.193 Y112.736 E1.4428
G1 X65.053 Y112.352 E1.45639
G1 X64.988 Y111.998 E1.46836
G1 X64.979 Y111.539 E1.48363
G1 X65.077 Y110.97 E1.50284
G1 X65.394 Y110.39 E1.52482
G1 X65.723 Y110.011 E1.54151
G1 X66.07 Y109.746 E1.55603
G1 X66.599 Y109.497 E1.57548
G1 X67.207 Y109.369 E1.59615
G1 X67.852 Y109.449 E1.61776
G1 X68.218 Y109.561 E1.63049
G1 X68.649 Y109.786 E1.64666
G1 X69.065 Y110.158 E1.66523
G1 X69.289 Y110.451 E1.67749
G1 X69.538 Y110.912 E1.69492
G1 X69.69 Y111.57 E1.71738
G1 X69.624 Y112.217 E1.73901
G1 X69.453 Y112.784 E1.75871
G1 X69.119 Y113.256 E1.77794
G1 X68.823 Y113.551 E1.79184
G1 X68.489 Y113.78 E1.80531
G1 X68.15 Y113.938 E1.81775
G1 X67.491 Y114.107 E1.84038
G1 F2700 E-3.15962
G0 F6000 X66.901 Y114.148
G0 X67.501 Y114.29
G0 X68.643 Y120.127
G0 X70.639 Y128.247
G1 F2700 E1.84038
G1 F1200 X70.244 Y128.353 E1.85398
G1 X69.841 Y128.425 E1.8676
G1 X69.532 Y128.452 E1.87791
G1 X69.129 Y128.453 E1.89132
G1 X68.825 Y128.428 E1.90146
G1 X68.419 Y128.356 E1.91518
G1 X68.072 Y128.263 E1.92712
G1 X67.644 Y128.101 E1.94234
G1 X67.258 Y127.899 E1.95683
G1 X67 Y127.737 E1.96697
G1 X66.677 Y127.491 E1.98047
G1 X66.341 Y127.178 E1.99574
G1 X66.059 Y126.839 E2.01041
G1 X65.881 Y126.584 E2.02075
G1 X65.68 Y126.238 E2.03406
G1 X65.529 Y125.909 E2.0461
G1 X65.375 Y125.477 E2.06136
G1 X65.271 Y125.009 E2.0773
G1 X65.229 Y124.567 E2.09207
G1 X65.228 Y124.164 E2.10547
G1 X65.259 Y123.781 E2.11825
G1 X65.389 Y123.19 E2.13838
G1 X65.521 Y122.821 E2.15142
G1 X65.698 Y122.442 E2.16533
G1 X65.844 Y122.188 E2.17507
G1 X66.051 Y121.889 E2.18717
G1 X66.317 Y121.57 E2.20098
G1 X66.522 Y121.363 E2.21067
G1 X66.841 Y121.094 E2.22455
G1 X67.139 Y120.888 E2.2366
G1 X67.398 Y120.738 E2.24655
G1 X67.744 Y120.575 E2.25928
G1 X68.17 Y120.418 E2.27438
G1 X68.716 Y120.3 E2.29296
G1 X69.221 Y120.255 E2.30982
G1 X69.706 Y120.275 E2.32596
G1 X70.023 Y120.317 E2.3366
G1 X70.378 Y120.395 E2.34869
G1 X70.881 Y120.564 E2.36634
G1 X71.191 Y120.707 E2.37769
G1 X71.595 Y120.937 E2.39315
G1 X71.974 Y121.229 E2.40907
G1 X72.223 Y121.457 E2.4203
G1 X72.458 Y121.714 E2.43188
G1 X72.753 Y122.103 E2.44812
G1 X72.958 Y122.462 E2.46187
G1 X73.102 Y122.766 E2.47305
G1 X73.229 Y123.107 E2.48516
G1 X73.325 Y123.462 E2.49739
G1 X73.389 Y123.818 E2.50942
G1 X73.42 Y124.185 E2.52167
G1 X73.419 Y124.549 E2.53378
G1 X73.387 Y124.948 E2.54709
G1 X73.288 Y125.409 E2.56277
G1 X73.175 Y125.764 E2.57516
G1 X73.047 Y126.077 E2.58641
G1 X72.873 Y126.411 E2.59894
G1 X72.711 Y126.668 E2.60904
G1 X72.454 Y127.006 E2.62316
G1 X72.239 Y127.244 E2.63383
G1 X71.949 Y127.506 E2.64683
G1 X71.681 Y127.714 E2.65811
G1 X71.366 Y127.914 E2.67052
G1 X71.064 Y128.072 E2.68186
G1 X70.639 Y128.247 E2.69715
G1 F2700 E-2.30285
G0 F6000 X70.23 Y128.541
G0 X70.892 Y144.978
G0 X72.349 Y149.494
G1 F2700 E2.69715
G1 F1200 X71.823 Y149.741 E2.71647
G1 X71.397 Y149.837 E2.731
G1 X70.797 Y149.837 E2.75095
G1 X70.285 Y149.718 E2.76844
G1 X69.751 Y149.44 E2.78846
G1 X69.259 Y149.002 E2.81037
G1 X68.961 Y148.492 E2.83002
G1 X68.769 Y147.95 E2.84914
G1 X68.746 Y147.394 E2.86765
G1 X68.817 Y146.849 E2.88593
G1 X69.068 Y146.312 E2.90564
G1 X69.348 Y145.929 E2.92142
G1 X69.637 Y145.658 E2.9346
G1 X70.009 Y145.413 E2.94942
G1 X70.476 Y145.233 E2.96606
G1 X70.901 Y145.154 E2.98044
G1 X71.487 Y145.182 E2.99995
G1 X71.918 Y145.3 E3.01482
G1 X72.406 Y145.529 E3.03274
G1 X72.913 Y145.989 E3.05551
G1 X73.294 Y146.61 E3.07975
G1 X73.432 Y147.211 E3.10026
G1 X73.429 Y147.789 E3.11948
G1 X73.307 Y148.359 E3.13887
G1 X73.02 Y148.857 E3.15798
G1 X72.696 Y149.229 E3.17439
G1 X72.349 Y149.494 E3.18891
G1 F2700 E-1.81109
G0 F6000 X72.393 Y149.585
G0 X73.475 Y148.432
G0 X87.888 Y141.476
G0 X90.264 Y141.295
G1 F2700 E3.18891
G1 F1200 X89.677 Y141.424 E3.2089
G1 X89.295 Y141.458 E3.22166
G1 X88.893 Y141.459 E3.23503
G1 X88.52 Y141.425 E3.24749
G1 X88.006 Y141.321 E3.26493
G1 X87.405 Y141.108 E3.28614
G1 X87.016 Y140.902 E3.30078
G1 X86.723 Y140.714 E3.31236
G1 X86.364 Y140.435 E3.32748
G1 X86.061 Y140.134 E3.34168
G1 X85.837 Y139.867 E3.35328
G1 X85.63 Y139.57 E3.36532
G1 X85.463 Y139.285 E3.3763
G1 X85.296 Y138.925 E3.3895
G1 X85.141 Y138.5 E3.40455
G1 X85.028 Y137.97 E3.42257
G1 X84.983 Y137.474 E3.43914
G1 X85.003 Y136.976 E3.45571
G1 X85.05 Y136.634 E3.4672
G1 X85.136 Y136.245 E3.48045
G1 X85.306 Y135.774 E3.4971
G1 X85.456 Y135.454 E3.50886
G1 X85.664 Y135.093 E3.52271
G1 X85.942 Y134.731 E3.53789
G1 X86.197 Y134.454 E3.55042
G1 X86.46 Y134.213 E3.56228
G1 X86.73 Y134.006 E3.5736
G1 X87.105 Y133.767 E3.58839
G1 X87.528 Y133.572 E3.60388
G1 X87.851 Y133.453 E3.61533
G1 X88.192 Y133.362 E3.62707
G1 X88.553 Y133.297 E3.63927
G1 X88.93 Y133.266 E3.65185
G1 X89.28 Y133.268 E3.66349
G1 X89.627 Y133.298 E3.67507
G1 X89.992 Y133.365 E3.68742
G1 X90.304 Y133.447 E3.69815
G1 X90.736 Y133.606 E3.71346
G1 X91.131 Y133.81 E3.72824
G1 X91.442 Y134.008 E3.74051
G1 X91.725 Y134.225 E3.75237
G1 X91.992 Y134.469 E3.7644
G1 X92.206 Y134.704 E3.77497
G1 X92.423 Y134.981 E3.78667
G1 X92.624 Y135.29 E3.79893
G1 X92.796 Y135.616 E3.81119
G1 X92.964 Y136.016 E3.82562
G1 X93.087 Y136.468 E3.8412
G1 X93.152 Y136.832 E3.8535
G1 X93.18 Y137.156 E3.86432
G1 X93.183 Y137.511 E3.87612
G1 X93.152 Y137.897 E3.889
G1 X93.091 Y138.241 E3.90062
G1 X92.996 Y138.602 E3.91304
G1 X92.882 Y138.916 E3.92415
G1 X92.729 Y139.245 E3.93622
G1 X92.514 Y139.623 E3.95068
G1 X92.236 Y139.99 E3.966
G1 X91.995 Y140.255 E3.97791
G1 X91.728 Y140.498 E3.98992
G1 X91.478 Y140.693 E4.00046
G1 X91.134 Y140.916 E4.0141
G1 X90.722 Y141.127 E4.02949
G1 X90.264 Y141.295 E4.04572
G1 F2700 E-0.95428
G0 F6000 X90.386 Y141.356
G0 X91.226 Y141.072
G0 X102.598 Y152.539
G0 X104.884 Y156.348
G1 F2700 E4.04572
G1 F1200 X104.288 Y156.322 E4.06556
G1 X103.88 Y156.216 E4.07958
G1 X103.498 Y156.039 E4.09358
G1 X103.043 Y155.706 E4.11234
G1 X102.892 Y155.544 E4.1197
G1 X102.478 Y154.897 E4.14525
G1 X102.309 Y154.146 E4.17085
G1 X102.38 Y153.502 E4.1924
G1 X102.507 Y153.104 E4.2063
G1 X102.745 Y152.651 E4.22332
G1 X103.179 Y152.167 E4.24494
G1 X103.795 Y151.804 E4.26872
G1 X104.527 Y151.633 E4.29372
G1 X105.308 Y151.716 E4.31985
G1 X105.989 Y152.029 E4.34477
G1 X106.394 Y152.394 E4.36291
G1 X106.708 Y152.817 E4.38043
G1 X106.888 Y153.197 E4.39441
G1 X107.01 Y153.692 E4.41137
G1 X107.015 Y154.299 E4.43156
G1 X106.895 Y154.798 E4.44863
G1 X106.656 Y155.311 E4.46745
G1 X106.169 Y155.85 E4.49161
G1 X105.72 Y156.108 E4.50884
G1 X105.3 Y156.273 E4.52385
G1 X104.884 Y156.348 E4.53791
G1 F2700 E-0.46209
G0 F6000 X104.903 Y156.446
G0 X106.368 Y155.899
G0 X107.74 Y158.152
G0 X111.715 Y158.139
G1 F2700 E4.53791
G1 F1200 X115.686 Y157.758 E4.67059
G1 X119.626 Y157.212 E4.80289
G1 X123.552 Y156.495 E4.93562
G1 X127.459 Y155.612 E5.06885
G1 X131.299 Y154.571 E5.20118
G1 X135.127 Y153.355 E5.33477
G1 X138.884 Y151.987 E5.46775
G1 X142.544 Y150.474 E5.59948
G1 X146.158 Y148.799 E5.73196
G1 X149.716 Y146.964 E5.86511
G1 X153.171 Y144.993 E5.99741
G1 X156.561 Y142.865 E6.13053
G1 X159.849 Y140.601 E6.26331
G1 X163.025 Y138.209 E6.39555
G1 X166.121 Y135.669 E6.52875
G1 X169.095 Y133.007 E6.6615
G1 X169.387 Y132.724 E6.67503
G1 X169.655 Y132.437 E6.68809
G1 X169.932 Y132.117 E6.70216
G1 X170.183 Y131.797 E6.71569
G1 X170.418 Y131.47 E6.72908
G1 X170.646 Y131.124 E6.74286
G1 X170.868 Y130.751 E6.7573
G1 X171.048 Y130.416 E6.76995
G1 X171.223 Y130.056 E6.78326
G1 X171.384 Y129.681 E6.79684
G1 X171.527 Y129.306 E6.81019
G1 X171.659 Y128.906 E6.8242
G1 X171.737 Y128.637 E6.83351
G1 X171.865 Y128.121 E6.85119
G1 X171.943 Y127.718 E6.86485
G1 X172.001 Y127.318 E6.87829
G1 X172.043 Y126.921 E6.89157
G1 X172.069 Y126.501 E6.90556
G1 X172.075 Y126.092 E6.91917
G1 X172.065 Y125.693 E6.93244
G1 X172.036 Y125.28 E6.94621
G1 X171.99 Y124.875 E6.95977
G1 X171.926 Y124.472 E6.97334
G1 X171.844 Y124.072 E6.98692
G1 X171.747 Y123.676 E7.00048
G1 X171.631 Y123.286 E7.01402
G1 X171.503 Y122.911 E7.0272
G1 X171.35 Y122.519 E7.04119
G1 X171.188 Y122.155 E7.05444
G1 X171.005 Y121.789 E7.06805
G1 X170.805 Y121.423 E7.08193
G1 X170.598 Y121.081 E7.09522
G1 X170.367 Y120.738 E7.10898
G1 X170.125 Y120.409 E7.12256
G1 X169.869 Y120.091 E7.13614
G1 X169.6 Y119.785 E7.14969
G1 X169.276 Y119.451 E7.16517
G1 X129.172 Y79.345 E9.05158
G1 X128.909 Y79.092 E9.06372
G1 X128.607 Y78.827 E9.07708
G1 X128.305 Y78.581 E9.09004
G1 X127.999 Y78.354 E9.10271
G1 X127.659 Y78.124 E9.11636
G1 X127.319 Y77.911 E9.12971
G1 X127.001 Y77.733 E9.14183
G1 X126.641 Y77.548 E9.15529
G1 X126.293 Y77.387 E9.16804
G1 X125.947 Y77.244 E9.1805
G1 X125.571 Y77.107 E9.19381
G1 X125.215 Y76.994 E9.20623
G1 X124.841 Y76.89 E9.21914
G1 X124.43 Y76.796 E9.23316
G1 X124.084 Y76.732 E9.24487
G1 X123.69 Y76.675 E9.25811
G1 X123.312 Y76.636 E9.27075
G1 X122.909 Y76.611 E9.28418
G1 X122.521 Y76.603 E9.29708
G1 X76.318 Y76.602 E10.8338
G1 X75.747 Y76.616 E10.8528
G1 X75.107 Y76.66 E10.87414
G1 X74.57 Y76.719 E10.8921
G1 X74.005 Y76.806 E10.91112
G1 X73.475 Y76.91 E10.92908
G1 X72.848 Y77.061 E10.95053
G1 X72.302 Y77.22 E10.96945
G1 X71.748 Y77.409 E10.98892
G1 X71.19 Y77.626 E11.00883
G1 X70.668 Y77.856 E11.0278
G1 X70.143 Y78.114 E11.04726
G1 X69.618 Y78.402 E11.06717
G1 X69.12 Y78.705 E11.08656
G1 X68.633 Y79.03 E11.10604
G1 X68.172 Y79.368 E11.12505
G1 X67.706 Y79.743 E11.14494
G1 X67.266 Y80.129 E11.16441
G1 X66.844 Y80.533 E11.18384
G1 X66.45 Y80.945 E11.2028
G1 X66.054 Y81.395 E11.22274
G1 X65.69 Y81.85 E11.24212
G1 X65.348 Y82.318 E11.2614
G1 X65.018 Y82.81 E11.2811
G1 X64.716 Y83.309 E11.3005
G1 X64.436 Y83.821 E11.31991
G1 X64.176 Y84.346 E11.3394
G1 X63.947 Y84.869 E11.35839
G1 X63.73 Y85.427 E11.3783
G1 X63.542 Y85.981 E11.39776
G1 X63.378 Y86.541 E11.41717
G1 X63.243 Y87.096 E11.43616
G1 X63.127 Y87.683 E11.45606
G1 X63.038 Y88.26 E11.47548
G1 X62.976 Y88.827 E11.49445
G1 X62.937 Y89.427 E11.51445
G1 X62.925 Y90.012 E11.53391
G1 X62.925 Y142.644 E13.28446
G1 X62.933 Y142.993 E13.29607
G1 X62.959 Y143.403 E13.30973
G1 X62.999 Y143.782 E13.32241
G1 X63.057 Y144.174 E13.33559
G1 X63.131 Y144.564 E13.34879
G1 X63.24 Y145.017 E13.36429
G1 X63.329 Y145.329 E13.37508
G1 X63.433 Y145.649 E13.38627
G1 X63.596 Y146.091 E13.40194
G1 X63.744 Y146.442 E13.41461
G1 X63.915 Y146.801 E13.42784
G1 X64.099 Y147.152 E13.44102
G1 X64.277 Y147.459 E13.45282
G1 X64.514 Y147.833 E13.46755
G1 X64.742 Y148.159 E13.48078
G1 X64.978 Y148.467 E13.49368
G1 X65.242 Y148.783 E13.50738
G1 X65.497 Y149.066 E13.52005
G1 X65.802 Y149.372 E13.53442
G1 X66.071 Y149.621 E13.54661
G1 X66.368 Y149.874 E13.55959
G1 X66.691 Y150.128 E13.57325
G1 X66.999 Y150.349 E13.58586
G1 X67.606 Y150.737 E13.60982
G1 X68.02 Y150.961 E13.62548
G1 X68.377 Y151.134 E13.63867
G1 X68.759 Y151.3 E13.65253
G1 X72.474 Y152.737 E13.78501
G1 X76.255 Y154.021 E13.91782
G1 X80.07 Y155.138 E14.05004
G1 X83.944 Y156.096 E14.18277
G1 X87.867 Y156.892 E14.3159
G1 X91.8 Y157.518 E14.44836
G1 X95.758 Y157.979 E14.5809
G1 X99.752 Y158.272 E14.7141
G1 X103.758 Y158.397 E14.8474
G1 X107.716 Y158.353 E14.97905
G1 X111.715 Y158.139 E15.11225
G1 F2700 E10.11225
G0 F6000 X111.707 Y158.038
G0 X114.91 Y157.632
G0 X113.182 Y135.273
G0 X113.198 Y135.09
G1 F2700 E15.11225
G1 F1200 X112.634 Y135.118 E15.13103
G1 X112.321 Y135.112 E15.14144
G1 X111.751 Y135.064 E15.16047
G1 X111.199 Y134.968 E15.1791
G1 X110.634 Y134.818 E15.19855
G1 X110.076 Y134.617 E15.21827
G1 X109.566 Y134.38 E15.23698
G1 X109.069 Y134.093 E15.25607
G1 X108.585 Y133.757 E15.27566
G1 X108.045 Y133.306 E15.29906
G1 X107.541 Y132.758 E15.32383
G1 X107.365 Y132.537 E15.33322
G1 X107.028 Y132.054 E15.35281
G1 X106.747 Y131.566 E15.37154
G1 X106.509 Y131.063 E15.39005
G1 X106.397 Y130.774 E15.40036
G1 X106.229 Y130.242 E15.41891
G1 X106.102 Y129.68 E15.43808
G1 X106.024 Y129.101 E15.45751
G1 X106.002 Y128.493 E15.47774
G1 X106.024 Y127.944 E15.49602
G1 X106.061 Y127.636 E15.50634
G1 X106.156 Y127.093 E15.52467
G1 X106.308 Y126.527 E15.54416
G1 X106.499 Y125.997 E15.5629
G1 X106.74 Y125.478 E15.58193
G1 X107.036 Y124.968 E15.60155
G1 X107.343 Y124.528 E15.61939
G1 X107.554 Y124.263 E15.63066
G1 X107.905 Y123.878 E15.64799
G1 X108.366 Y123.456 E15.66877
G1 X108.926 Y123.027 E15.69224
G1 X109.537 Y122.672 E15.71574
G1 X110.062 Y122.424 E15.73505
G1 X110.356 Y122.31 E15.74554
G1 X110.899 Y122.141 E15.76445
