;FLAVOR:Marlin
;TIME:1416
;Filament used: 0.743065m
;Layer height: 0.2
;MINX:94.181
;MINY:94.181
;MINZ:0.2
;MAXX:140.82
;MAXY:140.82
;MAXZ:4
;Generated with Cura_SteamEngine 5.4.0
M140 S60
M105
M190 S60
M104 S210
M105
M109 S210
M82 ;absolute extrusion mode
; Ender 3 Custom Start G-code
G92 E0 ; Reset Extruder
G28 ; Home all axes
G1 Z2.0 F3000 ; Move Z Axis up little to prevent scratching of Heat Bed
G1 X0.1 Y20 Z0.3 F5000.0 ; Move to start position
G1 X0.1 Y200.0 Z0.3 F1500.0 E15 ; Draw the first line
G1 X0.4 Y200.0 Z0.3 F5000.0 ; Move to side a little
G1 X0.4 Y20 Z0.3 F1500.0 E30 ; Draw the second line
G92 E0 ; Reset Extruder
G1 Z2.0 F3000 ; Move Z Axis up little to prevent scratching of Heat Bed
G1 X5 Y20 Z0.3 F5000.0 ; Move over to prevent blob squish
G92 E0
G92 E0
G1 F2700 E-5
;LAYER_COUNT:20
;LAYER:0
M107
;MESH:pinion.stl
G0 F6000 X113.537 Y121.356 Z0.2
;TYPE:WALL-OUTER
G1 F2700 E0
G1 F1078.7 X113.627 Y121.098 E0.01011
G1 X113.797 Y120.768 E0.02385
G1 F1153.8 X114.225 Y120.402 E0.04333
G1 F1048 X114.531 Y120.053 E0.061
G1 F880.7 X114.584 Y119.654 E0.07924
G1 F854.1 X114.562 Y119.482 E0.08735
G1 F880.7 X115.099 Y120.029 E0.12208
G1 F877.5 X115.438 Y120.332 E0.14276
G1 F863.3 X114.881 Y120.334 E0.16851
G1 F944.9 X114.825 Y120.399 E0.17214
G1 F1113.7 X114.55 Y120.618 E0.18474
G1 F1145.6 X114.147 Y121.074 E0.20594
G1 F1078.7 X113.873 Y121.231 E0.21762
G1 X113.537 Y121.356 E0.23089
G1 F2700 E-4.76911
G0 F6000 X113.929 Y120.964
G0 X114.26 Y120.637
G0 X115.107 Y121.284
G0 X115.097 Y122.436
G0 X115.157 Y122.899
G0 X115.337 Y123.543
G0 X116.305 Y123.802
G0 X116.855 Y123.242
G0 X117.625 Y121.944
G0 X118.951 Y122.8
G1 F2700 E0.23089
G1 F1081.1 X118.834 Y122.678 E0.23713
G1 X118.654 Y122.425 E0.24859
G1 X118.558 Y122.211 E0.25725
G1 F1153.8 X118.459 Y121.719 E0.27461
G1 F1050.3 X118.318 Y121.289 E0.29181
G1 F888.9 X117.989 Y121.047 E0.31015
G1 F864.9 X117.82 Y120.992 E0.31835
G1 F884 X118.589 Y120.796 E0.35418
G1 F895.5 X119.047 Y120.645 E0.37567
G1 F888.9 X118.748 Y121.075 E0.39919
G1 F1023.5 X118.799 Y121.514 E0.41642
G1 F1165 X119.018 Y122.182 E0.44051
G1 F1108.5 X118.996 Y122.634 E0.4568
G1 F1081.1 X118.951 Y122.8 E0.46315
G1 F2700 E-4.53685
G0 F6000 X118.807 Y122.275
G0 X118.684 Y121.816
G0 X120.294 Y114.961
G0 X120.458 Y115.338
G1 F2700 E0.46315
G1 F846.6 X120.189 Y115.062 E0.48132
G1 F905.7 X120.023 Y114.861 E0.49281
G1 X119.839 Y114.709 E0.50333
G1 F882.4 X119.559 Y114.452 E0.52052
G1 X119.94 Y114.46 E0.53775
G1 F905.7 X120.115 Y114.422 E0.54565
G1 F995.9 X120.404 Y114.248 E0.55917
G1 F1086 X120.833 Y113.737 E0.58369
G1 F1064.3 X121.162 Y113.529 E0.59828
G1 X121.446 Y113.448 E0.60936
G1 X121.366 Y113.726 E0.62021
G1 X121.156 Y114.062 E0.63507
G1 F1142.9 X120.801 Y114.366 E0.65139
G1 F1243.5 X120.725 Y114.462 E0.65532
G1 F1052.6 X120.464 Y114.729 E0.66948
G1 F885.6 X120.426 Y115.083 E0.68552
G1 F829 X120.458 Y115.338 E0.69789
G1 F2700 E-4.30211
G0 F6000 X120.272 Y114.884
G0 X119.924 Y114.592
G0 X118.995 Y115.224
G0 X115.987 Y115.239
G0 X114.538 Y115.358
G1 F2700 E0.69789
G1 F848.1 X114.583 Y115.114 E0.70957
G1 F890.5 X114.522 Y114.724 E0.72726
G1 F979.6 X114.444 Y114.65 E0.73164
G1 F1140.1 X114.262 Y114.425 E0.74177
G1 F1132.1 X113.842 Y114.059 E0.76142
G1 F1061.9 X113.694 Y113.823 E0.77189
G1 X113.538 Y113.444 E0.78729
G1 X113.925 Y113.586 E0.80278
G1 X114.168 Y113.736 E0.81352
G1 F1137.4 X114.46 Y114.081 E0.82937
G1 F1036.7 X114.828 Y114.409 E0.84835
G1 F885.6 X115.21 Y114.476 E0.86583
G1 F830.4 X115.444 Y114.436 E0.87724
G1 F839.2 X115.184 Y114.686 E0.8944
G1 F895.5 X114.961 Y114.872 E0.90734
G1 F893.9 X114.768 Y115.106 E0.92088
G1 F851.1 X114.538 Y115.358 E0.93688
G1 F823.3 X114.402 Y115.583 E0.94963
G1 F820.5 X114.255 Y115.858 E0.9648
G0 F6000 X113.953 Y116.238
G0 X113.845 Y116.608
G0 X113.903 Y117.071
G1 F861.8 X113.843 Y116.898 E0.97328
G1 F884 X113.597 Y116.569 E0.99182
G1 F1052.6 X113.19 Y116.44 E1.00801
G1 F1165 X112.753 Y116.35 E1.0233
G1 F1083.5 X112.646 Y116.336 E1.02727
G1 F1081.1 X112.411 Y116.205 E1.03721
G1 X112.093 Y115.943 E1.05242
G1 X112.256 Y115.898 E1.05866
G1 X112.613 Y115.88 E1.07186
G1 F1083.5 X112.844 Y115.916 E1.08047
G1 F1134.8 X113.403 Y116.106 E1.10123
G1 F1019.1 X113.805 Y116.143 E1.11705
G1 F885.6 X114.228 Y115.887 E1.13933
G1 F892.2 X114.126 Y116.272 E1.15715
G1 F904 X114.066 Y116.452 E1.16552
G1 F880.7 X113.903 Y117.071 E1.19453
G0 F6000 X113.916 Y117.108
G1 F816.3 X113.916 Y117.663 E1.22167
G0 F6000 X113.864 Y118.198
G0 X113.948 Y118.52
G0 X114.266 Y118.951
G1 F932 X113.833 Y118.649 E1.24427
G1 F1095.9 X113.401 Y118.687 E1.26007
G1 F1126.8 X112.823 Y118.88 E1.28165
G1 F1076.2 X112.556 Y118.908 E1.29161
G1 X112.268 Y118.882 E1.30233
G1 X112.094 Y118.838 E1.30899
G1 X112.283 Y118.677 E1.31819
G1 X112.605 Y118.465 E1.33249
G1 F1106 X113.248 Y118.342 E1.35612
G1 F1004.2 X113.65 Y118.165 E1.37357
G1 F898.9 X113.751 Y118.039 E1.38074
G1 F877.5 X113.918 Y117.676 E1.39892
G1 F871.1 X113.98 Y117.996 E1.41385
G1 F893.9 X114.095 Y118.485 E1.43628
G1 F877.5 X114.266 Y118.951 E1.45886
G0 F6000 X114.276 Y118.977
G1 F823.3 X114.397 Y119.199 E1.47112
G1 F814.9 X114.559 Y119.459 E1.48612
G0 F6000 X114.725 Y119.903
G0 X115.006 Y120.17
G0 X115.463 Y120.354
G1 F824.7 X115.717 Y120.508 E1.50049
G1 F819.1 X115.912 Y120.613 E1.51129
G1 F2700 E-3.48871
G0 F6000 X116.382 Y120.942
G0 X116.419 Y121.424
G0 X116.311 Y121.832
G0 X116.042 Y122.809
G1 F2700 E1.51129
G1 F1086 X115.984 Y122.383 E1.52709
G1 X115.988 Y122.138 E1.53609
G1 X116.032 Y122.033 E1.54028
G1 F1165 X116.163 Y121.638 E1.55453
G1 F1039 X116.252 Y121.185 E1.57227
G1 F882.4 X116.142 Y120.9 E1.58609
G1 F861.8 X115.934 Y120.64 E1.60151
G1 F864.9 X116.566 Y120.841 E1.63211
G1 F842.1 X117.252 Y120.977 E1.66526
G1 F839.2 X116.915 Y121.115 E1.68258
G1 F882.4 X116.713 Y121.289 E1.69464
G1 F985.6 X116.562 Y121.56 E1.7072
G1 F1100.9 X116.452 Y122.175 E1.72985
G1 F1086 X116.341 Y122.433 E1.74017
G1 X116.169 Y122.678 E1.75118
G1 X116.042 Y122.809 E1.75788
G1 F2700 E-3.24212
G0 F6000 X116.191 Y122.283
G0 X116.311 Y121.832
G0 X116.419 Y121.424
G0 X117.252 Y120.977
G1 F2700 E1.75788
G1 F814.9 X117.49 Y120.984 E1.76954
G1 F821.9 X117.776 Y120.977 E1.78343
G0 F6000 X118.287 Y121.048
G0 X118.63 Y120.944
G0 X119.069 Y120.627
G1 F802.7 X119.544 Y120.359 E1.81055
G0 F6000 X120.029 Y120.132
G0 X120.427 Y120.348
G0 X120.752 Y120.646
G0 X120.531 Y120.574
G1 F888.9 X120.432 Y120.499 E1.81613
G1 F864.9 X119.982 Y120.298 E1.83887
G1 F820.5 X119.544 Y120.359 E1.86039
G1 F842.1 X119.908 Y120.031 E1.88361
G1 F888.9 X120.134 Y119.808 E1.89786
G1 F877.5 X120.42 Y119.502 E1.91692
G1 X120.437 Y119.945 E1.93708
G1 F888.9 X120.605 Y120.328 E1.95586
G1 X120.678 Y120.426 E1.96134
G1 F975.6 X120.719 Y120.397 E1.9634
G1 F1078.7 X121.13 Y120.705 E1.9824
G1 X121.283 Y120.903 E1.99166
G1 X121.401 Y121.172 E2.00253
G1 X121.452 Y121.346 E2.00924
G1 X121.296 Y121.301 E2.01525
G1 X121.02 Y121.175 E2.02647
G1 X120.824 Y121.035 E2.03539
G1 X120.503 Y120.614 E2.05498
G1 F975.6 X120.531 Y120.574 E2.05697
G1 F2700 E-2.94303
G0 F6000 X120.808 Y120.702
G0 X121.005 Y118.587
G0 X120.694 Y119.028
G1 F2700 E2.05697
G1 F845.1 X120.788 Y118.795 E2.06884
G1 F888.9 X120.947 Y118.311 E2.09171
G1 F879.1 X121.082 Y117.69 E2.12057
G1 F866.4 X121.288 Y118.114 E2.14228
G1 F967.7 X121.551 Y118.268 E2.15485
G1 F1153.8 X121.848 Y118.36 E2.16561
G1 X122.287 Y118.445 E2.18107
G1 F1076.2 X122.486 Y118.524 E2.18901
G1 F1073.8 X122.783 Y118.717 E2.20218
G1 X122.916 Y118.851 E2.2092
G1 F1093.4 X122.331 Y118.93 E2.23074
G1 F1176.5 X121.711 Y118.721 E2.25294
G1 F1137.4 X121.266 Y118.64 E2.26881
G1 F1002.1 X120.937 Y118.793 E2.28326
G1 F884 X120.694 Y119.028 E2.29853
G0 F6000 X120.437 Y119.461
G1 F809.4 X120.694 Y119.028 E2.32335
G0 F6000 X121.062 Y118.531
G0 X121.137 Y118.197
G0 X121.084 Y117.675
G1 F819.1 X121.09 Y117.389 E2.33729
G1 X121.084 Y117.062 E2.35323
G0 F6000 X121.08 Y117.044
G1 F880.7 X120.902 Y116.304 E2.38772
G1 F855.6 X120.769 Y115.893 E2.40787
G1 F827.6 X120.886 Y115.98 E2.4149
G1 F932 X121.237 Y116.131 E2.43127
G1 F1113.7 X121.611 Y116.101 E2.44471
G1 F1129.4 X122.222 Y115.894 E2.46751
G1 F1064.3 X122.494 Y115.884 E2.47772
G1 X122.916 Y115.938 E2.49367
G1 X122.65 Y116.169 E2.50688
G1 X122.35 Y116.334 E2.51972
G1 F1153.8 X121.826 Y116.431 E2.53816
G1 F1054.9 X121.387 Y116.579 E2.55568
G1 F880.7 X121.08 Y117.044 E2.58093
G0 F6000 X121.153 Y116.631
G0 X121.053 Y116.239
G0 X120.769 Y115.893
G1 F801.3 X120.458 Y115.338 E2.61262
G1 F2700 E-2.38738
G0 F6000 X120.272 Y114.884
G0 X119.924 Y114.592
G0 X118.684 Y113.88
G0 X119.076 Y114.161
G1 F2700 E2.61262
G1 F849.6 X118.435 Y113.949 E2.64434
G1 F874.3 X117.893 Y113.819 E2.66978
G1 F858.7 X118.293 Y113.528 E2.69277
G1 F907.4 X118.301 Y113.479 E2.69496
G1 F1061.9 X118.44 Y113.17 E2.70769
G1 F1132.1 X118.579 Y112.474 E2.73272
G1 F1076.2 X118.833 Y112.112 E2.74912
G1 X118.958 Y111.981 E2.75583
G1 X119.014 Y112.405 E2.77169
G1 X119.01 Y112.655 E2.78096
G1 F1148.3 X118.845 Y113.122 E2.79818
G1 F1048 X118.749 Y113.57 E2.81563
G1 F900.6 X118.886 Y113.949 E2.83349
G1 F845.1 X119.076 Y114.161 E2.84693
G0 F6000 X119.538 Y114.433
G1 F813.6 X119.076 Y114.161 E2.87323
G0 F6000 X118.629 Y113.821
G0 X118.274 Y113.744
G0 X117.845 Y113.817
G1 F813.6 X117.628 Y113.807 E2.88389
G1 F826.2 X117.299 Y113.808 E2.89979
G0 F6000 X116.705 Y113.764
G0 X116.347 Y113.839
G0 X116 Y114.127
G1 F834.8 X116.098 Y113.997 E2.90757
G1 F877.5 X116.245 Y113.634 E2.92538
G1 F1008.4 X116.191 Y113.224 E2.94175
G1 F1106 X115.982 Y112.626 E2.96461
G1 F1073.8 X116.005 Y112.153 E2.98221
G1 X116.049 Y111.987 E2.98859
G1 X116.222 Y112.166 E2.99785
G1 F1103.4 X116.424 Y112.499 E3.01193
G1 F1162.2 X116.569 Y113.191 E3.03621
G1 F1027.8 X116.718 Y113.54 E3.05095
G1 F902.3 X116.837 Y113.632 E3.0576
G1 F882.4 X117.255 Y113.816 E3.07826
G1 X116.846 Y113.888 E3.09705
G1 F902.3 X116.41 Y113.99 E3.11685
G1 F857.1 X116 Y114.127 E3.13698
G1 F804 X115.444 Y114.436 E3.16856
G1 F2700 E-1.83144
;MESH:ring.stl
G0 F6000 X114.998 Y114.612
G0 X114.699 Y114.969
G0 X118.144 Y137.538
G0 X118.16 Y138.025
;TYPE:WALL-INNER
G1 F2700 E3.16856
G1 F1200 X117.998 Y138.361 E3.18097
G1 X117.757 Y138.678 E3.19421
G1 X117.524 Y138.789 E3.2028
G1 X117.257 Y138.861 E3.21199
G1 X116.432 Y138.834 E3.23945
G1 X116.048 Y138.74 E3.2526
G1 X115.706 Y138.381 E3.26909
G1 X115.528 Y137.938 E3.28497
G1 X115.278 Y138.329 E3.3004
G1 X115.002 Y138.55 E3.31216
G1 X114.804 Y138.617 E3.31911
G1 X114.54 Y138.655 E3.32799
G1 X113.713 Y138.522 E3.35585
G1 X113.454 Y138.423 E3.36507
G1 X113.288 Y138.313 E3.37169
G1 X113.048 Y137.978 E3.3854
G1 X112.93 Y137.519 E3.40116
G1 X112.631 Y137.873 E3.41657
G1 X112.271 Y138.093 E3.4306
G1 X111.855 Y138.103 E3.44444
G1 X111.057 Y137.867 E3.47212
G1 X110.81 Y137.733 E3.48147
G1 X110.65 Y137.59 E3.48861
G1 X110.468 Y137.243 E3.50164
G1 X110.408 Y136.769 E3.51753
G1 X110.064 Y137.085 E3.53307
G1 X109.744 Y137.227 E3.54471
G1 X109.542 Y137.242 E3.55145
G1 X109.265 Y137.212 E3.56071
G1 X108.491 Y136.867 E3.5889
G1 X108.28 Y136.713 E3.59759
G1 X108.125 Y136.526 E3.60567
G1 X108.003 Y136.188 E3.61762
G1 X107.999 Y135.712 E3.63345
G1 X107.618 Y135.975 E3.64885
G1 X107.284 Y136.073 E3.66043
G1 X107.084 Y136.063 E3.66709
G1 X106.781 Y135.977 E3.67756
G1 X106.065 Y135.542 E3.70543
G1 X105.891 Y135.367 E3.71363
G1 X105.765 Y135.163 E3.72161
G1 X105.691 Y134.81 E3.73361
G1 X105.75 Y134.343 E3.74926
G1 X105.419 Y134.516 E3.76168
G1 X105.093 Y134.608 E3.77295
G1 X104.799 Y134.579 E3.78278
G1 X104.534 Y134.478 E3.79221
G1 X103.85 Y133.934 E3.82128
G1 X103.706 Y133.745 E3.82918
G1 X103.583 Y133.476 E3.83902
G1 X103.61 Y133.019 E3.85424
G1 X103.685 Y132.707 E3.86492
G1 X103.264 Y132.861 E3.87983
G1 X102.967 Y132.88 E3.88972
G1 X102.709 Y132.811 E3.89861
G1 X102.467 Y132.678 E3.90779
G1 X101.858 Y132.05 E3.93689
G1 X101.742 Y131.846 E3.94469
G1 X101.669 Y131.61 E3.95291
G1 X101.686 Y131.243 E3.96513
G1 X101.865 Y130.811 E3.98068
G1 X101.499 Y130.895 E3.99317
G1 X101.155 Y130.902 E4.00461
G1 X100.993 Y130.86 E4.01018
G1 X100.655 Y130.639 E4.02361
G1 X100.169 Y129.986 E4.05069
G1 X100.039 Y129.718 E4.06059
G1 X99.995 Y129.468 E4.06904
G1 X100.059 Y129.108 E4.0812
G1 X100.297 Y128.703 E4.09682
G1 X99.836 Y128.747 E4.11222
G1 X99.578 Y128.701 E4.12094
G1 X99.4 Y128.628 E4.12734
G1 X99.111 Y128.37 E4.14023
G1 X98.711 Y127.659 E4.16736
G1 X98.621 Y127.388 E4.17686
G1 X98.608 Y127.133 E4.18535
G1 X98.717 Y126.785 E4.19748
G1 X98.996 Y126.41 E4.21302
G1 X98.536 Y126.395 E4.22833
G1 X98.147 Y126.256 E4.24207
G1 X97.872 Y125.929 E4.25628
G1 X97.564 Y125.171 E4.28349
G1 X97.511 Y124.883 E4.29323
G1 X97.533 Y124.64 E4.30135
G1 X97.681 Y124.311 E4.31335
G1 X98.007 Y123.971 E4.32901
G1 X97.552 Y123.899 E4.34434
G1 X97.181 Y123.705 E4.35826
G1 X96.952 Y123.347 E4.3724
G1 X96.747 Y122.56 E4.39945
G1 X96.731 Y122.272 E4.40904
G1 X96.782 Y122.026 E4.41739
G1 X96.978 Y121.713 E4.42968
G1 X97.341 Y121.426 E4.44507
G1 X96.9 Y121.295 E4.46037
G1 X96.55 Y121.057 E4.47445
G1 X96.374 Y120.665 E4.48874
G1 X96.272 Y119.865 E4.51556
G1 X96.295 Y119.547 E4.52617
G1 X96.374 Y119.34 E4.53354
G1 X96.606 Y119.059 E4.54566
G1 X97.004 Y118.816 E4.56117
G1 X96.584 Y118.628 E4.57647
G1 X96.322 Y118.394 E4.58815
G1 X96.225 Y118.213 E4.59499
G1 X96.143 Y117.945 E4.60431
G1 X96.143 Y117.125 E4.63158
G1 X96.214 Y116.798 E4.64271
G1 X96.325 Y116.602 E4.6502
G1 X96.594 Y116.365 E4.66213
G1 X97.005 Y116.183 E4.67708
G1 X96.667 Y115.999 E4.68988
G1 X96.393 Y115.71 E4.70312
G1 X96.308 Y115.483 E4.71118
G1 X96.262 Y115.21 E4.72039
G1 X96.365 Y114.399 E4.74758
G1 X96.492 Y114.055 E4.75978
G1 X96.597 Y113.921 E4.76544
G1 X96.898 Y113.704 E4.77778
G1 X97.349 Y113.58 E4.79334
G1 X96.982 Y113.289 E4.80892
G1 X96.787 Y112.993 E4.82071
G1 X96.739 Y112.789 E4.82768
G1 X96.729 Y112.51 E4.83696
G1 X96.937 Y111.717 E4.86423
G1 X97.124 Y111.376 E4.87716
G1 X97.228 Y111.277 E4.88194
G1 X97.54 Y111.105 E4.89379
G1 X98.006 Y111.028 E4.9095
G1 X97.685 Y110.693 E4.92493
G1 X97.534 Y110.381 E4.93646
G1 X97.512 Y110.178 E4.94325
G1 X97.537 Y109.893 E4.95277
G1 X97.845 Y109.136 E4.97995
G1 X97.998 Y108.903 E4.98922
G1 X98.189 Y108.735 E4.99768
G1 X98.525 Y108.605 E5.00966
G1 X98.996 Y108.589 E5.02534
G1 X98.723 Y108.224 E5.0405
G1 X98.607 Y107.885 E5.05241
G1 X98.613 Y107.671 E5.05953
G1 X98.675 Y107.401 E5.06875
G1 X99.077 Y106.688 E5.09597
G1 X99.261 Y106.478 E5.10526
G1 X99.468 Y106.341 E5.11352
G1 X99.817 Y106.251 E5.1255
G1 X100.29 Y106.297 E5.14131
G1 X100.062 Y105.89 E5.15683
G1 X99.994 Y105.55 E5.16836
G1 X100.025 Y105.345 E5.17525
G1 X100.113 Y105.09 E5.18423
G1 X100.613 Y104.42 E5.21203
G1 X100.819 Y104.236 E5.22122
G1 X100.976 Y104.146 E5.22724
G1 X101.398 Y104.082 E5.24143
G1 X101.86 Y104.187 E5.25719
G1 X101.687 Y103.754 E5.2727
G1 X101.664 Y103.409 E5.2842
G1 X101.721 Y103.212 E5.29102
G1 X101.853 Y102.954 E5.30066
G1 X102.421 Y102.369 E5.32778
G1 X102.655 Y102.212 E5.33715
G1 X102.845 Y102.138 E5.34393
G1 X103.247 Y102.133 E5.35731
G1 X103.689 Y102.293 E5.37294
G1 X103.575 Y101.847 E5.38825
G1 X103.603 Y101.428 E5.40222
G1 X103.833 Y101.08 E5.41609
G1 X104.485 Y100.562 E5.44379
G1 X104.73 Y100.439 E5.45291
G1 X104.976 Y100.387 E5.46127
G1 X105.335 Y100.442 E5.47335
G1 X105.754 Y100.659 E5.48904
G1 X105.692 Y100.204 E5.50432
G1 X105.769 Y99.783 E5.51855
G1 X106.043 Y99.467 E5.53246
G1 X106.779 Y99.024 E5.56103
G1 X107.024 Y98.944 E5.56961
G1 X107.268 Y98.926 E5.57774
G1 X107.616 Y99.021 E5.58974
G1 X108.002 Y99.293 E5.60545
G1 X108.002 Y98.824 E5.62105
G1 X108.115 Y98.487 E5.63287
G1 X108.234 Y98.338 E5.63921
G1 X108.489 Y98.134 E5.65007
G1 X109.259 Y97.796 E5.67804
G1 X109.478 Y97.756 E5.68545
G1 X109.727 Y97.77 E5.69374
G1 X110.059 Y97.911 E5.70574
G1 X110.408 Y98.228 E5.72142
G1 X110.455 Y97.859 E5.73379
G1 X110.569 Y97.536 E5.74518
G1 X110.678 Y97.365 E5.75193
G1 X110.993 Y97.151 E5.76459
G1 X111.835 Y96.903 E5.79379
G1 X112.311 Y96.939 E5.80967
G1 X112.622 Y97.119 E5.82162
G1 X112.93 Y97.473 E5.83722
G1 X113.025 Y97.119 E5.84941
G1 X113.179 Y96.809 E5.86093
G1 X113.314 Y96.655 E5.86774
G1 X113.647 Y96.489 E5.88011
G1 X114.45 Y96.359 E5.90717
