;FLAVOR:Marlin
;TIME:4228
;Filament used: 2.20197m
;Layer height: 0.2
;MINX:85.047
;MINY:77.485
;MINZ:0.2
;MAXX:138.174
;MAXY:156.296
;MAXZ:29.2
;Generated with Cura_SteamEngine 5.4.0
M140 S60
M105
M190 S60
M104 S210
M105
M109 S210
M82 ;absolute extrusion mode
; Ender 3 Custom Start G-code
G92 E0 ; Reset Extruder
G28 ; Home all axes
G1 Z2.0 F3000 ; Move Z Axis up little to prevent scratching of Heat Bed
G1 X0.1 Y20 Z0.3 F5000.0 ; Move to start position
G1 X0.1 Y200.0 Z0.3 F1500.0 E15 ; Draw the first line
G1 X0.4 Y200.0 Z0.3 F5000.0 ; Move to side a little
G1 X0.4 Y20 Z0.3 F1500.0 E30 ; Draw the second line
G92 E0 ; Reset Extruder
G1 Z2.0 F3000 ; Move Z Axis up little to prevent scratching of Heat Bed
G1 X5 Y20 Z0.3 F5000.0 ; Move over to prevent blob squish
G92 E0
G92 E0
G1 F2700 E-5
;LAYER_COUNT:146
;LAYER:0
M107
G0 F6000 X106.904 Y123.564 Z0.2
;TYPE:SUPPORT
G1 F2700 E0
G1 F1200 X107.272 Y123.46 E0.01272
G1 X107.678 Y123.573 E0.02674
G1 X108.035 Y123.944 E0.04386
G1 X108.125 Y124.246 E0.05434
G1 X108.035 Y124.563 E0.0653
G1 X107.731 Y124.862 E0.07948
G1 X107.289 Y124.985 E0.09474
G1 X106.969 Y124.891 E0.10584
G1 X106.546 Y124.468 E0.12573
G1 X106.474 Y124.223 E0.13423
G1 X106.562 Y123.926 E0.14453
G1 X106.904 Y123.564 E0.16109
G1 F2700 E-4.83891
G0 F6000 X106.275 Y122.969
G0 X105.791 Y123.483
G0 X101.986 Y134.314
G0 X102 Y140.453
G0 X97.345 Y146.592
G0 X97.113 Y147.426
G1 F2700 E0.16109
G1 F1200 X97.5 Y147.835 E0.17982
G1 X97.616 Y148.226 E0.19339
G1 X97.467 Y148.763 E0.21192
G1 X97.134 Y149.102 E0.22773
G1 X96.769 Y149.204 E0.24033
G1 X96.477 Y149.118 E0.25046
G1 X96.017 Y148.652 E0.27223
G1 X95.888 Y148.202 E0.2878
G1 X95.995 Y147.833 E0.30058
G1 X96.381 Y147.426 E0.31924
G1 X96.747 Y147.323 E0.33189
G1 X97.113 Y147.426 E0.34453
G1 F2700 E-4.65547
;MESH:microswitch 01.stl
G0 F6000 X97.345 Y146.592
G0 X97.113 Y140.465
G0 X100.747 Y139.2
;TYPE:WALL-INNER
G1 F2700 E0.34453
G1 F1200 X100.747 Y125.096 E0.81363
G1 X98.748 Y125.096 E0.88012
G1 X98.48 Y125.034 E0.88927
G1 X98.317 Y124.953 E0.89532
G1 F1230.8 X98.022 Y124.595 E0.91037
G1 F1304.3 X97.977 Y124.396 E0.91661
G1 F1359.8 X97.973 Y123.767 E0.93507
G1 F1293.8 X98.013 Y123.504 E0.94328
G1 F1212.1 X98.089 Y123.34 E0.94923
G1 F1200 X98.445 Y123.034 E0.96484
G1 X98.75 Y122.967 E0.97523
G1 X100.747 Y122.967 E1.04165
G1 X100.747 Y110.986 E1.44014
G1 F1113.7 X100.716 Y110.401 E1.46113
G1 F1076.2 X100.482 Y111.009 E1.48529
G1 F1156.6 X100.227 Y111.446 E1.50275
G1 F1200 X99.923 Y111.793 E1.5181
G1 X99.477 Y112.123 E1.53655
G1 X99.107 Y112.3 E1.55019
G1 X98.564 Y112.431 E1.56877
G1 X98.174 Y112.45 E1.58176
G1 X97.571 Y112.377 E1.60196
G1 X97.058 Y112.144 E1.6207
G1 X96.696 Y111.901 E1.6352
G1 X96.35 Y111.555 E1.65148
G1 X96.092 Y111.167 E1.66697
G1 X95.899 Y110.71 E1.68347
G1 X95.797 Y110.165 E1.70191
G1 X95.803 Y97.616 E2.1193
G1 X96.029 Y96.909 E2.14398
G1 X96.422 Y96.342 E2.16693
G1 X96.85 Y95.979 E2.18559
G1 X97.177 Y95.801 E2.19798
G1 X85.647 Y95.8 E2.58147
G1 X85.647 Y114.723 E3.21085
G1 X85.721 Y114.659 E3.2141
G1 X86.083 Y114.574 E3.22647
G1 X96.926 Y114.578 E3.58711
G1 X97.307 Y114.773 E3.60135
G1 X97.51 Y114.981 E3.61101
G1 X97.647 Y115.352 E3.62417
G1 X97.648 Y123.237 E3.88642
G1 F1280 X97.623 Y123.767 E3.90297
G1 F1359.8 X97.625 Y124.426 E3.92231
G1 F1304.3 X97.638 Y124.655 E3.92933
G1 F1230.8 X97.647 Y125.368 E3.95245
G1 F1200 X97.647 Y127.578 E4.02596
G1 X97.476 Y127.985 E4.04064
G1 X97.373 Y128.131 E4.04658
G1 X97.208 Y128.264 E4.05363
G1 X96.849 Y128.368 E4.06606
G1 X86.073 Y128.374 E4.42447
G1 X85.805 Y128.312 E4.43362
G1 X85.648 Y128.233 E4.43947
G1 X85.647 Y139.2 E4.80423
G1 X100.747 Y139.2 E5.30646
G1 F2700 E0.30646
G0 F6000 X100.731 Y124.934
G0 X98.642 Y124.934
G0 X98.228 Y124.722
G0 X98.108 Y124.366
G0 X98.11 Y123.663
G0 X98.32 Y123.248
G0 X98.678 Y123.128
G0 X100.729 Y123.126
G0 X100.716 Y110.401
G1 F2700 E5.30646
G1 F1050.3 X100.721 Y97.92 E5.78074
G1 F991.7 X100.689 Y97.386 E5.80226
G1 F888.9 X100.665 Y96.702 E5.833
G1 F849.6 X100.665 Y95.882 E5.87152
G1 X99.657 Y95.883 E5.91888
G1 X100.165 Y96.346 E5.95117
G1 X100.428 Y96.704 E5.97204
G1 F868 X100.641 Y97.182 E5.9961
G1 F907.4 X100.689 Y97.386 E6.00532
G1 F2700 E1.00532
G0 F6000 X100.526 Y96.589
G0 X100.531 Y110.362
G0 X100.338 Y110.938
G0 X100.06 Y111.402
G0 X99.811 Y111.675
G0 X99.386 Y111.988
G0 X99.354 Y112.403
G0 X97.634 Y112.486
G0 X97.695 Y111.99
;TYPE:WALL-OUTER
G1 F2700 E6.00532
G1 F1200 X97.242 Y111.786 E6.02184
G1 X96.938 Y111.577 E6.03411
G1 X96.649 Y111.282 E6.04785
G1 X96.439 Y110.961 E6.0606
G1 X96.292 Y110.611 E6.07323
G1 X96.2 Y110.144 E6.08906
G1 X96.203 Y97.681 E6.50358
G1 X96.391 Y97.089 E6.52424
G1 X96.707 Y96.633 E6.54269
G1 X97.109 Y96.284 E6.5604
G1 X97.506 Y96.088 E6.57513
G1 F1081.1 X97.957 Y95.926 E6.59282
G1 F993.8 X98.336 Y95.914 E6.60805
G1 F987.7 X98.649 Y95.942 E6.62075
G1 F1073.8 X99.097 Y96.134 E6.63886
G1 F1200 X99.423 Y96.321 E6.65136
G1 X99.775 Y96.635 E6.66705
G1 X100.014 Y96.96 E6.68047
G1 X100.232 Y97.417 E6.69731
G1 X100.295 Y97.893 E6.71328
G1 X100.29 Y110.327 E7.12684
G1 X100.109 Y110.857 E7.14546
G1 X99.909 Y111.198 E7.15861
G1 X99.631 Y111.513 E7.17259
G1 X99.279 Y111.771 E7.1871
G1 X98.952 Y111.926 E7.19914
G1 X98.508 Y112.035 E7.21434
G1 X98.17 Y112.047 E7.22559
G1 X97.695 Y111.99 E7.2415
G1 F2700 E2.2415
G0 F6000 X97.634 Y112.486
G0 X100.028 Y111.918
G0 X100.558 Y111.256
G0 X100.575 Y122.795
G0 X97.941 Y123.275
G0 X97.624 Y127.947
G0 X97.087 Y127.874
G1 F2700 E7.2415
G1 F1200 X96.791 Y127.972 E7.25188
G1 X86.073 Y127.974 E7.60836
G1 X85.764 Y127.845 E7.61949
G1 F1215.2 X85.667 Y127.725 E7.62456
G1 F1250 X85.61 Y127.521 E7.63133
G1 F1263.2 X85.61 Y115.395 E8.01447
G1 F1227.6 X85.726 Y115.141 E8.02355
G1 F1200 X85.844 Y115.04 E8.02872
G1 X86.083 Y114.974 E8.03696
G1 X96.821 Y114.975 E8.39411
G1 X97.149 Y115.137 E8.40628
G1 X97.247 Y115.424 E8.41636
G1 X97.245 Y127.533 E8.81911
G1 X97.087 Y127.874 E8.83161
G1 F2700 E3.83161
G0 F6000 X97.624 Y127.947
G0 X97.795 Y124.387
G0 X98.752 Y125.257
G0 X100.575 Y125.268
G0 X100.877 Y139.33
G0 X101.147 Y139.6
G1 F2700 E8.83161
G1 F1200 X101.147 Y124.696 E9.32732
G1 X98.748 Y124.696 E9.40711
G1 X98.495 Y124.595 E9.41617
G1 F1203 X98.395 Y124.476 E9.42133
G1 X98.349 Y124.331 E9.42638
G1 F1200 X98.348 Y123.767 E9.44514
G1 X98.448 Y123.517 E9.45409
G1 X98.567 Y123.415 E9.4593
G1 X98.75 Y123.367 E9.4656
G1 X101.147 Y123.367 E9.54532
G1 X101.147 Y95.4 E10.47551
G1 X99.171 Y95.401 E10.54123
G1 F1073.8 X98.678 Y95.448 E10.55964
G1 F987.7 X98.364 Y95.438 E10.57233
G1 F993.8 X97.898 Y95.444 E10.59105
G1 F1081.1 X97.462 Y95.4 E10.60723
G1 F1200 X85.247 Y95.4 E11.0135
G1 X85.247 Y115.029 E11.66636
G1 F1240.3 X85.234 Y115.45 E11.67992
G1 F1280 X85.234 Y127.488 E12.05528
G1 F1240.3 X85.248 Y128.409 E12.08492
G1 F1200 X85.247 Y139.6 E12.45713
G1 X101.147 Y139.6 E12.98597
G0 F6000 X100.877 Y139.33
G0 X100.647 Y138.84
G0 X100.387 Y138.84
;TYPE:SKIN
G1 F1200 X86.007 Y138.84 E13.46425
G1 X86.009 Y128.734 E13.80038
G1 X96.878 Y128.734 E14.16188
G1 X97.373 Y128.593 E14.179
G1 X97.636 Y128.381 E14.19023
G1 X97.869 Y128.049 E14.20373
G1 X98.005 Y127.634 E14.21825
G1 X98.002 Y125.108 E14.30227
G1 X98.152 Y125.273 E14.30968
G1 X98.362 Y125.371 E14.31739
G1 X98.706 Y125.451 E14.32914
G1 X100.387 Y125.456 E14.38505
G1 X100.387 Y138.84 E14.8302
G0 F6000 X100.647 Y138.84
G0 X100.647 Y126.208
G0 X100.187 Y126.208
G1 F1200 X99.634 Y125.655 E14.85621
G0 F6000 X99.068 Y125.655
G1 F1200 X100.187 Y126.774 E14.90885
G0 F6000 X100.187 Y127.34
G1 F1200 X98.441 Y125.594 E14.99097
G0 F6000 X98.206 Y125.925
G1 F1200 X100.187 Y127.905 E15.08413
G0 F6000 X100.187 Y128.471
G1 F1200 X98.205 Y126.489 E15.17736
G0 F6000 X98.203 Y127.053
G1 F1200 X100.187 Y129.037 E15.27068
G0 F6000 X100.187 Y129.602
G1 F1200 X98.202 Y127.617 E15.36405
G0 F6000 X98.076 Y128.057
G1 F1200 X100.187 Y130.168 E15.46334
G0 F6000 X100.187 Y130.734
G1 F1200 X97.86 Y128.407 E15.5728
G0 F6000 X97.575 Y128.687
G1 F1200 X100.187 Y131.299 E15.69566
G0 F6000 X100.187 Y131.865
G1 F1200 X97.177 Y128.856 E15.83721
G0 F6000 X96.689 Y128.933
G1 F1200 X100.187 Y132.431 E16.00175
G0 F6000 X100.187 Y132.996
G1 F1200 X96.123 Y128.933 E16.19288
G0 F6000 X95.557 Y128.933
G1 F1200 X100.187 Y133.562 E16.41064
G0 F6000 X100.187 Y134.128
G1 F1200 X94.992 Y128.933 E16.655
G0 F6000 X94.426 Y128.933
G1 F1200 X100.187 Y134.693 E16.92596
G0 F6000 X100.187 Y135.259
G1 F1200 X93.86 Y128.933 E17.22353
G0 F6000 X93.294 Y128.933
G1 F1200 X100.187 Y135.825 E17.54774
G0 F6000 X100.187 Y136.39
G1 F1200 X92.729 Y128.933 E17.89851
G0 F6000 X92.163 Y128.933
G1 F1200 X100.187 Y136.956 E18.27592
G0 F6000 X100.187 Y137.522
G1 F1200 X91.597 Y128.933 E18.67994
G0 F6000 X91.032 Y128.933
G1 F1200 X100.187 Y138.088 E19.11056
G0 F6000 X100.172 Y138.638
G1 F1200 X90.466 Y128.933 E19.56708
G0 F6000 X89.9 Y128.933
G1 F1200 X99.606 Y138.638 E20.0236
G0 F6000 X99.04 Y138.638
G1 F1200 X89.335 Y128.933 E20.48009
G0 F6000 X88.769 Y128.933
G1 F1200 X98.475 Y138.638 E20.93661
G0 F6000 X97.909 Y138.638
G1 F1200 X88.203 Y128.933 E21.39312
G0 F6000 X87.638 Y128.933
G1 F1200 X97.343 Y138.638 E21.84962
G0 F6000 X96.778 Y138.638
G1 F1200 X87.072 Y128.933 E22.30613
G0 F6000 X86.506 Y128.933
G1 F1200 X96.212 Y138.638 E22.76265
G0 F6000 X95.646 Y138.638
G1 F1200 X86.207 Y129.199 E23.20663
G0 F6000 X86.207 Y129.765
G1 F1200 X95.081 Y138.638 E23.62401
G0 F6000 X94.515 Y138.638
G1 F1200 X86.207 Y130.331 E24.01477
G0 F6000 X86.207 Y130.896
G1 F1200 X93.949 Y138.638 E24.37893
G0 F6000 X93.384 Y138.638
G1 F1200 X86.207 Y131.462 E24.71649
G0 F6000 X86.207 Y132.028
G1 F1200 X92.818 Y138.638 E25.02743
G0 F6000 X92.252 Y138.638
G1 F1200 X86.207 Y132.593 E25.31177
G0 F6000 X86.207 Y133.159
G1 F1200 X91.687 Y138.638 E25.56951
G0 F6000 X91.121 Y138.638
G1 F1200 X86.207 Y133.725 E25.80063
G0 F6000 X86.206 Y134.29
G1 F1200 X90.555 Y138.638 E26.00517
G0 F6000 X89.989 Y138.638
G1 F1200 X86.206 Y134.855 E26.18311
G0 F6000 X86.206 Y135.421
G1 F1200 X89.424 Y138.638 E26.33445
G0 F6000 X88.858 Y138.638
G1 F1200 X86.206 Y135.987 E26.45917
G0 F6000 X86.206 Y136.552
G1 F1200 X88.292 Y138.638 E26.55728
G0 F6000 X87.727 Y138.638
G1 F1200 X86.206 Y137.118 E26.6288
G0 F6000 X86.206 Y137.684
G1 F1200 X87.161 Y138.638 E26.6737
G0 F6000 X86.595 Y138.638
G1 F1200 X86.206 Y138.249 E26.692
G0 F6000 X85.748 Y138.247
G0 X85.824 Y128.491
G0 X96.833 Y128.213
G0 X97.246 Y128.075
G0 X97.485 Y127.602
G0 X97.476 Y124.692
G0 X98.179 Y123.15
G0 X98.009 Y122.952
G1 F1200 X98.005 Y115.433 E26.94208
G1 X97.966 Y115.189 E26.9503
G1 X97.823 Y114.802 E26.96402
G1 X97.504 Y114.472 E26.97929
G1 X97.108 Y114.273 E26.99403
G1 X96.866 Y114.219 E27.00228
G1 X86.008 Y114.215 E27.36341
G1 X86.007 Y96.161 E27.96389
G1 X96.109 Y96.162 E28.29989
G1 X95.702 Y96.747 E28.32359
G1 X95.488 Y97.42 E28.34708
G1 X95.445 Y97.688 E28.35611
G1 X95.44 Y110.224 E28.77305
G1 X95.557 Y110.826 E28.79345
G1 X95.767 Y111.322 E28.81137
G1 X96.061 Y111.77 E28.82919
G1 X96.453 Y112.168 E28.84777
G1 X96.868 Y112.453 E28.86451
G1 X97.471 Y112.726 E28.88653
G1 X98.143 Y112.81 E28.90905
G1 X98.635 Y112.783 E28.92544
G1 X99.206 Y112.646 E28.94497
G1 X99.643 Y112.443 E28.961
G1 X100.146 Y112.08 E28.98163
G1 X100.387 Y111.811 E28.99364
G1 X100.387 Y122.607 E29.35272
G1 X98.711 Y122.611 E29.40846
G1 X98.308 Y122.695 E29.42216
G1 X98.009 Y122.952 E29.43527
G0 F6000 X98.179 Y123.15
G0 X97.84 Y123.418
G0 X97.486 Y115.388
G0 X97.348 Y114.975
G0 X96.923 Y114.76
G0 X86.293 Y114.474
G0 X86.294 Y114.013
G1 F1200 X86.206 Y113.925 E29.43941
G0 F6000 X86.206 Y113.359
G1 F1200 X86.86 Y114.013 E29.47017
G0 F6000 X87.425 Y114.013
G1 F1200 X86.206 Y112.794 E29.52751
G0 F6000 X86.206 Y112.228
G1 F1200 X87.992 Y114.013 E29.61149
G0 F6000 X88.558 Y114.013
G1 F1200 X86.206 Y111.662 E29.7221
G0 F6000 X86.206 Y111.097
G1 F1200 X89.124 Y114.014 E29.85933
G0 F6000 X89.69 Y114.014
G1 F1200 X86.206 Y110.531 E30.02318
G0 F6000 X86.206 Y109.965
G1 F1200 X90.256 Y114.015 E30.21368
G0 F6000 X90.822 Y114.015
G1 F1200 X86.206 Y109.4 E30.43078
G0 F6000 X86.206 Y108.834
G1 F1200 X91.387 Y114.015 E30.67448
G0 F6000 X91.954 Y114.016
G1 F1200 X86.206 Y108.268 E30.94485
G0 F6000 X86.206 Y107.702
G1 F1200 X92.519 Y114.016 E31.24182
G0 F6000 X93.086 Y114.016
G1 F1200 X86.206 Y107.137 E31.56541
G0 F6000 X86.206 Y106.571
G1 F1200 X93.652 Y114.016 E31.91562
G0 F6000 X94.218 Y114.017
G1 F1200 X86.206 Y106.005 E32.29248
G0 F6000 X86.206 Y105.44
G1 F1200 X94.784 Y114.017 E32.69594
G0 F6000 X95.349 Y114.017
G1 F1200 X86.206 Y104.874 E33.126
G0 F6000 X86.206 Y104.308
G1 F1200 X95.916 Y114.018 E33.58273
G0 F6000 X96.481 Y114.018
G1 F1200 X86.206 Y103.743 E34.06603
G0 F6000 X86.206 Y103.177
G1 F1200 X97.095 Y114.066 E34.57822
G0 F6000 X96.986 Y114.51
G0 X97.808 Y115.463
G0 X97.84 Y123.418
G0 X98.754 Y122.806
G0 X100.575 Y122.795
G0 X100.558 Y111.256
G0 X99.442 Y112.012
G0 X97.738 Y112.498
G0 X97.681 Y112.954
G1 F1200 X100.187 Y115.46 E34.69609
G0 F6000 X100.187 Y116.026
G1 F1200 X96.807 Y112.646 E34.85508
G0 F6000 X97.008 Y112.232
G0 X98.209 Y112.548
G0 X98.291 Y112.999
G1 F1200 X100.187 Y114.894 E34.94424
G0 F6000 X100.187 Y114.329
G1 F1200 X98.805 Y112.947 E35.00924
G0 F6000 X99.261 Y112.837
G1 F1200 X100.187 Y113.763 E35.0528
G0 F6000 X100.187 Y113.197
G1 F1200 X99.65 Y112.661 E35.07803
G0 F6000 X99.991 Y112.436
G1 F1200 X100.187 Y112.632 E35.08725
G0 F6000 X99.755 Y112.043
G0 X100.558 Y111.256
G0 X100.575 Y122.795
G0 X97.941 Y123.275
G0 X97.747 Y115.56
G0 X98.159 Y115.13
G1 F1200 X100.187 Y117.157 E35.18262
G0 F6000 X100.187 Y116.592
G1 F1200 X86.206 Y102.611 E35.84024
G0 F6000 X86.206 Y102.046
G1 F1200 X95.611 Y111.45 E36.2826
G0 F6000 X95.302 Y110.575
G1 F1200 X86.206 Y101.48 E36.71042
G0 F6000 X86.206 Y100.914
G1 F1200 X95.238 Y109.945 E37.13524
G0 F6000 X95.238 Y109.38
G1 F1200 X86.206 Y100.349 E37.56005
G0 F6000 X86.206 Y99.783
G1 F1200 X95.238 Y108.815 E37.98489
G0 F6000 X95.239 Y108.25
G1 F1200 X86.206 Y99.217 E38.40978
G0 F6000 X86.206 Y98.652
G1 F1200 X95.239 Y107.684 E38.83464
G0 F6000 X95.24 Y107.119
G1 F1200 X86.206 Y98.086 E39.25954
G0 F6000 X86.206 Y97.52
G1 F1200 X95.24 Y106.554 E39.68448
G0 F6000 X95.24 Y105.988
G1 F1200 X86.206 Y96.954 E40.10941
G0 F6000 X86.206 Y96.389
G1 F1200 X95.241 Y105.423 E40.53436
G0 F6000 X95.241 Y104.858
G1 F1200 X86.744 Y96.36 E40.93406
G0 F6000 X87.31 Y96.36
G1 F1200 X95.242 Y104.293 E41.30718
G0 F6000 X95.243 Y103.728
G1 F1200 X87.875 Y96.36 E41.65375
G0 F6000 X88.441 Y96.36
G1 F1200 X95.243 Y103.162 E41.97369
G0 F6000 X95.243 Y102.597
G1 F1200 X89.007 Y96.36 E42.26704
G0 F6000 X89.572 Y96.36
G1 F1200 X95.244 Y102.032 E42.53383
G0 F6000 X95.244 Y101.466
G1 F1200 X90.138 Y96.36 E42.774
G0 F6000 X90.704 Y96.36
G1 F1200 X95.245 Y100.902 E42.98762
G0 F6000 X95.245 Y100.337
G1 F1200 X91.269 Y96.36 E43.17466
G0 F6000 X91.835 Y96.36
G1 F1200 X95.245 Y99.771 E43.33508
G0 F6000 X95.246 Y99.206
G1 F1200 X92.401 Y96.36 E43.46893
G0 F6000 X92.966 Y96.36
G1 F1200 X95.246 Y98.64 E43.57617
G0 F6000 X95.247 Y98.075
G1 F1200 X93.532 Y96.36 E43.65684
G0 F6000 X94.098 Y96.36
G1 F1200 X95.268 Y97.531 E43.7119
G0 F6000 X95.385 Y97.082
G1 F1200 X94.663 Y96.36 E43.74586
G0 F6000 X95.229 Y96.36
G1 F1200 X95.522 Y96.653 E43.75964
G1 F2700 E38.75964
G0 F6000 X96.095 Y96.637
G0 X95.964 Y97.648
G0 X95.958 Y110.146
G0 X96.054 Y110.66
G0 X96.234 Y111.091
G0 X96.474 Y111.45
G0 X97.523 Y112.533
G0 X100.028 Y111.918
G0 X100.558 Y111.256
G0 X100.575 Y122.795
G0 X97.941 Y123.275
G0 X97.747 Y115.742
G0 X98.206 Y115.742
G1 F2700 E43.75964
G1 F1200 X100.187 Y117.723 E43.85282
G0 F6000 X100.187 Y118.289
G1 F1200 X98.206 Y116.308 E43.946
G0 F6000 X98.206 Y116.874
G1 F1200 X100.187 Y118.854 E44.03916
G0 F6000 X100.187 Y119.42
G1 F1200 X98.206 Y117.439 E44.13234
G0 F6000 X98.207 Y118.006
G1 F1200 X100.187 Y119.986 E44.22547
G0 F6000 X100.187 Y120.551
G1 F1200 X98.207 Y118.571 E44.3186
G0 F6000 X98.207 Y119.137
G1 F1200 X100.187 Y121.117 E44.41174
G0 F6000 X100.187 Y121.683
G1 F1200 X98.207 Y119.703 E44.50487
G0 F6000 X98.207 Y120.269
G1 F1200 X100.187 Y122.248 E44.59798
G0 F6000 X99.778 Y122.405
G1 F1200 X98.207 Y120.835 E44.67185
