;FLAVOR:Marlin
;TIME:246
;Filament used: 0.0636478m
;Layer height: 0.2
;MINX:112.313
;MINY:112.313
;MINZ:0.2
;MAXX:122.687
;MAXY:123.427
;MAXZ:4
;Generated with Cura_SteamEngine 5.4.0
M140 S60
M105
M190 S60
M104 S210
M105
M109 S210
M82 ;absolute extrusion mode
; Ender 3 Custom Start G-code
G92 E0 ; Reset Extruder
G28 ; Home all axes
G1 Z2.0 F3000 ; Move Z Axis up little to prevent scratching of Heat Bed
G1 X0.1 Y20 Z0.3 F5000.0 ; Move to start position
G1 X0.1 Y200.0 Z0.3 F1500.0 E15 ; Draw the first line
G1 X0.4 Y200.0 Z0.3 F5000.0 ; Move to side a little
G1 X0.4 Y20 Z0.3 F1500.0 E30 ; Draw the second line
G92 E0 ; Reset Extruder
G1 Z2.0 F3000 ; Move Z Axis up little to prevent scratching of Heat Bed
G1 X5 Y20 Z0.3 F5000.0 ; Move over to prevent blob squish
G92 E0
G92 E0
G1 F2700 E-5
;LAYER_COUNT:20
;LAYER:0
M106 S255
;MESH:pinion.stl
G0 F6000 X122.435 Y118.825 Z0.2
;TYPE:WALL-OUTER
G1 F2700 E0
G1 F613.8 X122.02 Y118.896 E0.01369
G1 X121.762 Y118.843 E0.02225
G1 F452 X121.451 Y118.557 E0.04091
G1 X121.864 Y118.469 E0.05955
G1 F613.8 X122.118 Y118.567 E0.0684
G1 X122.321 Y118.715 E0.07657
G1 X122.435 Y118.825 E0.08172
G1 F2700 E-4.91828
G0 F6000 X122.197 Y119.739
G0 X122.079 Y121.4
G0 X121.402 Y122.077
G0 X119.738 Y122.201
G0 X118.825 Y122.438
G1 F2700 E0.08172
G1 F615.4 X118.722 Y122.329 E0.08658
G1 X118.543 Y122.069 E0.09682
G1 X118.465 Y121.851 E0.10433
G1 F453.7 X118.55 Y121.422 E0.12357
G1 F401.3 X118.851 Y121.766 E0.14629
G1 F522.9 X118.873 Y122.15 E0.16097
G1 F615.4 X118.825 Y122.438 E0.17044
G1 F2700 E-4.82956
G0 F6000 X118.054 Y122.878
G0 X116.458 Y123.427
G0 X115.431 Y123.152
G0 X114.215 Y121.92
G0 X113.863 Y121.137
G1 F2700 E0.17044
G1 F618.6 X114.034 Y120.742 E0.18433
G1 X114.188 Y120.533 E0.1927
G1 F657.5 X114.482 Y120.282 E0.20444
G1 F600 X114.761 Y119.977 E0.21819
G1 F522.9 X114.802 Y119.785 E0.22568
G1 F526.3 X114.778 Y119.409 E0.23996
G1 F527.5 X114.942 Y119.645 E0.25084
G1 F524 X115.317 Y120.026 E0.2712
G1 F527.5 X115.65 Y120.26 E0.28659
G1 X115.256 Y120.174 E0.30185
G1 F545.5 X115.12 Y120.202 E0.30693
G1 F597 X114.831 Y120.384 E0.31835
G1 F623.4 X114.483 Y120.797 E0.33564
G1 F618.6 X114.257 Y120.966 E0.34474
G1 X113.863 Y121.137 E0.3586
G1 F2700 E-4.6414
G0 F6000 X112.562 Y118.825
G1 F2700 E0.3586
G1 F615.4 X112.67 Y118.722 E0.36344
G1 X112.929 Y118.545 E0.37361
G1 X113.147 Y118.464 E0.38115
G1 F452.8 X113.569 Y118.552 E0.40015
G1 X113.234 Y118.85 E0.41991
G1 F615.4 X112.85 Y118.873 E0.43238
G1 X112.562 Y118.825 E0.44185
G1 F2700 E-4.55815
G0 F6000 X114.092 Y116.675
G0 X113.569 Y116.448
G1 F2700 E0.44185
G1 F452.8 X113.135 Y116.531 E0.46132
G1 F613.8 X112.882 Y116.433 E0.47015
G1 X112.679 Y116.285 E0.47831
G1 X112.564 Y116.175 E0.48349
G1 X112.981 Y116.105 E0.49723
G1 X113.238 Y116.157 E0.50576
G1 F452.8 X113.569 Y116.448 E0.52518
G1 F2700 E-4.47482
G0 F6000 X114.063 Y116.585
G0 X115.165 Y116.782
G0 X116.679 Y115.198
G0 X117.244 Y114.185
G1 F2700 E0.52518
G1 F547.9 X117.515 Y114.175 E0.53506
G1 X117.781 Y114.184 E0.54475
G0 F6000 X118.552 Y113.589
G1 F453.7 X118.469 Y113.141 E0.56479
G1 F613.8 X118.538 Y112.923 E0.57223
G1 X118.712 Y112.682 E0.58189
G1 X118.825 Y112.563 E0.58723
G1 X118.894 Y112.976 E0.60084
G1 X118.842 Y113.243 E0.60968
G1 F453.7 X118.552 Y113.589 E0.62954
G0 F6000 X118.918 Y114.492
G1 F538.1 X118.459 Y114.306 E0.64791
G1 F534.5 X117.851 Y114.18 E0.67109
G1 X118.149 Y114.01 E0.6839
G1 F525.2 X118.278 Y113.873 E0.69105
G1 F424 X118.547 Y113.627 E0.70821
G1 F429.3 X118.643 Y114.091 E0.73023
G1 F538.1 X118.918 Y114.492 E0.74826
G0 F6000 X118.959 Y114.509
G1 F564.7 X119.08 Y114.567 E0.753
G1 F553 X119.376 Y114.754 E0.76564
G0 F6000 X120.363 Y114.632
G1 F455.4 X120.506 Y114.212 E0.78508
G1 F618.6 X120.741 Y114.034 E0.79459
G1 X121.136 Y113.864 E0.80846
G1 X120.965 Y114.259 E0.82235
G1 X120.796 Y114.489 E0.83156
G1 F455.4 X120.363 Y114.632 E0.85154
G0 F6000 X120.052 Y114.964
G0 X120.262 Y115.656
G1 F532.2 X120.052 Y115.351 E0.86543
G1 F528.6 X119.629 Y114.932 E0.8879
G1 F500 X119.411 Y114.779 E0.89853
G1 F450.3 X119.863 Y114.812 E0.91862
G1 F391.5 X120.322 Y114.669 E0.94312
G1 F385.9 X120.26 Y114.823 E0.95171
G1 F458 X120.253 Y114.988 E0.95891
G1 F519.5 X120.19 Y115.294 E0.97091
G1 F532.2 X120.262 Y115.656 E0.98475
G0 F6000 X120.28 Y115.682
G1 F544.2 X120.474 Y116.02 E0.99904
G0 F6000 X120.929 Y116.559
G0 X121.391 Y116.46
G1 F406.1 X121.767 Y116.149 E1.02302
G1 F526.3 X122.15 Y116.126 E1.03757
G1 F617 X122.441 Y116.174 E1.04711
G1 X122.335 Y116.275 E1.05184
G1 X122.073 Y116.455 E1.06212
G1 F526.3 X121.88 Y116.54 E1.07012
G1 F406.8 X121.391 Y116.46 E1.09443
G0 F6000 X120.811 Y117.149
G1 F528.6 X120.799 Y116.926 E1.10286
G1 F522.9 X120.648 Y116.381 E1.12444
G1 F527.5 X120.482 Y116.037 E1.13889
G1 F528.6 X120.724 Y116.274 E1.15168
G1 F519.5 X120.994 Y116.347 E1.16243
G1 F467.8 X121.324 Y116.491 E1.17778
G1 F469.7 X121.012 Y116.825 E1.1972
G1 F526.3 X120.811 Y117.149 E1.21166
G0 F6000 X120.815 Y117.212
G1 F551.7 X120.824 Y117.471 E1.22104
G1 F554.3 X120.817 Y117.701 E1.22932
G0 F6000 X120.938 Y118.42
G0 X120.484 Y118.97
G1 F535.7 X120.687 Y118.489 E1.24877
G1 F529.8 X120.835 Y117.785 E1.27587
G1 X120.936 Y118.09 E1.28797
G1 F424.8 X121.368 Y118.543 E1.31738
G1 F411 X121.042 Y118.618 E1.33362
G1 F506.3 X120.766 Y118.725 E1.34529
G1 F535.7 X120.484 Y118.97 E1.3592
G0 F6000 X120.47 Y119.002
G1 F568.7 X120.422 Y119.097 E1.36294
G1 F550.5 X120.247 Y119.38 E1.375
G0 F6000 X120.009 Y119.999
G0 X119.299 Y120.293
G1 F539.3 X119.645 Y120.054 E1.39056
G1 F529.8 X120.077 Y119.619 E1.41365
G1 F528.6 X120.247 Y119.38 E1.42472
G1 X120.189 Y119.629 E1.43438
G1 F529.8 X120.225 Y119.94 E1.44617
G1 F601.5 X120.474 Y120.237 E1.45903
G1 F655.7 X120.798 Y120.52 E1.47212
G1 F618.6 X120.966 Y120.743 E1.48113
G1 X121.137 Y121.137 E1.49498
G1 X120.742 Y120.966 E1.50887
G1 X120.534 Y120.813 E1.5172
G1 F659.3 X120.284 Y120.523 E1.52879
G1 F604.5 X119.94 Y120.225 E1.54381
G1 F534.5 X119.6 Y120.188 E1.55658
G1 F544.2 X119.299 Y120.293 E1.56827
G1 F541.8 X118.98 Y120.476 E1.58182
G0 F6000 X118.398 Y120.948
G0 X117.842 Y120.811
G1 F535.7 X118.073 Y120.794 E1.59045
G1 F534.5 X118.648 Y120.631 E1.61276
G1 X118.962 Y120.484 E1.6257
G1 F474.3 X118.646 Y120.884 E1.64715
G1 F386.5 X118.527 Y121.321 E1.67054
G1 F425.5 X118.171 Y121.015 E1.69255
G1 F534.5 X117.842 Y120.811 E1.70701
G0 F6000 X117.783 Y120.815
G1 F549.2 X117.521 Y120.825 E1.71653
G1 X117.274 Y120.817 E1.72551
G1 F2700 E-3.27449
G0 F6000 X116.581 Y120.938
G0 X116.178 Y122.444
G1 F2700 E1.72551
G1 F612.2 X116.106 Y122.018 E1.7396
G1 F613.8 X116.157 Y121.763 E1.74805
G1 F457.1 X116.458 Y121.397 E1.76874
G1 F381.6 X116.451 Y121.28 E1.77487
G1 F453.7 X116.345 Y120.985 E1.78866
G1 F522.9 X116.265 Y120.719 E1.79926
G1 F541.8 X116.019 Y120.48 E1.81189
G1 F539.3 X116.503 Y120.688 E1.83138
G1 F524 X117.188 Y120.832 E1.85804
G1 X116.847 Y120.998 E1.87248
G1 F470.6 X116.452 Y121.379 E1.89576
G1 F463.3 X116.539 Y121.914 E1.9191
G1 F553 X116.316 Y122.281 E1.9346
G1 F612.2 X116.178 Y122.444 E1.94156
G1 F2700 E-3.05844
G0 F6000 X116.538 Y121.092
G0 X116.019 Y120.48
G1 F2700 E1.94156
G1 F563.4 X115.917 Y120.433 E1.94554
G1 F553 X115.667 Y120.272 E1.95627
G0 F6000 X114.992 Y120.02
G0 X114.763 Y119.388
G1 F535.7 X114.526 Y118.983 E1.97375
G0 F6000 X114.509 Y118.948
G1 F532.2 X114.205 Y118.715 E1.98811
G1 F499 X113.952 Y118.606 E1.99913
G1 F405.4 X113.658 Y118.533 E2.01404
G1 F425.5 X113.968 Y118.194 E2.03559
G1 F533.3 X114.19 Y117.852 E2.05084
G1 F535.7 X114.206 Y118.074 E2.05913
G1 F533.3 X114.37 Y118.651 E2.08158
G1 F532.2 X114.509 Y118.948 E2.09388
G0 F6000 X114.074 Y118.427
G0 X114.187 Y117.813
G1 F551.7 X114.176 Y117.529 E2.10416
G1 X114.185 Y117.242 E2.11454
G0 F6000 X114.172 Y117.191
G1 F516.1 X114.125 Y117.013 E2.12166
G1 F477.1 X113.834 Y116.633 E2.14168
G1 F403.4 X113.626 Y116.46 E2.15506
G1 F415.2 X113.953 Y116.385 E2.17119
G1 F515 X114.316 Y116.232 E2.18645
G1 F546.7 X114.5 Y116.063 E2.19557
G1 F543 X114.317 Y116.505 E2.21315
G1 F535.7 X114.172 Y117.191 E2.23927
G0 F6000 X114.074 Y116.597
G0 X114.5 Y116.063
G1 F562.1 X114.568 Y115.918 E2.24496
G1 F554.3 X114.761 Y115.617 E2.25783
G0 F6000 X114.79 Y115.576
G1 F531 X114.804 Y115.135 E2.27442
G1 F585.4 X114.601 Y114.827 E2.28699
G1 F634.9 X114.204 Y114.483 E2.3035
G1 F617 X114.032 Y114.254 E2.31277
G1 X113.861 Y113.861 E2.32663
G1 X114.259 Y114.035 E2.34068
G1 X114.467 Y114.188 E2.34903
G1 F661.2 X114.755 Y114.517 E2.36223
G1 F603 X115.039 Y114.767 E2.37475
G1 F526.3 X115.354 Y114.822 E2.38687
G1 F531 X115.591 Y114.777 E2.39594
G1 F529.8 X115.354 Y114.944 E2.40686
G1 F526.3 X114.933 Y115.37 E2.42957
G1 F529.8 X114.79 Y115.576 E2.43902
G0 F6000 X115.013 Y114.985
G0 X115.591 Y114.777
G1 F545.5 X115.819 Y114.629 E2.44896
G1 X116.059 Y114.504 E2.45886
G0 F6000 X116.101 Y114.485
G1 F455.4 X116.365 Y114.054 E2.48101
G1 F395.4 X116.463 Y113.63 E2.50297
G1 X116.784 Y113.964 E2.52635
G1 F456.3 X117.189 Y114.189 E2.54662
G1 F509.6 X116.927 Y114.207 E2.5569
G1 F540.5 X116.349 Y114.373 E2.57911
G1 F508.5 X116.101 Y114.485 E2.58978
G0 F6000 X116.444 Y113.559
G1 F455.4 X116.148 Y113.231 E2.60915
G1 F617 X116.126 Y112.85 E2.62149
G1 X116.174 Y112.559 E2.63103
G1 X116.279 Y112.669 E2.63595
G1 X116.457 Y112.931 E2.64619
G1 X116.534 Y113.145 E2.65355
G1 F454.5 X116.444 Y113.559 E2.67215
G1 F2700 E-2.32785
;MESH:NONMESH
G0 F300 X116.444 Y113.559 Z0.4
G0 F6000 X116.574 Y114.032
G0 X115.474 Y113.817
G0 X114.694 Y113.288
G0 X114.211 Y113.077
G0 X113.598 Y112.923
G0 X112.921 Y113.6
G0 X113.01 Y113.947
G0 X113.581 Y115.367
G0 X113.184 Y116.298
;TIME_ELAPSED:18.619131
;LAYER:1
;TYPE:WALL-INNER
;MESH:pinion.stl
G1 F2700 E2.67215
G1 F628.3 X113.114 Y116.338 E2.67471
G1 X113.184 Y116.378 E2.67727
G1 X113.208 Y116.338 E2.67875
G0 F7500 X113.77 Y116.428
G0 X114.289 Y116.284
G0 X114.521 Y116.06
G0 X114.772 Y115.623
G0 X115.039 Y114.986
G1 F478.1 X115.007 Y115.039 E2.68134
G1 X114.946 Y115.039 E2.68388
G1 X114.915 Y114.986 E2.68645
G1 X114.947 Y114.933 E2.68903
G1 X115.007 Y114.933 E2.69154
G0 F7500 X115.482 Y114.849
G0 X116.041 Y114.534
G0 X116.609 Y114.008
G1 F481.9 X116.549 Y114.008 E2.69402
G1 X116.517 Y114.061 E2.69658
G1 X116.548 Y114.114 E2.69913
G1 X116.609 Y114.114 E2.70165
G1 X116.641 Y114.061 E2.70422
G0 F7500 X117.13 Y114.158
G0 X117.781 Y114.195
G0 X118.45 Y114.013
G1 F481.9 X118.39 Y114.013 E2.7067
G1 X118.358 Y114.066 E2.70926
G1 X118.389 Y114.119 E2.71181
G1 X118.45 Y114.119 E2.71433
G1 X118.482 Y114.066 E2.7169
G0 F7500 X118.819 Y114.451
G0 X119.286 Y114.717
G0 X120.045 Y114.93
G1 F483.9 X119.985 Y114.93 E2.71937
G1 X119.953 Y114.983 E2.72192
G1 X119.984 Y115.036 E2.72446
G1 X120.045 Y115.036 E2.72697
G1 X120.077 Y114.983 E2.72953
G0 F7500 X120.151 Y115.487
G0 X120.492 Y116.083
G0 X120.97 Y116.52
G1 F478.1 X120.91 Y116.52 E2.73203
G1 X120.878 Y116.573 E2.73461
G1 X120.909 Y116.626 E2.73718
G1 X120.97 Y116.626 E2.73972
G1 X121.002 Y116.573 E2.74231
G0 F7500 X121.877 Y116.294
G1 F618.6 X121.806 Y116.335 E2.74495
G1 X121.877 Y116.376 E2.7476
G1 X121.902 Y116.335 E2.74915
G0 F7500 X121.115 Y116.685
G0 X120.793 Y116.929
G0 X120.853 Y117.211
G0 X120.819 Y118.053
G0 X120.652 Y118.635
G0 X120.248 Y119.419
G0 X119.877 Y119.863
G0 X119.431 Y120.239
G0 X118.927 Y120.534
G0 X118.382 Y120.732
G0 X117.788 Y120.853
G0 X116.947 Y120.819
G0 X116.211 Y120.608
G0 X115.587 Y120.251
G0 X115.039 Y120.019
G1 F470.6 X115.007 Y120.073 E2.75181
G1 X114.945 Y120.073 E2.75444
G1 X114.913 Y120.019 E2.7571
G1 X114.945 Y119.965 E2.75976
G1 X115.007 Y119.965 E2.76239
G1 F2700 E-2.23761
G0 F7500 X115.551 Y120.213
G0 X116.211 Y120.608
G0 X116.947 Y120.819
G0 X117.598 Y120.816
G0 X117.855 Y120.901
G0 X117.8 Y120.631
;TYPE:WALL-OUTER
G1 F2700 E2.76239
G1 F558.1 X117.767 Y120.618 E2.76366
G1 F572.8 X117.268 Y120.605 E2.78105
G1 F450.3 X116.928 Y120.691 E2.79659
G1 F372.7 X116.668 Y120.623 E2.81098
G1 F379.1 X116.407 Y120.531 E2.82555
G1 F460.7 X116.178 Y120.329 E2.83878
G1 F567.4 X115.699 Y120.051 E2.85826
G1 F582.5 X115.324 Y119.723 E2.87533
G1 F597 X115.044 Y119.414 E2.88926
G1 F581.1 X114.896 Y119.202 E2.89814
G1 F574.2 X114.742 Y118.958 E2.90817
G1 X114.688 Y118.845 E2.91253
G1 F450.3 X114.407 Y118.502 E2.93218
G1 F372.7 X114.336 Y118.125 E2.95272
G1 F439.6 X114.368 Y117.802 E2.96746
G1 F556.8 X114.381 Y117.768 E2.96876
G1 F574.2 X114.396 Y117.287 E2.98549
G1 F446.9 X114.304 Y116.924 E3.00221
G1 F367.5 X114.446 Y116.423 E3.03048
G1 F449.4 X114.712 Y116.103 E3.04896
G1 F572.8 X114.93 Y115.728 E3.06407
G1 F583.9 X115.293 Y115.307 E3.08307
G1 F586.8 X115.607 Y115.019 E3.09756
G1 F575.5 X116.063 Y114.731 E3.11626
G1 F589.7 X116.533 Y114.533 E3.13352
G1 X117.253 Y114.381 E3.15842
G1 F579.7 X117.955 Y114.403 E3.1826
G1 F591.1 X118.542 Y114.568 E3.20318
G1 X118.936 Y114.73 E3.21757
G1 F575.5 X119.274 Y114.931 E3.2312
G1 F583.9 X119.694 Y115.294 E3.25017
G1 F589.7 X119.978 Y115.609 E3.26453
G1 F579.7 X120.258 Y116.043 E3.28231
G1 F589.7 X120.48 Y116.573 E3.30175
G1 X120.619 Y117.253 E3.32524
G1 F571.4 X120.603 Y117.759 E3.34292
G1 F454.5 X120.685 Y118.073 E3.35717
G1 F379.1 X120.547 Y118.603 E3.38599
G1 F456.3 X120.279 Y118.917 E3.40405
G1 F572.8 X120.069 Y119.274 E3.41848
G1 F478.1 X119.974 Y119.515 E3.42929
G1 F390.9 X119.79 Y119.785 E3.44597
G1 F372.7 X119.616 Y119.927 E3.458
G1 F434 X119.324 Y120.057 E3.4727
G1 F539.3 X119.283 Y120.063 E3.47423
G1 F568.7 X118.823 Y120.327 E3.49284
G1 F475.2 X118.593 Y120.502 E3.50498
G1 F387.1 X118.369 Y120.615 E3.51791
G1 F372.1 X118.124 Y120.663 E3.5313
G1 F440.4 X117.8 Y120.631 E3.54606
G1 F2700 E-1.45394
G0 F7500 X117.855 Y120.901
G0 X118.794 Y122.335
G0 X118.907 Y122.547
G1 F2700 E3.54606
G1 F404.7 X118.974 Y122.15 E3.56591
G1 X118.951 Y121.761 E3.58512
G1 F424.8 X118.808 Y121.35 E3.60557
G1 F404.7 X118.734 Y121.023 E3.6221
G1 F387.1 X118.859 Y120.768 E3.63674
G1 F475.2 X119.021 Y120.695 E3.6442
G1 F452 X119.719 Y120.295 E3.67972
G1 F372.7 X119.927 Y120.327 E3.69099
G1 F403.4 X120.142 Y120.521 E3.70532
G1 F424 X120.464 Y120.887 E3.72826
G1 F408.2 X120.686 Y121.051 E3.74175
G1 X120.938 Y121.166 E3.7553
G1 X121.171 Y121.239 E3.76723
G1 X121.235 Y121.175 E3.77166
G1 X121.167 Y120.939 E3.78367
G1 X121.054 Y120.693 E3.7969
G1 X120.868 Y120.446 E3.81202
G1 F424 X120.52 Y120.143 E3.83374
G1 F403.4 X120.328 Y119.926 E3.84807
G1 F370.9 X120.297 Y119.799 E3.85511
G1 F448.6 X120.445 Y119.464 E3.8714
G1 F572.8 X120.649 Y119.106 E3.88575
G1 F508.5 X120.68 Y118.993 E3.89035
G1 F409.6 X120.803 Y118.839 E3.89996
G1 F370.4 X120.998 Y118.735 E3.91186
G1 F402 X121.379 Y118.817 E3.93121
G1 F424 X121.75 Y118.947 E3.94971
G1 F406.1 X122.15 Y118.975 E3.96942
G1 X122.548 Y118.906 E3.98927
G1 X122.575 Y118.806 E3.99436
G1 X122.22 Y118.499 E4.01742
G1 X121.917 Y118.375 E4.03351
G1 F411 X121.417 Y118.278 E4.05824
G1 F390.9 X121.128 Y118.15 E4.07438
G1 F374.4 X121.04 Y118.034 E4.08214
G1 F454.5 X121.025 Y117.74 E4.09506
G1 F576.9 X121.037 Y117.176 E4.11458
G1 F595.5 X121.261 Y116.889 E4.12678
G1 F531 X121.464 Y116.703 E4.13712
G1 F492.8 X121.94 Y116.728 E4.15643
G1 F551.7 X122.166 Y116.627 E4.16538
G1 F600 X122.45 Y116.432 E4.17684
G1 X122.678 Y116.211 E4.1874
G1 X122.625 Y116.008 E4.19438
G1 X122.013 Y115.906 E4.21501
G1 F598.5 X121.693 Y115.974 E4.22592
G1 F550.5 X121.328 Y116.209 E4.24166
G1 F551.7 X120.911 Y116.105 E4.2572
G1 F592.6 X120.669 Y115.929 E4.26728
G1 F576.9 X120.392 Y115.456 E4.28624
G1 F546.7 X120.45 Y115.033 E4.30183
G1 F483.9 X120.537 Y114.841 E4.31052
G1 F427 X120.887 Y114.537 E4.33218
G1 F408.2 X121.051 Y114.314 E4.34572
G1 X121.166 Y114.062 E4.35926
G1 X121.238 Y113.829 E4.37118
G1 X121.175 Y113.766 E4.37554
G1 X120.938 Y113.833 E4.38758
G1 X120.694 Y113.945 E4.40071
G1 X120.447 Y114.132 E4.41586
G1 F427 X120.161 Y114.461 E4.43623
G1 F483.9 X119.979 Y114.546 E4.44451
G1 F556.8 X119.688 Y114.589 E4.45505
G1 F579.7 X119.464 Y114.555 E4.46285
G1 F568.7 X118.998 Y114.292 E4.48163
G1 F564.7 X118.848 Y113.953 E4.49473
G1 F497.9 X118.802 Y113.679 E4.50586
G1 F425.5 X118.947 Y113.251 E4.52706
G1 F406.1 X118.996 Y112.973 E4.54093
G1 F405.4 X118.906 Y112.452 E4.56695
G1 X118.805 Y112.425 E4.5721
G1 X118.602 Y112.662 E4.58746
