;FLAVOR:Marlin
;TIME:7946
;Filament used: 5.71107m
;Layer height: 0.2
;MINX:62.877
;MINY:76.203
;MINZ:0.2
;MAXX:172.123
;MAXY:158.797
;MAXZ:14
;Generated with Cura_SteamEngine 5.4.0
M140 S60
M105
M190 S60
M104 S210
M105
M109 S210
M82 ;absolute extrusion mode
; Ender 3 Custom Start G-code
G92 E0 ; Reset Extruder
G28 ; Home all axes
G1 Z2.0 F3000 ; Move Z Axis up little to prevent scratching of Heat Bed
G1 X0.1 Y20 Z0.3 F5000.0 ; Move to start position
G1 X0.1 Y200.0 Z0.3 F1500.0 E15 ; Draw the first line
G1 X0.4 Y200.0 Z0.3 F5000.0 ; Move to side a little
G1 X0.4 Y20 Z0.3 F1500.0 E30 ; Draw the second line
G92 E0 ; Reset Extruder
G1 Z2.0 F3000 ; Move Z Axis up little to prevent scratching of Heat Bed
G1 X5 Y20 Z0.3 F5000.0 ; Move over to prevent blob squish
G92 E0
G92 E0
G1 F2700 E-5
;LAYER_COUNT:70
;LAYER:0
M107
;MESH:thumb button 01.stl
G0 F6000 X71.46 Y89.203 Z0.2
;TYPE:WALL-OUTER
G1 F2700 E0
G1 F1348.3 X71.159 Y89.302 E0.00938
G1 F1359.8 X70.818 Y89.366 E0.01956
G1 F1355.9 X70.48 Y89.37 E0.02951
G1 F1348.3 X70.024 Y89.286 E0.04324
G1 F1359.8 X69.616 Y89.072 E0.05676
G1 F1355.9 X69.35 Y88.868 E0.06663
G1 F1352.1 X69.117 Y88.613 E0.07683
G1 F1359.8 X68.897 Y88.269 E0.08881
G1 F1352.1 X68.762 Y87.863 E0.10144
G1 F1344.5 X68.714 Y87.444 E0.11396
G1 X68.773 Y87.022 E0.12661
G1 F1348.3 X68.865 Y86.704 E0.13641
G1 F1340.8 X69.027 Y86.419 E0.14617
G1 X69.313 Y86.039 E0.16032
G1 F1359.8 X69.802 Y85.701 E0.17777
G1 F1352.1 X70.23 Y85.572 E0.19097
G1 F1355.9 X70.565 Y85.523 E0.20093
G1 F1363.6 X70.896 Y85.538 E0.21063
G1 F1348.3 X71.347 Y85.638 E0.22431
G1 X71.759 Y85.878 E0.23842
G1 F1352.1 X72.096 Y86.156 E0.25132
G1 F1344.5 X72.358 Y86.558 E0.26556
G1 F1337 X72.48 Y86.868 E0.2755
G1 F1367.5 X72.558 Y87.18 E0.28489
G1 F1391.3 X72.577 Y87.433 E0.29217
G1 F1367.5 X72.554 Y87.692 E0.29976
G1 F1348.3 X72.491 Y88.033 E0.31002
G1 F1367.5 X72.321 Y88.405 E0.32196
G1 F1359.8 X72.118 Y88.684 E0.33209
G1 F1352.1 X71.826 Y88.981 E0.34438
G1 F1363.6 X71.46 Y89.203 E0.35691
G0 F6000 X71.272 Y88.905
G1 F1367.5 X71.614 Y88.7 E0.36855
G1 F1371.4 X71.986 Y88.298 E0.38449
G1 F1363.6 X72.156 Y87.91 E0.39689
G1 F1375.4 X72.232 Y87.378 E0.41248
G1 F1403.5 X72.213 Y87.196 E0.41768
G1 X72.002 Y86.629 E0.43489
G1 F1391.3 X71.725 Y86.298 E0.44727
G1 F1379.3 X71.428 Y86.082 E0.4579
G1 F1383.3 X70.999 Y85.903 E0.47131
G1 X70.559 Y85.872 E0.48404
G1 F1379.3 X69.978 Y86.011 E0.50132
G1 F1367.5 X69.568 Y86.289 E0.51578
G1 F1371.4 X69.204 Y86.79 E0.5338
G1 F1359.8 X69.124 Y87.1 E0.5432
G1 F1344.5 X69.069 Y87.387 E0.55187
G1 F1355.9 X69.094 Y87.722 E0.56176
G1 F1363.6 X69.214 Y88.113 E0.57373
G1 F1375.4 X69.506 Y88.542 E0.58879
G1 F1387.3 X69.913 Y88.845 E0.60339
G1 F1383.3 X70.355 Y89.006 E0.61696
G1 F1379.3 X70.781 Y89.021 E0.6293
G1 F1375.4 X71.272 Y88.905 E0.64394
G1 F2700 E-4.35606
;MESH:top plate 01.stl
G0 F6000 X88.297 Y100.645
G0 X91.298 Y103.283
;TYPE:WALL-INNER
G1 F2700 E0.64394
G1 F1200 X90.528 Y103.187 E0.66975
G1 X90.129 Y103.058 E0.68369
G1 X89.631 Y102.8 E0.70235
G1 X89.057 Y102.286 E0.72798
G1 X88.649 Y101.584 E0.75498
G1 X88.466 Y100.766 E0.78286
G1 X88.564 Y99.872 E0.81277
G1 X88.864 Y99.246 E0.83586
G1 X89.243 Y98.759 E0.85639
G1 X89.636 Y98.422 E0.87361
G1 X90.032 Y98.197 E0.88875
G1 X90.432 Y98.051 E0.90292
G1 X90.89 Y97.966 E0.91841
G1 X91.549 Y97.987 E0.94034
G1 X92.013 Y98.101 E0.95623
G1 X92.617 Y98.377 E0.97832
G1 X93.178 Y98.883 E1.00345
G1 X93.533 Y99.469 E1.02623
G1 X93.706 Y99.938 E1.04286
G1 X93.817 Y100.55 E1.06355
G1 X93.681 Y101.466 E1.09435
G1 X93.321 Y102.115 E1.11903
G1 X92.93 Y102.565 E1.13886
G1 X92.595 Y102.824 E1.15294
G1 X91.993 Y103.118 E1.17523
G1 X91.298 Y103.283 E1.19899
G1 F2700 E-3.80101
G0 F6000 X90.465 Y103.269
G0 X92.666 Y102.997
G0 X103.061 Y105.061
G0 X108.725 Y107.324
G1 F2700 E1.19899
G1 F1200 X108.12 Y107.436 E1.21945
G1 X107.706 Y107.471 E1.23327
G1 X107.271 Y107.47 E1.24774
G1 X106.764 Y107.423 E1.26467
G1 X106.238 Y107.312 E1.28255
G1 X105.726 Y107.151 E1.3004
G1 X105.149 Y106.881 E1.32159
G1 X104.631 Y106.557 E1.34191
G1 X104.193 Y106.194 E1.36083
G1 X103.882 Y105.884 E1.37544
G1 X103.558 Y105.497 E1.39223
G1 X103.218 Y104.972 E1.41303
G1 X102.947 Y104.408 E1.43384
G1 X102.764 Y103.845 E1.45353
G1 X102.656 Y103.352 E1.47032
G1 X102.602 Y102.801 E1.48873
G1 X102.604 Y102.345 E1.5039
G1 X102.643 Y101.877 E1.51952
G1 X102.759 Y101.325 E1.53828
G1 X102.919 Y100.806 E1.55634
G1 X103.217 Y100.183 E1.57931
G1 X103.527 Y99.693 E1.5986
G1 X103.904 Y99.243 E1.61812
G1 X104.175 Y98.974 E1.63082
G1 X104.599 Y98.62 E1.64919
G1 X105.06 Y98.324 E1.66741
G1 X105.453 Y98.12 E1.68214
G1 X105.773 Y97.987 E1.69367
G1 X106.237 Y97.84 E1.70986
G1 X106.718 Y97.733 E1.72625
G1 X107.26 Y97.68 E1.74436
G1 X107.712 Y97.68 E1.75939
G1 X108.241 Y97.728 E1.77706
G1 X108.723 Y97.83 E1.79345
G1 X109.237 Y97.987 E1.81132
G1 X109.81 Y98.25 E1.83229
G1 X110.379 Y98.605 E1.8546
G1 X110.791 Y98.945 E1.87236
G1 X111.114 Y99.266 E1.88751
G1 X111.421 Y99.631 E1.90337
G1 X111.764 Y100.154 E1.92418
G1 X112.033 Y100.717 E1.94493
G1 X112.174 Y101.108 E1.95875
G1 X112.272 Y101.474 E1.97135
G1 X112.35 Y101.885 E1.98527
G1 X112.392 Y102.323 E1.9999
G1 X112.395 Y102.755 E2.01427
G1 X112.346 Y103.309 E2.03277
G1 X112.262 Y103.742 E2.04744
G1 X112.094 Y104.289 E2.06647
G1 X111.79 Y104.944 E2.09049
G1 X111.484 Y105.431 E2.10962
G1 X111.127 Y105.871 E2.12847
G1 X110.823 Y106.174 E2.14274
G1 X110.387 Y106.541 E2.1617
G1 X109.859 Y106.874 E2.18246
G1 X109.258 Y107.155 E2.20452
G1 X108.725 Y107.324 E2.22312
G1 F2700 E-2.77688
G0 F6000 X108.761 Y107.418
G0 X110.333 Y106.381
G0 X110.715 Y106.03
G0 X112.265 Y104.347
G0 X126.102 Y95.732
G0 X127.358 Y95.711
G1 F2700 E2.22312
G1 F1200 X126.738 Y95.658 E2.24382
G1 X126.102 Y95.547 E2.26529
G1 X125.54 Y95.394 E2.28466
G1 X124.721 Y95.095 E2.31366
G1 X123.946 Y94.653 E2.34334
G1 X123.439 Y94.303 E2.36383
G1 X123.193 Y94.104 E2.37435
G1 X122.745 Y93.692 E2.39459
G1 X122.303 Y93.216 E2.4162
G1 X121.82 Y92.542 E2.44378
G1 X121.5 Y91.989 E2.46503
G1 X121.251 Y91.454 E2.48466
G1 X121.06 Y90.935 E2.50305
G1 X120.961 Y90.601 E2.51464
G1 X120.829 Y90.007 E2.53488
G1 X120.774 Y89.637 E2.54732
G1 X120.735 Y89.155 E2.5634
G1 X120.728 Y88.8 E2.57521
G1 X120.754 Y88.207 E2.59495
G1 X120.822 Y87.676 E2.61276
G1 X120.889 Y87.332 E2.62441
G1 X121.046 Y86.739 E2.64482
G1 X121.248 Y86.188 E2.66434
G1 X121.441 Y85.744 E2.68044
G1 X121.789 Y85.136 E2.70374
G1 X122.12 Y84.66 E2.72302
G1 X122.351 Y84.371 E2.73533
G1 X122.84 Y83.845 E2.75921
G1 X123.191 Y83.532 E2.77486
G1 X123.823 Y83.052 E2.80125
G1 X124.433 Y82.7 E2.82468
G1 X124.686 Y82.574 E2.83408
G1 X125.276 Y82.33 E2.85531
G1 X125.874 Y82.142 E2.87616
G1 X126.401 Y82.025 E2.89412
G1 X127.048 Y81.941 E2.91582
G1 X127.64 Y81.916 E2.93552
G1 X128.194 Y81.939 E2.95397
G1 X128.807 Y82.018 E2.97452
G1 X129.109 Y82.076 E2.98475
G1 X129.605 Y82.199 E3.00175
G1 X130.114 Y82.372 E3.01963
G1 X130.801 Y82.689 E3.04479
G1 X131.346 Y83.003 E3.06571
G1 X131.832 Y83.345 E3.08548
G1 X132.074 Y83.54 E3.09582
G1 X132.478 Y83.909 E3.11401
G1 X132.906 Y84.37 E3.13494
G1 X133.083 Y84.59 E3.14433
G1 X133.43 Y85.082 E3.16435
G1 X133.744 Y85.625 E3.18521
G1 X133.977 Y86.117 E3.20332
G1 X134.118 Y86.475 E3.21612
G1 X134.302 Y87.062 E3.23658
G1 X134.421 Y87.607 E3.25513
G1 X134.503 Y88.236 E3.27623
G1 X134.528 Y88.775 E3.29418
G1 X134.506 Y89.379 E3.31428
G1 X134.427 Y89.996 E3.33497
G1 X134.361 Y90.326 E3.34616
G1 X134.252 Y90.77 E3.36137
G1 X134.017 Y91.423 E3.38445
G1 X133.758 Y91.985 E3.40503
G1 X133.461 Y92.501 E3.42483
G1 X133.117 Y92.999 E3.44496
G1 X132.917 Y93.248 E3.45559
G1 X132.519 Y93.684 E3.47522
G1 X132.009 Y94.156 E3.49833
G1 X131.345 Y94.631 E3.52549
G1 X130.833 Y94.926 E3.54514
G1 X130.285 Y95.184 E3.56529
G1 X130.01 Y95.292 E3.57511
G1 X129.408 Y95.483 E3.59612
G1 X128.837 Y95.611 E3.61558
G1 X128.506 Y95.66 E3.62671
G1 X127.949 Y95.709 E3.64531
G1 X127.358 Y95.711 E3.66497
G1 F2700 E-1.33503
G0 F6000 X126.812 Y95.766
G0 X124.538 Y94.806
G0 X123.536 Y94.172
G0 X122.684 Y93.362
G0 X121.084 Y91.523
G0 X110.112 Y85.243
G0 X109.336 Y85.242
G1 F2700 E3.66497
G1 F1200 X108.568 Y85.146 E3.69071
G1 X108.153 Y85.01 E3.70523
G1 X107.672 Y84.759 E3.72328
G1 X107.098 Y84.245 E3.74891
G1 X106.69 Y83.543 E3.77591
G1 X106.507 Y82.725 E3.80379
G1 X106.605 Y81.832 E3.83367
G1 X106.894 Y81.224 E3.85606
G1 X107.105 Y80.923 E3.86829
G1 X107.538 Y80.466 E3.88923
G1 X108.062 Y80.165 E3.90933
G1 X108.676 Y79.935 E3.93113
G1 X109.364 Y79.924 E3.95402
G1 X109.958 Y80.016 E3.97401
G1 X110.66 Y80.34 E3.99973
G1 X111.266 Y80.889 E4.02692
G1 X111.592 Y81.456 E4.04868
G1 X111.749 Y81.899 E4.06431
G1 X111.858 Y82.531 E4.08564
G1 X111.724 Y83.418 E4.11548
G1 X111.37 Y84.063 E4.13995
G1 X110.979 Y84.516 E4.15985
G1 X110.621 Y84.792 E4.17489
G1 X110.035 Y85.078 E4.19657
G1 X109.336 Y85.242 E4.22045
G1 F2700 E-0.77955
G0 F6000 X108.505 Y85.228
G0 X110.112 Y85.243
G0 X141.158 Y107.604
G0 X144.351 Y110.886
G1 F2700 E4.22045
G1 F1200 X143.716 Y110.596 E4.24367
G1 X143.186 Y110.259 E4.26456
G1 X142.768 Y109.915 E4.28257
G1 X142.444 Y109.592 E4.29778
G1 X142.122 Y109.205 E4.31453
G1 X141.766 Y108.648 E4.33651
G1 X141.491 Y108.06 E4.35811
G1 X141.332 Y107.559 E4.37559
G1 X141.221 Y107.058 E4.39265
G1 X141.161 Y106.415 E4.41413
G1 X141.184 Y105.867 E4.43238
G1 X141.262 Y105.269 E4.45243
G1 X141.493 Y104.509 E4.47885
G1 X141.752 Y103.951 E4.49932
G1 X142.089 Y103.416 E4.52035
G1 X142.444 Y102.983 E4.53897
G1 X142.78 Y102.654 E4.55461
G1 X143.183 Y102.318 E4.57206
G1 X143.671 Y102.008 E4.59129
G1 X144.328 Y101.702 E4.6154
G1 X144.779 Y101.558 E4.63114
G1 X145.331 Y101.44 E4.64992
G1 X145.837 Y101.394 E4.66682
G1 X146.284 Y101.394 E4.68168
G1 X146.824 Y101.444 E4.69972
G1 X147.318 Y101.55 E4.71652
G1 X147.844 Y101.716 E4.73487
G1 X148.395 Y101.973 E4.75509
G1 X148.916 Y102.296 E4.77548
G1 X149.385 Y102.683 E4.7957
G1 X149.634 Y102.93 E4.80737
G1 X150.005 Y103.366 E4.82641
G1 X150.287 Y103.8 E4.84362
G1 X150.507 Y104.215 E4.85925
G1 X150.675 Y104.625 E4.87398
G1 X150.809 Y105.059 E4.88909
G1 X150.909 Y105.513 E4.90455
G1 X150.963 Y106.091 E4.92386
G1 X150.96 Y106.523 E4.93823
G1 X150.89 Y107.256 E4.96272
G1 X150.677 Y107.948 E4.9868
G1 X150.506 Y108.361 E5.00167
G1 X150.32 Y108.721 E5.01515
G1 X150.004 Y109.212 E5.03457
G1 X149.696 Y109.582 E5.05058
G1 X149.374 Y109.906 E5.06577
G1 X149.001 Y110.219 E5.08197
G1 X148.502 Y110.54 E5.1017
G1 X148.145 Y110.726 E5.11509
G1 X147.724 Y110.901 E5.13025
G1 X147.346 Y111.02 E5.14344
G1 X146.812 Y111.137 E5.16162
G1 X146.305 Y111.184 E5.17855
G1 X145.873 Y111.185 E5.19292
G1 X145.43 Y111.156 E5.20769
G1 X144.912 Y111.056 E5.22523
G1 X144.351 Y110.886 E5.24473
G1 F2700 E0.24473
G0 F6000 X144.321 Y110.98
G0 X146.294 Y111.023
G0 X147.31 Y110.861
G0 X148.455 Y110.382
G0 X149.269 Y109.783
G0 X149.788 Y109.206
G0 X151.067 Y107.293
G0 X163.039 Y102.622
G0 X164.118 Y102.887
G1 F2700 E5.24473
G1 F1200 X163.548 Y102.682 E5.26488
G1 X163.13 Y102.466 E5.28053
G1 X162.823 Y102.272 E5.29261
G1 X162.495 Y102.023 E5.3063
G1 X162.113 Y101.668 E5.32365
G1 X161.835 Y101.336 E5.33805
G1 X161.621 Y101.03 E5.35047
G1 X161.426 Y100.696 E5.36333
G1 X161.142 Y100.088 E5.38565
G1 X160.969 Y99.32 E5.41184
G1 X160.927 Y98.867 E5.42697
G1 X160.928 Y98.194 E5.44935
G1 X161.08 Y97.47 E5.47396
G1 X161.261 Y96.955 E5.49211
G1 X161.406 Y96.643 E5.50356
G1 X161.604 Y96.297 E5.51682
G1 X161.815 Y95.992 E5.52915
G1 X162.052 Y95.706 E5.5415
G1 X162.494 Y95.266 E5.56225
G1 X162.959 Y94.939 E5.58116
G1 X163.313 Y94.736 E5.59473
G1 X163.647 Y94.582 E5.60696
G1 X164.043 Y94.437 E5.62099
G1 X164.626 Y94.302 E5.64089
G1 X165.268 Y94.247 E5.66232
G1 X165.91 Y94.285 E5.68371
G1 X166.505 Y94.413 E5.70395
G1 X167.016 Y94.589 E5.72193
G1 X167.331 Y94.738 E5.73352
G1 X167.698 Y94.944 E5.74752
G1 X168.106 Y95.242 E5.76432
G1 X168.596 Y95.693 E5.78647
G1 X168.985 Y96.204 E5.80783
G1 X169.232 Y96.633 E5.8243
G1 X169.387 Y96.966 E5.83651
G1 X169.562 Y97.436 E5.85319
G1 X169.686 Y98.081 E5.87504
G1 X169.719 Y98.478 E5.88829
G1 X169.717 Y98.873 E5.90143
G1 X169.678 Y99.311 E5.91605
G1 X169.513 Y100.026 E5.94046
G1 X169.25 Y100.665 E5.96344
G1 X168.952 Y101.138 E5.98204
G1 X168.729 Y101.436 E5.99442
G1 X168.429 Y101.768 E6.0093
G1 X168.185 Y101.994 E6.02036
G1 X167.82 Y102.275 E6.03568
G1 X167.567 Y102.437 E6.04567
G1 X167.158 Y102.651 E6.06103
G1 X166.865 Y102.773 E6.07158
G1 X166.492 Y102.893 E6.08462
G1 X165.994 Y103.004 E6.10159
G1 X165.507 Y103.048 E6.11785
G1 X165.127 Y103.047 E6.13049
G1 X164.684 Y103.008 E6.14528
G1 X164.118 Y102.887 E6.16453
G1 F2700 E1.16453
G0 F6000 X164.094 Y102.984
G0 X165.119 Y103.228
G0 X166.414 Y109.052
G0 X166.238 Y114.181
G1 F2700 E6.16453
G1 F1200 X165.725 Y113.853 E6.18478
G1 X165.272 Y113.446 E6.20504
G1 X164.957 Y112.931 E6.22512
G1 X164.767 Y112.44 E6.24263
G1 X164.68 Y111.947 E6.25928
G1 X164.683 Y111.508 E6.27388
G1 X164.773 Y110.959 E6.29238
G1 X165.095 Y110.256 E6.3181
G1 X165.542 Y109.77 E6.34006
G1 X165.903 Y109.501 E6.35504
G1 X166.489 Y109.223 E6.37661
G1 X166.939 Y109.115 E6.392
G1 X167.589 Y109.104 E6.41362
G1 X168.198 Y109.224 E6.43427
G1 X168.389 Y109.299 E6.44109
G1 X168.943 Y109.639 E6.46271
G1 X169.292 Y109.959 E6.47846
G1 X169.581 Y110.346 E6.49452
G1 X169.856 Y110.946 E6.51648
G1 X169.959 Y111.441 E6.53329
G1 X169.959 Y112.028 E6.55282
G1 X169.837 Y112.614 E6.57273
G1 X169.761 Y112.804 E6.57953
G1 X169.42 Y113.363 E6.60131
G1 X169.004 Y113.82 E6.62186
G1 X168.459 Y114.134 E6.64278
G1 X168.039 Y114.293 E6.65772
G1 X167.572 Y114.377 E6.6735
G1 X166.909 Y114.359 E6.69556
G1 X166.238 Y114.181 E6.71865
G1 F2700 E1.71865
G0 F6000 X166.185 Y114.266
G0 X166.872 Y114.536
G0 X165.952 Y121.105
G0 X163.546 Y129.682
G1 F2700 E6.71865
G1 F1200 X163.119 Y129.46 E6.73466
G1 X162.818 Y129.268 E6.74653
G1 X162.531 Y129.053 E6.75846
G1 X162.143 Y128.701 E6.77589
G1 X161.829 Y128.327 E6.79213
G1 X161.615 Y128.021 E6.80455
G1 X161.438 Y127.719 E6.81619
G1 X161.141 Y127.074 E6.83981
G1 X160.97 Y126.328 E6.86526
G1 X160.927 Y125.867 E6.88066
G1 X160.931 Y125.171 E6.90381
G1 X161.078 Y124.478 E6.92737
G1 X161.251 Y123.981 E6.94488
G1 X161.418 Y123.622 E6.95805
G1 X161.602 Y123.301 E6.97035
G1 X161.842 Y122.957 E6.9843
G1 X162.071 Y122.685 E6.99613
G1 X162.456 Y122.298 E7.01429
G1 X162.951 Y121.944 E7.03453
G1 X163.313 Y121.736 E7.04841
G1 X163.646 Y121.582 E7.06061
G1 X164.048 Y121.435 E7.07485
G1 X164.665 Y121.297 E7.09588
G1 X165.22 Y121.247 E7.11441
G1 X165.88 Y121.282 E7.1364
G1 X166.468 Y121.402 E7.15636
G1 X167.016 Y121.589 E7.17562
G1 X167.331 Y121.738 E7.1872
G1 X167.698 Y121.944 E7.2012
G1 X168.106 Y122.242 E7.21801
G1 X168.596 Y122.693 E7.24016
G1 X168.985 Y123.204 E7.26152
G1 X169.232 Y123.633 E7.27798
G1 X169.387 Y123.966 E7.2902
G1 X169.562 Y124.436 E7.30688
G1 X169.686 Y125.082 E7.32876
G1 X169.717 Y125.421 E7.34008
G1 X169.717 Y125.873 E7.35511
G1 X169.678 Y126.311 E7.36974
G1 X169.513 Y127.026 E7.39415
G1 X169.25 Y127.665 E7.41713
G1 X168.952 Y128.138 E7.43572
G1 X168.725 Y128.443 E7.44837
G1 X168.465 Y128.732 E7.4613
G1 X168.185 Y128.994 E7.47405
G1 X167.82 Y129.275 E7.48937
G1 X167.567 Y129.437 E7.49936
G1 X167.158 Y129.651 E7.51472
G1 X166.815 Y129.791 E7.52704
G1 X166.492 Y129.893 E7.5383
G1 X165.956 Y130.009 E7.55655
G1 X165.528 Y130.047 E7.57084
G1 X165.121 Y130.047 E7.58437
G1 X164.684 Y130.008 E7.59897
G1 X164.13 Y129.89 E7.61781
G1 X163.546 Y129.682 E7.63842
G1 F2700 E2.63842
G0 F6000 X162.998 Y129.502
G0 X163.473 Y129.847
G0 X166.184 Y141.179
G0 X166.379 Y146.379
G1 F2700 E7.63842
G1 F1200 X165.734 Y146.029 E7.66283
G1 X165.299 Y145.658 E7.68185
G1 X164.999 Y145.274 E7.69806
G1 X164.702 Y144.626 E7.72176
G1 X164.558 Y143.989 E7.74348
G1 X164.653 Y143.227 E7.76903
G1 X164.785 Y142.82 E7.78326
G1 X165.049 Y142.308 E7.80242
G1 X165.563 Y141.75 E7.82765
G1 X166.239 Y141.358 E7.85364
G1 X167.069 Y141.164 E7.88199
G1 X167.964 Y141.262 E7.91194
G1 X168.598 Y141.565 E7.93531
G1 X169.07 Y141.926 E7.95507
G1 X169.413 Y142.328 E7.97265
G1 X169.622 Y142.689 E7.98652
G1 X169.787 Y143.134 E8.00231
G1 X169.874 Y143.587 E8.01765
G1 X169.847 Y144.278 E8.04065
