;FLAVOR:Marlin
;TIME:502
;Filament used: 0.195926m
;Layer height: 0.2
;MINX:106.07
;MINY:110.924
;MINZ:0.2
;MAXX:125.596
;MAXY:123.537
;MAXZ:5
;Generated with Cura_SteamEngine 5.4.0
M140 S60
M105
M190 S60
M104 S210
M105
M109 S210
M82 ;absolute extrusion mode
; Ender 3 Custom Start G-code
G92 E0 ; Reset Extruder
G28 ; Home all axes
G1 Z2.0 F3000 ; Move Z Axis up little to prevent scratching of Heat Bed
G1 X0.1 Y20 Z0.3 F5000.0 ; Move to start position
G1 X0.1 Y200.0 Z0.3 F1500.0 E15 ; Draw the first line
G1 X0.4 Y200.0 Z0.3 F5000.0 ; Move to side a little
G1 X0.4 Y20 Z0.3 F1500.0 E30 ; Draw the second line
G92 E0 ; Reset Extruder
G1 Z2.0 F3000 ; Move Z Axis up little to prevent scratching of Heat Bed
G1 X5 Y20 Z0.3 F5000.0 ; Move over to prevent blob squish
G92 E0
G92 E0
G1 F2700 E-5
;LAYER_COUNT:25
;LAYER:0
M107
;MESH:trigger clamp 1.stl
G0 F6000 X106.784 Y112.083 Z0.2
;TYPE:WALL-INNER
G1 F2700 E0
G1 F866.4 X106.716 Y112.083 E0.00313
G1 X106.681 Y112.142 E0.00629
G1 X106.716 Y112.201 E0.00945
G1 X106.784 Y112.201 E0.01259
G1 X106.819 Y112.142 E0.01575
G0 F6000 X106.675 Y113.247
G0 X106.721 Y113.676
G0 X106.919 Y114.303
G0 X107.326 Y114.765
G0 X107.734 Y115.061
G0 X108.205 Y115.256
G0 X108.885 Y115.315
G0 X109.423 Y115.196
G0 X110.049 Y114.869
G0 X110.457 Y114.345
G0 X110.649 Y113.959
G0 X110.741 Y113.489
G0 X110.738 Y112.071
G1 F905.7 X110.674 Y112.071 E0.01857
G1 X110.64 Y112.128 E0.02149
G1 X110.673 Y112.185 E0.02439
G1 X110.738 Y112.185 E0.02726
G1 X110.772 Y112.128 E0.03018
G0 F6000 X110.588 Y119.033
G0 X110.771 Y119.55
G1 F1200 X110.768 Y114.089 E0.21182
G1 X110.563 Y114.481 E0.22653
G1 X110.23 Y114.9 E0.24433
G1 X110.038 Y115.058 E0.2526
G1 X109.474 Y115.353 E0.27377
G1 X108.898 Y115.479 E0.29338
G1 X108.154 Y115.413 E0.31822
G1 X107.597 Y115.172 E0.33841
G1 X107.211 Y114.88 E0.35451
G1 X106.857 Y114.477 E0.37235
G1 X106.733 Y114.255 E0.38081
G1 X106.672 Y114.051 E0.38789
G1 X106.672 Y119.556 E0.57098
G1 X106.941 Y119.195 E0.58596
G1 X107.466 Y118.79 E0.60801
G1 X107.984 Y118.571 E0.62672
G1 X108.383 Y118.485 E0.64029
G1 X109.045 Y118.481 E0.66231
G1 X109.637 Y118.633 E0.68264
G1 X110.123 Y118.891 E0.70094
G1 X110.502 Y119.197 E0.71714
G1 X110.771 Y119.55 E0.7319
G1 F2700 E-4.2681
G0 F6000 X110.441 Y119.02
G0 X110.907 Y120.15
G0 X110.97 Y120.501
G0 X110.97 Y121.423
G0 X110.164 Y122.963
G1 F2700 E0.7319
G1 F1387.3 X110.798 Y122.964 E0.75014
G1 X110.798 Y122.3 E0.76925
G1 X110.645 Y122.527 E0.77712
G1 X110.329 Y122.842 E0.78996
G1 X110.164 Y122.963 E0.79585
G1 F2700 E-4.20415
G0 F6000 X109.489 Y123.133
G0 X107.939 Y123.133
G0 X107.246 Y122.963
G1 F2700 E0.79585
G1 F1391.3 X106.854 Y122.587 E0.81143
G1 X106.644 Y122.288 E0.82191
G1 X106.644 Y122.964 E0.8413
G1 X107.246 Y122.963 E0.85857
G0 F6000 X108.128 Y122.984
;TYPE:WALL-OUTER
G1 F1269.8 X107.529 Y122.718 E0.87917
G1 F1200 X107.128 Y122.329 E0.89775
G1 X106.878 Y121.969 E0.91233
G1 X106.726 Y121.613 E0.92521
G1 F1243.5 X106.624 Y121.119 E0.9414
G1 F1240.3 X106.679 Y120.388 E0.96499
G1 F1197 X106.905 Y119.911 E0.98259
G1 F1200 X107.23 Y119.477 E1.00062
G1 X107.693 Y119.128 E1.0199
G1 X108.119 Y118.951 E1.03525
G1 X108.434 Y118.882 E1.04597
G1 X108.993 Y118.877 E1.06456
G1 X109.469 Y119.002 E1.08093
G1 X109.911 Y119.235 E1.09755
G1 X110.228 Y119.498 E1.11125
G1 X110.554 Y119.932 E1.12931
G1 F1203 X110.718 Y120.318 E1.14322
G1 F1221.4 X110.796 Y120.685 E1.15548
G1 F1259.8 X110.807 Y121.074 E1.16781
G1 F1224.5 X110.743 Y121.638 E1.18631
G1 F1182.3 X110.404 Y122.242 E1.20969
G1 F1194 X110.038 Y122.599 E1.22678
G1 F1200 X109.727 Y122.806 E1.23921
G1 X109.407 Y122.947 E1.25084
G1 F1283.4 X108.986 Y123.02 E1.26413
G1 F1399.4 X108.635 Y123.03 E1.27414
G1 F1379.3 X108.128 Y122.984 E1.28887
G1 F2700 E-3.71113
G0 F6000 X107.861 Y123.116
G0 X109.489 Y123.133
G0 X111.171 Y123.337
G1 F2700 E1.28887
G1 F1173.6 X111.162 Y121.648 E1.34631
G1 F1206 X111.183 Y121.062 E1.36572
G1 F1237.1 X111.171 Y120.186 E1.39398
G1 F1200 X111.171 Y113.925 E1.60223
G1 F1036.7 X111.108 Y113.442 E1.62098
G1 F904 X111.104 Y112.992 E1.64085
G1 F935.7 X111.125 Y112.867 E1.64625
G1 F1076.2 X111.171 Y112.286 E1.66787
G1 F1200 X111.171 Y111.663 E1.68859
G1 X109.522 Y111.664 E1.74343
G1 X109.934 Y111.947 E1.76006
G1 X110.307 Y112.365 E1.77869
G1 F1076.2 X110.538 Y112.953 E1.80212
G1 F935.7 X110.569 Y113.008 E1.80481
G1 F904 X110.583 Y113.397 E1.822
G1 F1036.7 X110.41 Y113.906 E1.8427
G1 F1200 X110.215 Y114.277 E1.85664
G1 X109.89 Y114.685 E1.87399
G1 X109.338 Y114.973 E1.89469
G1 X108.873 Y115.074 E1.91052
G1 X108.255 Y115.021 E1.93115
G1 X107.781 Y114.809 E1.94842
G1 X107.471 Y114.57 E1.96144
G1 F1103.4 X107.139 Y114.193 E1.97961
G1 F950.5 X106.877 Y113.585 E2.00741
G1 F897.2 X106.862 Y113.183 E2.02531
G1 F1032.3 X107.035 Y112.643 E2.04723
G1 F1200 X107.201 Y112.315 E2.05946
G1 X107.445 Y112.008 E2.0725
G1 X107.883 Y111.664 E2.09103
G1 X106.272 Y111.664 E2.14461
G1 X106.272 Y112.627 E2.17664
G1 F1032.3 X106.336 Y113.135 E2.19643
G1 F897.2 X106.341 Y113.631 E2.2185
G1 F1021.3 X106.271 Y114.264 E2.24339
G1 F1194 X106.273 Y120.391 E2.44819
G1 F1243.5 X106.255 Y121.076 E2.47019
G1 F1250 X106.272 Y121.665 E2.489
G1 F1200 X106.272 Y123.336 E2.54458
G1 X107.424 Y123.337 E2.58289
G1 F1300.8 X108.615 Y123.368 E2.61945
G1 F1399.4 X109.015 Y123.364 E2.63086
G1 F1290.3 X109.414 Y123.339 E2.64322
G1 F1206 X111.171 Y123.337 E2.70137
G1 F2700 E-2.29863
G0 F6000 X110.901 Y123.067
G0 X110.97 Y121.423
G0 X109.952 Y121.029
G0 X108.369 Y119.783
G0 X107.032 Y118.671
;TYPE:SKIN
G1 F2700 E2.70137
G1 F1200 X107.032 Y115.195 E2.81698
G1 X107.426 Y115.489 E2.83333
G1 X107.922 Y115.705 E2.85133
G1 X108.194 Y115.776 E2.86068
G1 X108.949 Y115.836 E2.88587
G1 X109.599 Y115.694 E2.908
G1 X110.238 Y115.356 E2.93204
G1 X110.411 Y115.211 E2.93955
G1 X110.411 Y118.632 E3.05333
G1 X109.742 Y118.286 E3.07838
G1 X109.066 Y118.117 E3.10156
G1 X108.345 Y118.126 E3.12554
G1 X107.894 Y118.222 E3.14087
G1 X107.285 Y118.473 E3.16278
G1 X107.032 Y118.671 E3.17347
G0 F6000 X107.442 Y118.19
G1 F1200 X107.232 Y117.98 E3.18335
G0 F6000 X107.232 Y117.414
G1 F1200 X107.845 Y118.027 E3.21218
G0 F6000 X108.312 Y117.929
G1 F1200 X107.232 Y116.848 E3.263
G0 F6000 X107.232 Y116.283
G1 F1200 X108.869 Y117.92 E3.34
G0 F6000 X109.544 Y118.03
G1 F1200 X107.232 Y115.717 E3.44878
G0 F6000 X108.015 Y115.935
G1 F1200 X110.211 Y118.13 E3.55205
G0 F6000 X110.211 Y117.564
G1 F1200 X108.658 Y116.012 E3.62507
G0 F6000 X109.195 Y115.983
G1 F1200 X110.211 Y116.999 E3.67286
G0 F6000 X110.211 Y116.433
G1 F1200 X109.663 Y115.885 E3.69864
G0 F6000 X110.035 Y115.691
G1 F1200 X110.211 Y115.867 E3.70691
G1 F2700 E-1.29309
;MESH:trigger clamp 2.stl
G0 F6000 X109.889 Y115.25
G0 X110.584 Y114.755
G0 X110.951 Y119.83
G0 X112.036 Y119.83
G0 X119.931 Y119.83
G0 X121.197 Y119.83
;TYPE:WALL-INNER
G1 F2700 E3.70691
G1 F1200 X121.319 Y119.645 E3.71429
G1 X121.709 Y119.251 E3.73272
G1 X122.071 Y119.009 E3.74721
G1 X122.713 Y118.782 E3.76986
G1 X123.468 Y118.782 E3.79497
G1 X124.116 Y119.001 E3.81772
G1 X124.646 Y119.386 E3.8395
G1 X124.996 Y119.838 E3.85852
G1 X124.996 Y114.416 E4.03885
G1 X124.625 Y114.861 E4.05812
G1 X124.208 Y115.183 E4.07565
G1 X123.782 Y115.37 E4.09112
G1 X123.183 Y115.483 E4.1114
G1 X122.517 Y115.411 E4.13368
G1 X121.834 Y115.093 E4.15873
G1 X121.409 Y114.686 E4.17831
G1 X121.196 Y114.347 E4.19162
G1 X121.197 Y119.83 E4.37399
G0 F6000 X121.054 Y121.143
G0 X121.4 Y122.7
G0 X122.109 Y122.923
G1 F1121.5 X121.759 Y122.743 E4.38799
G1 X121.416 Y122.403 E4.40518
G1 X121.211 Y122.107 E4.418
G1 X121.21 Y122.923 E4.44704
G1 X122.109 Y122.923 E4.47903
G0 F6000 X121.4 Y122.7
G0 X122.962 Y122.999
G0 X123.496 Y122.975
G0 X124.791 Y122.703
G0 X124.096 Y122.923
G1 F1126.8 X124.983 Y122.924 E4.51045
G1 X124.983 Y122.106 E4.53942
G1 X124.745 Y122.453 E4.55433
G1 X124.382 Y122.759 E4.57115
G1 X124.096 Y122.923 E4.58282
G0 F6000 X124.791 Y122.703
G0 X125.141 Y121.027
G0 X125.141 Y113.34
G0 X125.028 Y112.086
G1 F1076.2 X125 Y112.133 E4.58485
G1 X124.946 Y112.133 E4.58686
G1 X124.918 Y112.086 E4.58888
G1 X124.946 Y112.039 E4.59091
G1 X125 Y112.039 E4.59292
G1 F2700 E-0.40708
G0 F6000 X125.141 Y113.34
G0 X125.141 Y121.027
G0 X125.048 Y121.625
G0 X124.694 Y122.266
G0 X124.431 Y122.489
G0 X123.559 Y123.034
G0 X123.549 Y122.784
;TYPE:WALL-OUTER
G1 F2700 E4.59292
G1 F960 X122.888 Y122.798 E4.6204
G1 F1054.9 X122.567 Y122.693 E4.63318
G1 F1167.9 X122.002 Y122.402 E4.6549
G1 F1191.1 X121.679 Y122.073 E4.67035
G1 F1200 X121.469 Y121.74 E4.68344
G1 F1124.1 X121.274 Y121.141 E4.70581
G1 F1032.3 X121.31 Y120.525 E4.72967
G1 F1050.3 X121.58 Y119.95 E4.75381
G1 F1145.6 X121.951 Y119.575 E4.77219
G1 F1200 X122.276 Y119.361 E4.78513
G1 X122.782 Y119.182 E4.80298
G1 X123.402 Y119.182 E4.8236
G1 X123.929 Y119.36 E4.8421
G1 X124.364 Y119.676 E4.85999
G1 X124.621 Y120.008 E4.87395
G1 F1083.5 X124.868 Y120.453 E4.8927
G1 F1023.5 X124.922 Y120.994 E4.9139
G1 X124.868 Y121.525 E4.93471
G1 F1032.3 X124.504 Y122.116 E4.96155
G1 F1140.1 X124.116 Y122.444 E4.97934
G1 F1061.9 X123.549 Y122.784 E5.00418
G1 F2700 E0.00418
G0 F6000 X123.559 Y123.034
G0 X121.066 Y123.067
G0 X120.796 Y123.337
G1 F2700 E5.00418
G1 F1191.1 X122.448 Y123.337 E5.05954
G1 F1064.3 X122.84 Y123.289 E5.07435
G1 F960 X123.592 Y123.285 E5.10562
G1 F991.7 X123.745 Y123.305 E5.11183
G1 F1111.1 X124.284 Y123.336 E5.13122
G1 F1200 X125.396 Y123.337 E5.16821
G1 X125.396 Y122.307 E5.20246
G1 F1129.4 X125.372 Y121.734 E5.22273
G1 F1025.6 X125.353 Y121.558 E5.22962
G1 X125.372 Y121.024 E5.25041
G1 X125.353 Y120.421 E5.27389
G1 F1083.5 X125.396 Y119.881 E5.29384
G1 F1200 X125.396 Y114.462 E5.47408
G1 F1129.4 X125.371 Y114.037 E5.48913
G1 F1025.6 X125.353 Y113.874 E5.49551
G1 F1027.8 X125.372 Y113.335 E5.51645
G1 F1025.6 X125.353 Y112.734 E5.53985
G1 F1083.5 X125.396 Y112.23 E5.55848
G1 F1200 X125.396 Y111.663 E5.57734
G1 X123.934 Y111.667 E5.62597
G1 X124.298 Y111.932 E5.64094
G1 X124.639 Y112.344 E5.65873
G1 F1083.5 X124.868 Y112.766 E5.67642
G1 F1023.5 X124.922 Y113.369 E5.70003
G1 F1025.6 X124.87 Y113.832 E5.71816
G1 F1083.5 X124.579 Y114.292 E5.73821
G1 F1200 X124.328 Y114.585 E5.75104
G1 X123.982 Y114.845 E5.76543
G1 X123.64 Y114.99 E5.77779
G1 X123.187 Y115.078 E5.79314
G1 X122.624 Y115.021 E5.81196
G1 X122.065 Y114.76 E5.83248
G1 X121.66 Y114.374 E5.85109
G1 X121.377 Y113.834 E5.87136
G1 X121.275 Y113.251 E5.89105
G1 X121.29 Y113.119 E5.89547
G1 X121.123 Y113.353 E5.90503
G1 X120.98 Y113.597 E5.91444
G1 X120.796 Y113.978 E5.92851
G1 X120.797 Y119.84 E6.12348
G1 F1095.9 X120.835 Y120.504 E6.1477
G1 F1032.3 X120.823 Y121.18 E6.17384
G1 F1124.1 X120.796 Y121.769 E6.19478
G1 F1200 X120.796 Y123.337 E6.24693
G0 F6000 X121.066 Y123.067
G0 X121.054 Y121.143
G0 X121.108 Y120.516
G0 X121.713 Y119.127
G0 X121.556 Y118.919
;TYPE:SKIN
G1 F1200 X121.557 Y115.318 E6.3667
G1 X121.754 Y115.452 E6.37462
G1 X122.265 Y115.693 E6.39341
G1 X122.551 Y115.776 E6.40332
G1 X123.209 Y115.845 E6.42532
G1 X123.864 Y115.722 E6.44749
G1 X124.369 Y115.506 E6.46576
G1 X124.636 Y115.308 E6.47682
G1 X124.636 Y118.933 E6.59738
G1 X124.286 Y118.678 E6.61179
G1 X123.675 Y118.471 E6.63324
G1 X123.397 Y118.424 E6.64262
G1 X122.783 Y118.424 E6.66304
G1 X122.531 Y118.467 E6.67154
G1 X121.931 Y118.676 E6.69268
G1 X121.556 Y118.919 E6.70754
G0 F6000 X121.876 Y118.482
G1 F1200 X121.755 Y118.361 E6.71323
G0 F6000 X122.294 Y118.334
G1 F1200 X121.755 Y117.795 E6.73858
G0 F6000 X121.755 Y117.229
G1 F1200 X122.751 Y118.226 E6.78546
G0 F6000 X123.313 Y118.221
G1 F1200 X121.755 Y116.664 E6.85872
G0 F6000 X121.755 Y116.098
G1 F1200 X124.044 Y118.388 E6.96641
G0 F6000 X124.432 Y118.209
G1 F1200 X122.019 Y115.797 E7.07988
G0 F6000 X122.791 Y116.003
G1 F1200 X124.433 Y117.644 E7.15709
G0 F6000 X124.433 Y117.079
G1 F1200 X123.371 Y116.017 E7.20705
G0 F6000 X123.847 Y115.928
G1 F1200 X124.434 Y116.514 E7.23463
G0 F6000 X124.435 Y115.949
G1 F1200 X124.257 Y115.772 E7.24298
G1 F2700 E2.24298
;MESH:NONMESH
G0 F300 X124.257 Y115.772 Z0.4
G0 F6000 X124.072 Y115.351
G0 X122.558 Y115.251
G0 X121.991 Y114.989
G0 X121.015 Y114.023
G0 X108.593 Y111.573
;TIME_ELAPSED:24.310992
;LAYER:1
M106 S85
;TYPE:WALL-OUTER
;MESH:trigger clamp 1.stl
G1 F2700 E7.24298
G1 F1008 X108.977 Y111.58 E7.26294
G0 F7875 X109.603 Y111.684
G0 X110.131 Y112.086
G0 X110.419 Y112.554
G0 X110.821 Y113.724
G0 X110.974 Y120.483
;TYPE:WALL-INNER
G1 F1653.5 X110.987 Y120.64 E7.26793
G1 F1750 X110.995 Y121.037 E7.27982
G1 F1684.5 X110.973 Y121.431 E7.29209
G0 F7875 X110.974 Y120.483
G1 F1586.9 X110.971 Y114.359 E7.49425
G1 F1740.3 X111.009 Y113.332 E7.52518
G1 F1869.4 X110.996 Y112.816 E7.53965
G1 F1693.5 X110.974 Y112.508 E7.5492
G1 F1438.4 X110.93 Y112.145 E7.56252
G1 F1307.1 X110.93 Y111.904 E7.57218
G1 X110.258 Y111.904 E7.59911
G1 F1369.6 X110.545 Y112.369 E7.62001
G1 F1627.9 X110.665 Y112.92 E7.63816
G1 F1903.3 X110.683 Y113.332 E7.64951
G1 F1875 X110.638 Y113.795 E7.6625
G1 F1689 X110.475 Y114.267 E7.67799
G1 F1575 X110.33 Y114.484 E7.68667
G1 X109.882 Y114.914 E7.70732
G1 X109.407 Y115.163 E7.72516
G1 X108.832 Y115.273 E7.74463
G1 X108.453 Y115.256 E7.75725
G1 X108.022 Y115.158 E7.77195
G1 X107.448 Y114.828 E7.79397
G1 X107.139 Y114.492 E7.80916
G1 F1578.9 X106.868 Y114.052 E7.8263
G1 F1702.7 X106.779 Y113.619 E7.8399
G1 F1858.4 X106.76 Y113.108 E7.85431
G1 F1774.6 X106.819 Y112.706 E7.86631
G1 F1492.9 X106.952 Y112.231 E7.88362
G1 F1340.4 X107.238 Y111.899 E7.90074
G1 F1431.8 X106.527 Y111.898 E7.92675
G1 F1649.2 X106.447 Y112.791 E7.95523
G1 F1852.9 X106.435 Y113.189 E7.96649
G1 F1886.2 X106.441 Y113.648 E7.97924
G1 F1702.7 X106.471 Y114.043 E7.99143
G1 F1586.9 X106.467 Y120.479 E8.20388
G1 F1582.9 X106.666 Y119.918 E8.22358
G1 F1575 X106.981 Y119.42 E8.24318
G1 X107.469 Y119.029 E8.26398
G1 X107.833 Y118.835 E8.2777
G1 X108.226 Y118.713 E8.29138
G1 X108.707 Y118.66 E8.30748
G1 X109.222 Y118.711 E8.32469
G1 X109.897 Y118.957 E8.34859
G1 X110.351 Y119.332 E8.36817
G1 X110.654 Y119.709 E8.38426
G1 F1582.9 X110.844 Y120.061 E8.3975
G1 F1594.9 X110.974 Y120.483 E8.412
G0 F7875 X110.844 Y121.251
G0 X110.335 Y122.905
G0 X109.808 Y123.065
G1 F1160.2 X110.9 Y123.066 E8.4613
G1 X110.9 Y121.872 E8.51521
G1 X110.716 Y122.262 E8.53468
G1 X110.401 Y122.644 E8.55704
G1 X110.061 Y122.918 E8.57676
G1 X109.808 Y123.065 E8.58997
G0 F7875 X110.335 Y122.905
G0 X108.805 Y123.081
G0 X107.082 Y122.911
G0 X107.619 Y123.066
G1 F1160.2 X107.132 Y122.758 E8.61598
G1 X106.727 Y122.252 E8.64525
G1 X106.543 Y121.897 E8.6633
G1 X106.542 Y123.066 E8.71608
G1 X107.619 Y123.066 E8.76471
G0 F7875 X107.082 Y122.911
G0 X106.469 Y121.404
G1 F1693.5 X106.445 Y120.963 E8.77837
G1 F1698.1 X106.467 Y120.531 E8.79171
G1 F2700 E3.79171
G0 F7875 X106.744 Y121.788
G0 X106.921 Y122.123
G0 X107.29 Y122.58
G0 X108.294 Y123.119
G0 X108.321 Y122.901
;TYPE:WALL-OUTER
G1 F2700 E8.79171
G1 F1184.2 X108.268 Y122.862 E8.79462
G1 F1390.7 X107.835 Y122.645 E8.81287
G1 F1575 X107.45 Y122.401 E8.82803
G1 X107.134 Y122.007 E8.84483
G1 X106.959 Y121.679 E8.85719
G1 X106.871 Y121.395 E8.86708
G1 X106.82 Y120.963 E8.88155
G1 X106.871 Y120.527 E8.89615
G1 X107.04 Y120.075 E8.9122
G1 X107.284 Y119.69 E8.92736
G1 X107.677 Y119.375 E8.94411
G1 X108.005 Y119.2 E8.95648
G1 X108.289 Y119.112 E8.96636
G1 X108.714 Y119.06 E8.98061
G1 X109.157 Y119.113 E8.99545
G1 X109.696 Y119.309 E9.01452
G1 X110.051 Y119.603 E9.02985
G1 X110.33 Y119.95 E9.04466
G1 X110.469 Y120.211 E9.0545
G1 X110.603 Y120.627 E9.06903
G1 X110.618 Y121.062 E9.08351
G1 X110.581 Y121.363 E9.0936
G1 X110.377 Y121.935 E9.11379
G1 X110.075 Y122.298 E9.1295
G1 X109.734 Y122.571 E9.14403
G1 F1326.3 X109.069 Y122.916 E9.17362
G1 F1156 X108.614 Y122.928 E9.19424
G1 F1147.5 X108.321 Y122.901 E9.20768
G1 F2700 E4.20768
G0 F7875 X108.294 Y123.119
G0 X111.101 Y123.267
G0 X111.371 Y123.537
G1 F2700 E9.20768
G1 F1575 X111.371 Y111.463 E9.60926
G1 F1559.4 X109.359 Y111.467 E9.67685
G1 F1211.5 X108.977 Y111.58 E9.69407
G1 F1158.1 X109.249 Y111.734 E9.70821
G1 F1458.3 X109.287 Y111.774 E9.71019
G1 F1559.4 X109.604 Y111.943 E9.72226
G1 F1575 X109.948 Y112.241 E9.7374
G1 X110.199 Y112.65 E9.75336
G1 X110.301 Y113.014 E9.76593
