;FLAVOR:Marlin
;TIME:1275
;Filament used: 0.545526m
;Layer height: 0.2
;MINX:105.643
;MINY:105.875
;MINZ:0.2
;MAXX:129.051
;MAXY:128.117
;MAXZ:14.4
;Generated with Cura_SteamEngine 5.4.0
M140 S60
M105
M190 S60
M104 S210
M105
M109 S210
M82 ;absolute extrusion mode
; Ender 3 Custom Start G-code
G92 E0 ; Reset Extruder
G28 ; Home all axes
G1 Z2.0 F3000 ; Move Z Axis up little to prevent scratching of Heat Bed
G1 X0.1 Y20 Z0.3 F5000.0 ; Move to start position
G1 X0.1 Y200.0 Z0.3 F1500.0 E15 ; Draw the first line
G1 X0.4 Y200.0 Z0.3 F5000.0 ; Move to side a little
G1 X0.4 Y20 Z0.3 F1500.0 E30 ; Draw the second line
G92 E0 ; Reset Extruder
G1 Z2.0 F3000 ; Move Z Axis up little to prevent scratching of Heat Bed
G1 X5 Y20 Z0.3 F5000.0 ; Move over to prevent blob squish
G92 E0
G92 E0
G1 F2700 E-5
;LAYER_COUNT:72
;LAYER:0
M106 S255
;MESH:castle hat 01.stl
G0 F6000 X117.909 Y119.462 Z0.2
;TYPE:WALL-OUTER
G1 F2700 E0
G1 F589.7 X117.5 Y119.496 E0.01389
G1 F594.1 X117.155 Y119.469 E0.02551
G1 F598.5 X116.704 Y119.346 E0.0411
G1 F597 X116.274 Y119.087 E0.05788
G1 X115.909 Y118.723 E0.07511
G1 F591.1 X115.647 Y118.261 E0.09304
G1 F586.8 X115.54 Y117.912 E0.10546
G1 F588.2 X115.507 Y117.587 E0.11654
G1 F592.6 X115.512 Y117.226 E0.1287
G1 F600 X115.623 Y116.815 E0.14286
G1 F595.5 X115.73 Y116.579 E0.15154
G1 X115.911 Y116.275 E0.16339
G1 F598.5 X116.277 Y115.908 E0.18068
G1 F591.1 X116.737 Y115.649 E0.1985
G1 F586.8 X117.093 Y115.538 E0.21118
G1 F589.7 X117.5 Y115.504 E0.225
G1 F597 X117.845 Y115.531 E0.23657
G1 F601.5 X118.29 Y115.652 E0.25187
G1 F600 X118.726 Y115.912 E0.26875
G1 X119.092 Y116.278 E0.28597
G1 F594.1 X119.353 Y116.736 E0.30368
G1 F592.6 X119.467 Y117.156 E0.31833
G1 F595.5 X119.498 Y117.5 E0.32991
G1 X119.467 Y117.844 E0.34148
G1 F598.5 X119.352 Y118.285 E0.35668
G1 F600 X119.087 Y118.726 E0.37379
G1 F598.5 X118.722 Y119.092 E0.39102
G1 F591.1 X118.263 Y119.351 E0.40882
G1 F586.8 X117.909 Y119.462 E0.42143
G0 F6000 X117.944 Y119.053
G1 F601.5 X118.47 Y118.777 E0.44114
G1 F598.5 X118.756 Y118.496 E0.45451
G1 F603 X118.997 Y118.069 E0.47074
G1 F607.6 X119.089 Y117.668 E0.48425
G1 F606.1 X119.086 Y117.306 E0.49617
G1 F600 X119 Y116.945 E0.50851
G1 F597 X118.774 Y116.524 E0.52448
G1 F601.5 X118.458 Y116.215 E0.53915
G1 X118.068 Y116.006 E0.55383
G1 F603 X117.663 Y115.902 E0.56766
G1 F607.6 X117.055 Y115.947 E0.58769
G1 F603 X116.525 Y116.225 E0.60749
G1 F598.5 X116.228 Y116.522 E0.6215
G1 F600 X116.017 Y116.905 E0.63604
G1 F601.5 X115.909 Y117.288 E0.64925
G1 F592.6 X115.917 Y117.566 E0.65861
G1 F594.1 X115.948 Y117.947 E0.67145
G1 F601.5 X116.223 Y118.471 E0.69109
G1 F598.5 X116.492 Y118.748 E0.70396
G1 X116.9 Y118.98 E0.71961
G1 F604.5 X117.336 Y119.098 E0.73452
G1 F607.6 X117.944 Y119.053 E0.75454
G1 F2700 E-4.24546
;MESH:NONMESH
G0 F300 X117.944 Y119.053 Z0.4
G0 F6000 X118.17 Y119.166
G0 X107.826 Y112.541
;TIME_ELAPSED:7.335987
;LAYER:1
;TYPE:SUPPORT
G1 F2700 E0.75454
G1 F968.7 X109.51 Y112.067 E0.81273
G1 X111.305 Y112.57 E0.87473
G1 X112.563 Y113.871 E0.93493
G1 X113.053 Y115.488 E0.99112
G1 X112.581 Y117.17 E1.04923
G1 X112.224 Y117.524 E1.06595
G1 X112.174 Y117.649 E1.07043
G1 X112.391 Y118.399 E1.09639
G1 X111.92 Y120.083 E1.15455
G1 X110.701 Y121.302 E1.21189
G1 X109.017 Y121.773 E1.27005
G1 X107.409 Y121.304 E1.32576
G1 X106.116 Y120.011 E1.38658
G1 X105.643 Y118.401 E1.44239
G1 X106.118 Y116.786 E1.49838
G1 X106.371 Y116.516 E1.51069
G1 X106.416 Y116.406 E1.51464
G1 X106.132 Y115.438 E1.5482
G1 X106.603 Y113.829 E1.60396
G1 X107.826 Y112.541 E1.66303
G1 F2700 E-3.33697
G0 F7875 X107.592 Y111.708
G0 X109.509 Y111.169
G0 X113.418 Y111.24
G0 X114.25 Y111
G1 F2700 E1.66303
G1 F968.7 X113.754 Y109.273 E1.72279
G1 X114.231 Y107.636 E1.77951
G1 X115.454 Y106.348 E1.83858
G1 X117.136 Y105.875 E1.89669
G1 X118.818 Y106.348 E1.95481
G1 X120.041 Y107.635 E2.01386
G1 X120.459 Y109.067 E2.06347
G1 X120.572 Y109.178 E2.06874
G1 X120.927 Y109.168 E2.08055
G1 X121.477 Y108.591 E2.10707
G1 X123.162 Y108.118 E2.16528
G1 X124.847 Y108.591 E2.22349
G1 X125.49 Y109.266 E2.25449
G1 X125.518 Y109.28 E2.25553
G1 X126.761 Y110.592 E2.31565
G1 X127.23 Y112.201 E2.37139
G1 X126.758 Y113.885 E2.42956
G1 X125.614 Y115.032 E2.48344
G1 X125.568 Y115.206 E2.48942
G1 X125.674 Y115.344 E2.49521
G1 X127.36 Y115.822 E2.5535
G1 X128.584 Y117.111 E2.61262
G1 X129.051 Y118.72 E2.66834
G1 X128.58 Y120.404 E2.7265
G1 X127.36 Y121.624 E2.78389
G1 X126.215 Y121.946 E2.82345
G1 X126.145 Y122.136 E2.83018
G1 X126.539 Y123.503 E2.8775
G1 X126.068 Y125.187 E2.93566
G1 X124.849 Y126.406 E2.993
G1 X123.165 Y126.877 E3.05116
G1 X121.557 Y126.408 E3.10687
G1 X120.18 Y125.032 E3.17161
G1 X119.684 Y123.392 E3.2286
G1 X120.142 Y121.762 E3.28491
G1 X121.358 Y120.479 E3.34371
G1 X122.361 Y120.208 E3.37826
G1 X122.487 Y120.105 E3.38368
G1 X122.508 Y119.994 E3.38743
G1 X122.124 Y118.706 E3.43214
G1 X122.601 Y117.096 E3.48799
G1 X123.71 Y115.95 E3.54103
G1 X123.756 Y115.776 E3.54701
G1 X123.65 Y115.638 E3.5528
G1 X122.112 Y115.202 E3.60597
G1 X120.136 Y113.227 E3.69889
G1 X119.729 Y111.788 E3.74863
G1 X119.636 Y111.697 E3.75296
G1 X119.53 Y111.678 E3.75654
G1 X119.411 Y111.732 E3.76089
G1 X118.837 Y112.32 E3.78822
G1 X117.151 Y112.801 E3.84653
G1 X115.535 Y112.313 E3.90268
G1 X114.25 Y111 E3.96378
G1 F2700 E-1.03622
G0 F7875 X113.633 Y111.604
G0 X113.92 Y115.091
G0 X113.839 Y120.391
G0 X113.612 Y121.225
G1 F2700 E3.96378
G1 F968.7 X115.302 Y121.688 E4.02206
G1 X116.513 Y122.982 E4.08101
G1 X116.969 Y124.621 E4.13759
G1 X116.463 Y126.391 E4.19882
G1 X115.206 Y127.646 E4.2579
G1 X113.522 Y128.117 E4.31606
G1 X111.914 Y127.648 E4.37177
G1 X110.621 Y126.355 E4.43259
G1 X110.148 Y124.744 E4.48843
G1 X110.633 Y123.091 E4.54573
G1 X111.915 Y121.723 E4.60809
G1 X113.612 Y121.225 E4.66691
G1 F2700 E-0.33309
;MESH:castle hat 01.stl
G0 F7875 X113.839 Y120.391
G0 X115.52 Y119.842
G0 X117.957 Y119.255
;TYPE:WALL-INNER
G1 F2700 E4.66691
G1 F942.7 X118.395 Y119.055 E4.68336
G1 F947.3 X118.646 Y118.887 E4.69364
G1 F971.1 X118.931 Y118.599 E4.70708
G1 F945 X119.09 Y118.322 E4.71797
G1 F956.7 X119.206 Y118.064 E4.72749
G1 F973.5 X119.268 Y117.811 E4.73611
G1 F961.4 X119.298 Y117.499 E4.74662
G1 F966.2 X119.256 Y117.047 E4.76175
G1 F976 X119 Y116.485 E4.78214
G1 F980.9 X118.637 Y116.094 E4.79966
G1 F973.5 X118.238 Y115.849 E4.81516
G1 F971.1 X117.812 Y115.729 E4.82984
G1 F954.3 X117.499 Y115.709 E4.84043
G1 F945 X117.047 Y115.743 E4.85588
G1 F935.9 X116.605 Y115.945 E4.87261
G1 F942.7 X116.386 Y116.082 E4.88144
G1 F961.4 X116.083 Y116.384 E4.89578
G1 X115.849 Y116.759 E4.91059
G1 F966.2 X115.713 Y117.256 E4.92777
G1 F959.1 X115.712 Y117.72 E4.94335
G1 F963.8 X115.785 Y118.042 E4.95439
G1 F945 X115.945 Y118.395 E4.9676
G1 F942.7 X116.085 Y118.619 E4.97663
G1 F963.8 X116.402 Y118.931 E4.9915
G1 F942.7 X116.678 Y119.09 E5.00238
G1 F952 X117.086 Y119.258 E5.01732
G1 F971.1 X117.501 Y119.298 E5.03115
G1 F966.2 X117.957 Y119.255 E5.04642
G0 F7875 X117.501 Y119.7
;TYPE:WALL-OUTER
G1 F968.7 X117.882 Y119.666 E5.05914
G1 X118.156 Y119.599 E5.06853
G1 X118.598 Y119.416 E5.08444
G1 X118.906 Y119.19 E5.09714
G1 X119.249 Y118.848 E5.11325
G1 X119.454 Y118.51 E5.1264
G1 X119.565 Y118.254 E5.13568
G1 X119.665 Y117.881 E5.14853
G1 X119.7 Y117.499 E5.16128
G1 X119.667 Y117.118 E5.174
G1 X119.599 Y116.844 E5.18339
G1 X119.416 Y116.402 E5.1993
G1 X119.191 Y116.095 E5.21196
G1 X118.848 Y115.751 E5.22812
G1 X118.51 Y115.547 E5.24125
G1 X118.254 Y115.435 E5.25055
G1 X117.881 Y115.334 E5.2634
G1 X117.499 Y115.3 E5.27615
G1 X117.118 Y115.333 E5.28887
G1 X116.844 Y115.401 E5.29826
G1 X116.402 Y115.584 E5.31417
G1 X116.094 Y115.81 E5.32688
G1 X115.751 Y116.152 E5.34299
G1 X115.546 Y116.49 E5.35614
G1 X115.436 Y116.746 E5.36541
G1 X115.313 Y117.198 E5.38099
G1 X115.302 Y117.597 E5.39426
G1 X115.334 Y117.884 E5.40387
G1 X115.401 Y118.156 E5.41318
G1 X115.584 Y118.598 E5.4291
G1 X115.81 Y118.906 E5.4418
G1 X116.152 Y119.249 E5.45791
G1 X116.49 Y119.454 E5.47106
G1 X116.746 Y119.565 E5.48034
G1 X117.119 Y119.665 E5.49318
G1 X117.501 Y119.7 E5.50594
G0 F7875 X117.137 Y118.856
G1 F968.7 X116.672 Y118.631 E5.52312
G1 X116.384 Y118.35 E5.53651
G1 X116.141 Y117.865 E5.55455
G1 X116.109 Y117.317 E5.57281
G1 X116.226 Y116.914 E5.58677
G1 X116.412 Y116.616 E5.59845
G1 X116.653 Y116.382 E5.60962
G1 X117.134 Y116.141 E5.62752
G1 X117.67 Y116.107 E5.64538
G1 X118.086 Y116.226 E5.65977
G1 X118.378 Y116.407 E5.6712
G1 X118.619 Y116.653 E5.68265
G1 X118.854 Y117.133 E5.70043
G1 X118.9 Y117.429 E5.71039
G1 X118.857 Y117.863 E5.72489
G1 X118.631 Y118.332 E5.74221
G1 X118.354 Y118.614 E5.75536
G1 X117.866 Y118.853 E5.77343
G1 X117.571 Y118.899 E5.78336
G1 X117.137 Y118.856 E5.79787
G1 F2700 E0.79787
;MESH:NONMESH
G0 F300 X117.137 Y118.856 Z0.6
G0 F7875 X117.106 Y119.154
G0 X116.515 Y118.82
G0 X116.329 Y118.634
G0 X115.522 Y117.586
G0 X114.437 Y117.562
G0 X113.952 Y115.479
G0 X113.328 Y113.418
G0 X111.765 Y111.802
G0 X109.509 Y111.169
G0 X107.623 Y111.699
G0 X107.891 Y112.652
;TIME_ELAPSED:19.962450
;LAYER:2
M106 S170
;TYPE:SUPPORT
G1 F2700 E5.79787
G1 F951.2 X109.508 Y112.197 E5.85374
G1 X111.125 Y112.652 E5.90961
G1 X112.302 Y113.891 E5.96645
G1 X112.751 Y115.438 E6.02002
G1 X112.298 Y117.057 E6.07594
G1 X112.03 Y117.329 E6.08864
G1 X111.985 Y117.451 E6.09296
G1 X112.262 Y118.399 E6.12581
G1 X111.809 Y120.018 E6.18173
G1 X110.636 Y121.191 E6.2369
G1 X109.017 Y121.644 E6.29282
G1 X107.471 Y121.193 E6.34638
G1 X106.227 Y119.949 E6.4049
G1 X105.772 Y118.399 E6.45863
G1 X106.225 Y116.852 E6.51224
G1 X106.525 Y116.536 E6.52673
G1 X106.545 Y116.421 E6.53062
G1 X106.261 Y115.438 E6.56465
G1 X106.714 Y113.891 E6.61826
G1 X107.891 Y112.652 E6.6751
G1 F2700 E1.6751
G0 F9750 X107.657 Y111.819
G0 X109.322 Y111.351
G0 X113.514 Y111.039
G0 X114.344 Y110.795
G1 F2700 E6.6751
G1 F951.2 X113.889 Y109.245 E6.72883
G1 X114.342 Y107.698 E6.78244
G1 X115.519 Y106.459 E6.83928
G1 X117.136 Y106.004 E6.89515
G1 X118.753 Y106.459 E6.95102
G1 X119.931 Y107.698 E7.00788
G1 X120.387 Y109.274 E7.06245
G1 X120.519 Y109.409 E7.06873
G1 X120.816 Y109.415 E7.07861
G1 X120.917 Y109.36 E7.08244
G1 X121.544 Y108.702 E7.11267
G1 X123.163 Y108.247 E7.1686
G1 X124.785 Y108.702 E7.22463
G1 X125.428 Y109.379 E7.25569
G1 X125.463 Y109.399 E7.25703
G1 X126.647 Y110.65 E7.31432
G1 X127.101 Y112.201 E7.36807
G1 X126.648 Y113.821 E7.42402
G1 X125.341 Y115.131 E7.48556
G1 X125.332 Y115.27 E7.4902
G1 X125.422 Y115.406 E7.49562
G1 X127.3 Y115.933 E7.5605
G1 X128.469 Y117.169 E7.61708
G1 X128.923 Y118.72 E7.67083
G1 X128.469 Y120.34 E7.72679
G1 X127.296 Y121.513 E7.78196
G1 X126.126 Y121.842 E7.82239
G1 X126.013 Y121.939 E7.82734
G1 X125.991 Y122.05 E7.8311
G1 X126.41 Y123.503 E7.8814
G1 X125.957 Y125.122 E7.93732
G1 X124.784 Y126.295 E7.99249
G1 X123.165 Y126.748 E8.04841
G1 X121.619 Y126.297 E8.10197
G1 X120.375 Y125.053 E8.16048
G1 X119.92 Y123.503 E8.21421
G1 X120.373 Y121.956 E8.26783
G1 X121.55 Y120.717 E8.32467
G1 X122.779 Y120.37 E8.36714
G1 X122.862 Y120.209 E8.37317
G1 X122.43 Y118.724 E8.4246
G1 X122.887 Y117.168 E8.47854
G1 X124.186 Y115.794 E8.54143
G1 X124.197 Y115.655 E8.54607
G1 X124.109 Y115.52 E8.55143
G1 X122.308 Y114.996 E8.61382
G1 X121.049 Y113.737 E8.67304
G1 X121.033 Y113.707 E8.67417
G1 X120.37 Y113.039 E8.70547
G1 X119.862 Y111.313 E8.76531
G1 X119.773 Y111.22 E8.76959
G1 X119.568 Y111.226 E8.77641
G1 X118.754 Y112.038 E8.81465
G1 X117.134 Y112.491 E8.8706
G1 X115.588 Y112.039 E8.92418
G1 X114.344 Y110.795 E8.98269
G1 F2700 E3.98269
G0 F9750 X113.732 Y111.408
G0 X113.756 Y120.668
G0 X113.523 Y121.502
G1 F2700 E8.98269
G1 F951.2 X115.14 Y121.957 E9.03856
G1 X116.317 Y123.196 E9.0954
G1 X116.766 Y124.743 E9.14898
G1 X116.313 Y126.362 E9.20489
G1 X115.14 Y127.535 E9.26007
G1 X113.521 Y127.988 E9.31598
G1 X111.975 Y127.537 E9.36955
G1 X110.731 Y126.293 E9.42806
G1 X110.276 Y124.743 E9.48179
G1 X110.729 Y123.196 E9.5354
G1 X111.906 Y121.957 E9.59224
G1 X113.523 Y121.502 E9.64811
G1 F2700 E4.64811
;MESH:castle hat 01.stl
G0 F9750 X113.756 Y120.668
G0 X115.52 Y119.842
G0 X117.923 Y119.26
;TYPE:WALL-INNER
G1 F2700 E9.64811
G1 F951.2 X118.417 Y119.053 E9.66593
G1 F960.9 X118.722 Y118.826 E9.67845
G1 F944.2 X118.927 Y118.595 E9.6888
G1 F939.5 X119.132 Y118.273 E9.70165
G1 F965.7 X119.277 Y117.81 E9.71755
G1 F951.2 X119.295 Y117.499 E9.72791
G1 F970.7 X119.287 Y117.227 E9.73678
G1 F980.7 X119.215 Y116.96 E9.7457
G1 F948.9 X119.052 Y116.582 E9.75942
G1 F958.4 X118.828 Y116.279 E9.77186
G1 F946.5 X118.595 Y116.073 E9.78226
G1 F941.8 X118.275 Y115.868 E9.79502
G1 F958.4 X117.812 Y115.729 E9.81098
G1 F937.2 X117.499 Y115.709 E9.82157
G1 F930.3 X117.058 Y115.743 E9.83661
G1 F937.2 X116.601 Y115.938 E9.85339
G1 F941.8 X116.279 Y116.172 E9.86676
G1 F937.2 X116.073 Y116.405 E9.87726
G1 X115.865 Y116.729 E9.89026
G1 F948.9 X115.712 Y117.256 E9.90855
G1 F925.8 X115.712 Y117.581 E9.91966
G1 F934.9 X115.776 Y118.074 E9.93648
G1 F941.8 X115.94 Y118.398 E9.94868
G1 F937.2 X116.113 Y118.646 E9.95889
G1 F944.2 X116.389 Y118.921 E9.97195
G1 F937.2 X116.837 Y119.187 E9.98954
G1 F934.9 X117.19 Y119.264 E10.00176
G1 F944.2 X117.501 Y119.3 E10.01225
G1 F956 X117.923 Y119.26 E10.02628
G0 F9750 X117.501 Y119.699
;TYPE:WALL-OUTER
G1 F951.2 X117.882 Y119.666 E10.039
G1 X118.156 Y119.599 E10.04838
G1 X118.598 Y119.416 E10.06429
G1 X118.906 Y119.19 E10.077
G1 X119.249 Y118.848 E10.09311
G1 X119.454 Y118.51 E10.10626
G1 X119.565 Y118.254 E10.11554
G1 X119.666 Y117.881 E10.12839
G1 X119.7 Y117.499 E10.14115
G1 X119.667 Y117.118 E10.15387
G1 X119.596 Y116.835 E10.16357
G1 X119.419 Y116.406 E10.17901
G1 X119.19 Y116.094 E10.19188
G1 X118.848 Y115.751 E10.20799
G1 X118.51 Y115.547 E10.22112
G1 X118.254 Y115.435 E10.23041
G1 X117.881 Y115.334 E10.24327
G1 X117.499 Y115.3 E10.25602
G1 X117.118 Y115.334 E10.26874
G1 X116.844 Y115.401 E10.27813
G1 X116.402 Y115.584 E10.29404
G1 X116.094 Y115.81 E10.30674
G1 X115.751 Y116.152 E10.32285
G1 X115.546 Y116.49 E10.336
G1 X115.435 Y116.746 E10.34528
G1 X115.313 Y117.198 E10.36085
G1 X115.302 Y117.597 E10.37413
G1 X115.334 Y117.884 E10.38373
G1 X115.401 Y118.156 E10.39305
G1 X115.584 Y118.598 E10.40896
G1 X115.81 Y118.906 E10.42167
G1 X116.152 Y119.249 E10.43778
G1 X116.49 Y119.453 E10.45091
G1 X116.746 Y119.566 E10.46022
G1 X117.119 Y119.665 E10.47305
G1 X117.501 Y119.699 E10.48581
G0 F9750 X117.042 Y118.827
G1 F951.2 X116.621 Y118.591 E10.50186
G1 X116.439 Y118.415 E10.51028
G1 X116.151 Y117.977 E10.52772
G1 X116.108 Y117.316 E10.54975
G1 X116.283 Y116.799 E10.5679
G1 X116.504 Y116.513 E10.57992
G1 X116.735 Y116.325 E10.58983
G1 X117.139 Y116.143 E10.60457
G1 X117.671 Y116.107 E10.6223
G1 X118.202 Y116.282 E10.6409
G1 X118.488 Y116.503 E10.65292
G1 X118.692 Y116.761 E10.66386
G1 X118.895 Y117.23 E10.68086
G1 X118.884 Y117.724 E10.69729
G1 X118.717 Y118.2 E10.71407
G1 X118.497 Y118.486 E10.72607
G1 X118.239 Y118.693 E10.73707
G1 X117.82 Y118.865 E10.75214
G1 X117.483 Y118.902 E10.76341
G1 X117.042 Y118.827 E10.77829
G1 F2700 E5.77829
;MESH:NONMESH
G0 F300 X117.042 Y118.827 Z0.8
G0 F9750 X116.992 Y119.121
G0 X116.468 Y118.779
G0 X115.522 Y117.586
G0 X114.437 Y117.562
G0 X113.071 Y113.446
G0 X111.589 Y111.884
G0 X109.508 Y111.299
G0 X107.688 Y111.81
G0 X107.955 Y112.762
;TIME_ELAPSED:32.622525
;LAYER:3
M106 S255
;TYPE:SUPPORT
G1 F2700 E10.77829
G1 F963.9 X109.508 Y112.325 E10.83195
G1 X111.061 Y112.762 E10.88561
G1 X112.192 Y113.952 E10.94021
G1 X112.624 Y115.438 E10.99168
G1 X112.188 Y116.993 E11.0454
G1 X111.895 Y117.289 E11.05925
G1 X111.844 Y117.406 E11.06349
G1 X112.135 Y118.399 E11.09791
G1 X111.699 Y119.954 E11.15163
G1 X110.572 Y121.081 E11.20464
G1 X109.017 Y121.516 E11.25834
G1 X107.532 Y121.083 E11.30979
G1 X106.337 Y119.888 E11.366
G1 X105.9 Y118.401 E11.41755
G1 X106.339 Y116.908 E11.46931
G1 X106.64 Y116.588 E11.48392
G1 X106.681 Y116.45 E11.48871
G1 X106.388 Y115.439 E11.52372
G1 X106.824 Y113.952 E11.57526
G1 X107.955 Y112.762 E11.62986
G1 F2700 E6.62986
G0 F9750 X107.721 Y111.929
G0 X109.329 Y111.478
G0 X113.625 Y110.977
G0 X114.455 Y110.733
G1 F2700 E11.62986
G1 F963.9 X114.019 Y109.247 E11.68137
