;FLAVOR:Marlin
;TIME:1160
;Filament used: 0.467966m
;Layer height: 0.2
;MINX:106.033
;MINY:105.075
;MINZ:0.2
;MAXX:128.912
;MAXY:129.065
;MAXZ:11.6
;Generated with Cura_SteamEngine 5.4.0
M140 S60
M105
M190 S60
M104 S210
M105
M109 S210
M82 ;absolute extrusion mode
; Ender 3 Custom Start G-code
G92 E0 ; Reset Extruder
G28 ; Home all axes
G1 Z2.0 F3000 ; Move Z Axis up little to prevent scratching of Heat Bed
G1 X0.1 Y20 Z0.3 F5000.0 ; Move to start position
G1 X0.1 Y200.0 Z0.3 F1500.0 E15 ; Draw the first line
G1 X0.4 Y200.0 Z0.3 F5000.0 ; Move to side a little
G1 X0.4 Y20 Z0.3 F1500.0 E30 ; Draw the second line
G92 E0 ; Reset Extruder
G1 Z2.0 F3000 ; Move Z Axis up little to prevent scratching of Heat Bed
G1 X5 Y20 Z0.3 F5000.0 ; Move over to prevent blob squish
G92 E0
G92 E0
G1 F2700 E-5
;LAYER_COUNT:58
;LAYER:0
M106 S255
;MESH:dish hat 01.stl
G0 F6000 X117.343 Y119.1 Z0.2
;TYPE:WALL-OUTER
G1 F2700 E0
G1 F612.2 X117.902 Y119.051 E0.01829
G1 F610.7 X118.236 Y118.919 E0.03003
G1 F609.1 X118.6 Y118.674 E0.0444
G1 F610.7 X118.889 Y118.3 E0.05985
G1 F598.5 X118.985 Y118.053 E0.06868
G1 F600 X119.103 Y117.685 E0.08154
G1 F610.7 X119.053 Y117.059 E0.10206
G1 F606.1 X118.78 Y116.528 E0.12172
G1 F603 X118.458 Y116.215 E0.13658
G1 F601.5 X118.068 Y116.006 E0.15126
G1 F603 X117.663 Y115.902 E0.1651
G1 F607.6 X117.056 Y115.947 E0.18509
G1 F603 X116.527 Y116.224 E0.20485
G1 X116.147 Y116.603 E0.22261
G1 F607.6 X115.932 Y117.137 E0.24152
G1 F609.1 X115.908 Y117.695 E0.25982
G1 F601.5 X116.034 Y118.146 E0.27535
G1 F594.1 X116.22 Y118.464 E0.28773
G1 F595.5 X116.492 Y118.748 E0.3009
G1 F598.5 X116.899 Y118.98 E0.31652
G1 F604.5 X117.343 Y119.1 E0.33171
G0 F6000 X116.704 Y119.346
G1 F597 X116.274 Y119.087 E0.34849
G1 F595.5 X115.909 Y118.722 E0.36578
G1 F592.6 X115.644 Y118.262 E0.38366
G1 F595.5 X115.532 Y117.85 E0.39797
G1 F598.5 X115.504 Y117.587 E0.40679
G1 F591.1 X115.516 Y117.227 E0.41895
G1 F594.1 X115.653 Y116.705 E0.43708
G1 F600 X115.91 Y116.274 E0.45377
G1 X116.278 Y115.908 E0.47103
G1 F591.1 X116.737 Y115.649 E0.48882
G1 F586.8 X117.093 Y115.538 E0.5015
G1 F589.7 X117.5 Y115.504 E0.51532
G1 F597 X117.845 Y115.531 E0.52689
G1 F601.5 X118.29 Y115.652 E0.54219
G1 F600 X118.726 Y115.912 E0.55908
G1 X119.092 Y116.278 E0.57629
G1 F591.1 X119.351 Y116.737 E0.59408
G1 F586.8 X119.462 Y117.091 E0.6067
G1 F591.1 X119.496 Y117.5 E0.62056
G1 F597 X119.47 Y117.845 E0.63212
G1 F603 X119.331 Y118.329 E0.64879
G1 F597 X119.085 Y118.724 E0.66434
G1 F603 X118.905 Y118.915 E0.67303
G1 F600 X118.72 Y119.089 E0.68147
G1 F588.2 X118.264 Y119.353 E0.69935
G1 F592.6 X117.898 Y119.462 E0.71221
G1 F591.1 X117.5 Y119.496 E0.72569
G1 F594.1 X117.155 Y119.469 E0.73732
G1 F598.5 X116.704 Y119.346 E0.75291
G1 F2700 E-4.24709
;MESH:NONMESH
G0 F300 X116.704 Y119.346 Z0.4
G0 F6000 X116.757 Y119.187
G0 X111.303 Y107.673
;TIME_ELAPSED:7.325824
;LAYER:1
M106 S85
;TYPE:SUPPORT
G1 F2700 E0.75291
G1 F904.3 X112.987 Y107.199 E0.81109
G1 X114.37 Y107.586 E0.85886
G1 X114.511 Y107.555 E0.86366
G1 X115.588 Y106.431 E0.91544
G1 X117.217 Y105.973 E0.97172
G1 X118.846 Y106.431 E1.028
G1 X120.032 Y107.679 E1.08526
G1 X120.507 Y109.301 E1.14147
G1 X120.039 Y111.019 E1.2007
G1 X118.865 Y112.222 E1.25661
G1 X117.233 Y112.689 E1.31306
G1 X116.147 Y112.361 E1.3508
G1 X116.005 Y112.389 E1.35561
G1 X114.777 Y113.62 E1.41344
G1 X113.086 Y114.078 E1.47171
G1 X112.908 Y114.024 E1.4779
G1 X112.75 Y114.029 E1.48316
G1 X112.527 Y114.273 E1.49415
G1 X112.507 Y114.377 E1.49767
G1 X112.956 Y115.855 E1.54905
G1 X112.485 Y117.538 E1.60718
G1 X111.248 Y118.749 E1.66475
G1 X109.526 Y119.214 E1.72408
G1 X107.801 Y118.71 E1.78385
G1 X106.506 Y117.416 E1.84474
G1 X106.033 Y115.804 E1.90062
G1 X106.504 Y114.195 E1.95638
G1 X107.728 Y112.906 E2.0155
G1 X109.412 Y112.432 E2.07369
G1 X109.68 Y112.507 E2.08294
G1 X109.835 Y112.502 E2.0881
G1 X110.055 Y112.257 E2.09905
G1 X110.074 Y112.156 E2.10247
G1 X109.608 Y110.571 E2.15742
G1 X110.08 Y108.961 E2.21322
G1 X111.303 Y107.673 E2.2723
G1 F2700 E-2.7277
G0 F7875 X111.069 Y106.84
G0 X117.217 Y105.075
G0 X119.31 Y105.663
G0 X120.8 Y107.233
G0 X121.403 Y109.296
G0 X121.065 Y112.573
G0 X121.894 Y112.825
G1 F2700 E2.2723
G1 F904.3 X123.169 Y111.472 E2.33413
G1 X124.821 Y110.995 E2.39132
G1 X126.419 Y111.421 E2.44633
G1 X127.561 Y112.62 E2.5014
G1 X127.992 Y114.154 E2.5544
G1 X127.526 Y115.752 E2.60976
G1 X127.127 Y116.149 E2.62848
G1 X127.091 Y116.235 E2.63158
G1 X127.117 Y116.379 E2.63645
G1 X128.445 Y117.779 E2.70063
G1 X128.912 Y119.388 E2.75635
G1 X128.44 Y121.072 E2.81452
G1 X127.22 Y122.292 E2.87191
G1 X125.535 Y122.765 E2.93012
G1 X123.813 Y122.264 E2.98976
G1 X122.485 Y120.963 E3.0516
G1 X121.992 Y119.337 E3.10811
G1 X122.46 Y117.732 E3.16372
G1 X122.958 Y117.218 E3.18752
G1 X123.004 Y117.113 E3.19133
G1 X122.946 Y116.945 E3.19724
G1 X121.854 Y115.863 E3.24837
G1 X121.427 Y114.351 E3.30063
G1 X121.894 Y112.825 E3.35371
G1 F2700 E-1.64629
G0 F7875 X121.065 Y112.573
G0 X120.118 Y115.906
G0 X120.423 Y116.571
G0 X120.567 Y117.5
G0 X120.521 Y118.032
G0 X120.251 Y118.826
G0 X118.396 Y121.788
G0 X118.16 Y122.621
G1 F2700 E3.35371
G1 F904.3 X119.373 Y123.928 E3.41302
G1 X119.852 Y125.63 E3.47182
G1 X119.363 Y127.375 E3.5321
G1 X118.143 Y128.594 E3.58946
G1 X116.459 Y129.065 E3.64762
G1 X114.851 Y128.596 E3.70333
G1 X113.959 Y127.714 E3.74505
G1 X113.817 Y127.686 E3.74987
G1 X113.243 Y127.846 E3.76969
G1 X111.685 Y127.39 E3.82368
G1 X110.431 Y126.136 E3.88266
G1 X109.972 Y124.575 E3.93678
G1 X110.442 Y122.971 E3.99237
G1 X111.687 Y121.644 E4.05289
G1 X113.333 Y121.159 E4.10997
G1 X114.971 Y121.609 E4.16646
G1 X115.641 Y122.326 E4.1991
G1 X115.786 Y122.342 E4.20396
G1 X116.479 Y122.143 E4.22794
G1 X118.16 Y122.621 E4.28606
G1 F2700 E-0.71394
;MESH:dish hat 01.stl
G0 F7875 X118.396 Y121.788
G0 X118.112 Y120.5
G0 X117.087 Y119.258
;TYPE:WALL-INNER
G1 F2700 E4.28606
G1 F913.4 X117.556 Y119.303 E4.30158
G1 F902 X117.915 Y119.246 E4.3137
G1 F895.3 X118.362 Y119.092 E4.32958
G1 F882.2 X118.64 Y118.879 E4.34152
G1 F873.7 X118.897 Y118.649 E4.35339
G1 F895.3 X119.149 Y118.243 E4.36944
G1 F915.7 X119.274 Y117.806 E4.38437
G1 F893.1 X119.291 Y117.499 E4.39473
G1 F880.1 X119.257 Y117.047 E4.41022
G1 F906.6 X119 Y116.485 E4.43072
G1 F915.7 X118.637 Y116.094 E4.44824
G1 F908.8 X118.238 Y115.849 E4.46374
G1 F906.6 X117.812 Y115.729 E4.47842
G1 F890.9 X117.499 Y115.709 E4.48901
G1 F882.2 X117.047 Y115.743 E4.50446
G1 F873.7 X116.605 Y115.945 E4.52119
G1 F880.1 X116.386 Y116.082 E4.53002
G1 F897.6 X116.083 Y116.384 E4.54435
G1 X115.849 Y116.759 E4.55917
G1 F902 X115.712 Y117.256 E4.57636
G1 F895.3 X115.712 Y117.723 E4.59204
G1 F899.8 X115.786 Y118.044 E4.60306
G1 F882.2 X115.945 Y118.395 E4.61619
G1 X116.084 Y118.617 E4.62512
G1 F904.3 X116.401 Y118.931 E4.63996
G1 F882.2 X116.678 Y119.09 E4.65085
G1 F890.9 X117.087 Y119.258 E4.66578
G0 F7875 X117.501 Y119.7
;TYPE:WALL-OUTER
G1 F904.3 X117.882 Y119.666 E4.6785
G1 X118.156 Y119.599 E4.68788
G1 X118.598 Y119.416 E4.70379
G1 X118.906 Y119.19 E4.7165
G1 X119.249 Y118.848 E4.73261
G1 X119.453 Y118.511 E4.74571
G1 X119.565 Y118.254 E4.75504
G1 X119.666 Y117.881 E4.76789
G1 X119.7 Y117.499 E4.78064
G1 X119.666 Y117.118 E4.79337
G1 X119.599 Y116.844 E4.80275
G1 X119.416 Y116.402 E4.81866
G1 X119.191 Y116.095 E4.83132
G1 X118.848 Y115.751 E4.84748
G1 X118.51 Y115.547 E4.86061
G1 X118.254 Y115.435 E4.8699
G1 X117.881 Y115.334 E4.88275
G1 X117.499 Y115.3 E4.89551
G1 X117.118 Y115.333 E4.90823
G1 X116.844 Y115.401 E4.91762
G1 X116.402 Y115.584 E4.93353
G1 X116.094 Y115.81 E4.94624
G1 X115.751 Y116.152 E4.96235
G1 X115.546 Y116.49 E4.97549
G1 X115.436 Y116.746 E4.98476
G1 X115.313 Y117.198 E5.00034
G1 X115.302 Y117.597 E5.01362
G1 X115.334 Y117.885 E5.02326
G1 X115.401 Y118.156 E5.03254
G1 X115.584 Y118.598 E5.04845
G1 X115.81 Y118.906 E5.06116
G1 X116.152 Y119.249 E5.07727
G1 X116.49 Y119.454 E5.09042
G1 X116.746 Y119.565 E5.0997
G1 X117.119 Y119.665 E5.11254
G1 X117.501 Y119.7 E5.1253
G0 F7875 X117.5 Y119.398
G0 X118.342 Y118.977
G0 X118.156 Y118.746
G1 F904.3 X117.574 Y118.9 E5.14532
G1 X117.137 Y118.856 E5.15993
G1 X116.669 Y118.63 E5.17722
G1 X116.385 Y118.353 E5.19041
G1 X116.142 Y117.866 E5.20851
G1 X116.108 Y117.316 E5.22684
G1 X116.226 Y116.913 E5.24081
G1 X116.412 Y116.616 E5.25246
G1 X116.653 Y116.382 E5.26364
G1 X117.134 Y116.141 E5.28153
G1 X117.67 Y116.107 E5.29939
G1 X118.086 Y116.226 E5.31378
G1 X118.378 Y116.407 E5.32521
G1 X118.619 Y116.653 E5.33666
G1 X118.858 Y117.134 E5.35453
G1 X118.894 Y117.67 E5.3724
G1 X118.774 Y118.086 E5.3868
G1 X118.563 Y118.416 E5.39982
G1 X118.156 Y118.746 E5.41725
G1 F2700 E0.41725
;MESH:NONMESH
G0 F300 X118.156 Y118.746 Z0.6
G0 F7875 X118.342 Y118.977
G0 X117.595 Y119.144
G0 X117.067 Y119.091
G0 X116.516 Y118.82
G0 X116.186 Y118.492
G0 X115.908 Y117.932
G0 X115.865 Y117.3
G0 X115.944 Y117.025
G0 X116.511 Y115.775
G0 X115.87 Y114.901
G0 X119.322 Y112.99
G0 X120.814 Y111.463
G0 X121.403 Y109.296
G0 X120.8 Y107.233
G0 X119.31 Y105.663
G0 X117.217 Y105.075
G0 X111.1 Y106.831
G0 X111.368 Y107.784
;TIME_ELAPSED:20.707888
;LAYER:2
M106 S255
;TYPE:SUPPORT
G1 F2700 E5.41725
G1 F886 X112.987 Y107.328 E5.4732
G1 X114.45 Y107.738 E5.52373
G1 X114.578 Y107.703 E5.52814
G1 X115.659 Y106.554 E5.58061
G1 X117.218 Y106.117 E5.63447
G1 X118.787 Y106.568 E5.68876
G1 X119.929 Y107.793 E5.74447
G1 X120.396 Y109.404 E5.80025
G1 X119.939 Y111.082 E5.8581
G1 X118.82 Y112.23 E5.91142
G1 X117.262 Y112.675 E5.96531
G1 X115.815 Y112.248 E6.01549
G1 X115.688 Y112.281 E6.01985
G1 X114.602 Y113.363 E6.07084
G1 X112.983 Y113.816 E6.12676
G1 X112.509 Y113.679 E6.14317
G1 X112.399 Y113.693 E6.14686
G1 X112.189 Y113.883 E6.15628
G1 X112.138 Y114.039 E6.16173
G1 X112.655 Y115.803 E6.22287
G1 X112.201 Y117.423 E6.27883
G1 X111.028 Y118.596 E6.334
G1 X109.408 Y119.05 E6.38996
G1 X107.862 Y118.598 E6.44353
G1 X106.617 Y117.353 E6.5021
G1 X106.162 Y115.805 E6.55576
G1 X106.619 Y114.251 E6.60963
G1 X107.788 Y113.016 E6.66619
G1 X109.412 Y112.56 E6.7223
G1 X109.889 Y112.692 E6.73876
G1 X109.998 Y112.676 E6.74242
G1 X110.206 Y112.487 E6.75177
G1 X110.254 Y112.347 E6.75669
G1 X109.738 Y110.57 E6.81824
G1 X110.191 Y109.023 E6.87185
G1 X111.368 Y107.784 E6.92869
G1 F2700 E1.92869
G0 F9750 X111.134 Y106.951
G0 X117.222 Y105.218
G0 X119.256 Y105.804
G0 X120.701 Y107.352
G0 X121.292 Y109.397
G0 X120.987 Y112.642
G0 X121.816 Y112.892
G1 F2700 E6.92869
G1 F886 X123.023 Y111.614 E6.98716
G1 X124.666 Y111.139 E7.04404
G1 X126.249 Y111.561 E7.09853
G1 X127.383 Y112.752 E7.15323
G1 X127.811 Y114.272 E7.20575
G1 X127.349 Y115.857 E7.26066
G1 X127.011 Y116.192 E7.27649
G1 X126.97 Y116.351 E7.28195
G1 X126.998 Y116.431 E7.28477
G1 X128.329 Y117.838 E7.34919
G1 X128.783 Y119.389 E7.40294
G1 X128.329 Y121.009 E7.4589
G1 X127.156 Y122.182 E7.51407
G1 X125.536 Y122.636 E7.57003
G1 X123.99 Y122.184 E7.6236
G1 X122.745 Y120.939 E7.68216
G1 X122.29 Y119.391 E7.73583
G1 X122.747 Y117.837 E7.7897
G1 X123.08 Y117.483 E7.80587
G1 X123.054 Y117.298 E7.81208
G1 X121.755 Y115.987 E7.87346
G1 X121.335 Y114.479 E7.92553
G1 X121.816 Y112.892 E7.98068
G1 F2700 E2.98068
G0 F9750 X120.987 Y112.642
G0 X120.075 Y115.85
G0 X120.423 Y116.571
G0 X120.567 Y117.5
G0 X120.521 Y118.032
G0 X120.278 Y118.746
G0 X118.31 Y122.071
G0 X118.077 Y122.905
G1 F2700 E7.98068
G1 F886 X119.254 Y124.144 E8.03752
G1 X119.703 Y125.691 E8.0911
G1 X119.25 Y127.31 E8.14702
G1 X118.077 Y128.483 E8.20219
G1 X116.458 Y128.936 E8.25811
G1 X114.912 Y128.485 E8.31167
G1 X113.982 Y127.559 E8.35532
G1 X113.853 Y127.528 E8.35973
G1 X113.25 Y127.702 E8.38061
G1 X111.748 Y127.26 E8.43268
G1 X110.557 Y126.043 E8.48932
G1 X110.125 Y124.505 E8.54245
G1 X110.617 Y122.76 E8.60275
G1 X111.736 Y121.548 E8.65762
G1 X113.293 Y121.104 E8.71147
G1 X114.852 Y121.548 E8.76538
G1 X115.796 Y122.573 E8.81173
G1 X115.937 Y122.593 E8.81647
G1 X116.457 Y122.448 E8.83442
G1 X118.077 Y122.905 E8.89041
G1 F2700 E3.89041
;MESH:dish hat 01.stl
G0 F9750 X118.31 Y122.071
G0 X117.869 Y120.534
G0 X116.763 Y119.169
;TYPE:WALL-INNER
G1 F2700 E8.89041
G1 F875 X117.19 Y119.264 E8.90514
G1 X117.496 Y119.304 E8.91553
G1 F886 X117.927 Y119.258 E8.92995
G1 F881.5 X118.414 Y119.054 E8.9476
G1 F890.4 X118.721 Y118.827 E8.96023
G1 F877.2 X118.927 Y118.595 E8.97065
G1 F875 X119.132 Y118.274 E8.98348
G1 F897.2 X119.274 Y117.806 E8.99954
G1 F875 X119.291 Y117.499 E9.0099
G1 F862.2 X119.257 Y117.055 E9.02512
G1 F877.2 X119.054 Y116.585 E9.04232
G1 F892.6 X118.828 Y116.279 E9.05487
G1 F881.5 X118.595 Y116.073 E9.06527
G1 F877.2 X118.275 Y115.868 E9.07803
G1 F892.6 X117.812 Y115.729 E9.09399
G1 F872.9 X117.499 Y115.709 E9.10458
G1 F866.5 X117.058 Y115.743 E9.11962
G1 F872.9 X116.601 Y115.938 E9.1364
G1 F877.2 X116.279 Y116.172 E9.14977
G1 F872.9 X116.073 Y116.405 E9.16027
G1 X115.864 Y116.733 E9.1734
G1 F881.5 X115.713 Y117.256 E9.19159
G1 F879.4 X115.71 Y117.737 E9.20771
G1 F875 X115.785 Y118.03 E9.2179
G1 F868.6 X115.938 Y118.399 E9.23145
G1 F877.2 X116.17 Y118.718 E9.2447
G1 F870.7 X116.405 Y118.927 E9.25534
G1 F872.9 X116.763 Y119.169 E9.26993
G0 F9750 X116.918 Y118.805
;TYPE:WALL-OUTER
G1 F886 X116.515 Y118.497 E9.2868
G1 X116.305 Y118.232 E9.29805
G1 X116.134 Y117.815 E9.31304
G1 X116.11 Y117.314 E9.32972
G1 X116.283 Y116.8 E9.34776
G1 X116.504 Y116.513 E9.35981
G1 X116.735 Y116.325 E9.36971
G1 X117.139 Y116.143 E9.38445
G1 X117.671 Y116.107 E9.40218
G1 X118.202 Y116.282 E9.42078
G1 X118.488 Y116.503 E9.4328
G1 X118.694 Y116.764 E9.44386
G1 X118.857 Y117.139 E9.45746
G1 X118.894 Y117.67 E9.47516
G1 X118.723 Y118.193 E9.49346
G1 X118.498 Y118.485 E9.50573
G1 X118.236 Y118.694 E9.51687
G1 X117.82 Y118.865 E9.53183
G1 X117.484 Y118.902 E9.54308
G1 X116.918 Y118.805 E9.56217
G0 F9750 X116.868 Y119.099
G0 X117.5 Y119.398
G0 X117.501 Y119.699
G1 F886 X117.882 Y119.666 E9.57489
G1 X118.156 Y119.599 E9.58428
G1 X118.598 Y119.416 E9.60019
G1 X118.906 Y119.19 E9.61289
G1 X119.249 Y118.848 E9.629
G1 X119.453 Y118.51 E9.64213
G1 X119.565 Y118.254 E9.65143
G1 X119.666 Y117.881 E9.66428
G1 X119.7 Y117.499 E9.67704
G1 X119.667 Y117.119 E9.68972
G1 X119.596 Y116.835 E9.69946
G1 X119.419 Y116.406 E9.71489
G1 X119.19 Y116.094 E9.72777
G1 X118.848 Y115.751 E9.74388
G1 X118.51 Y115.547 E9.75701
G1 X118.254 Y115.435 E9.7663
G1 X117.881 Y115.334 E9.77915
G1 X117.499 Y115.3 E9.79191
G1 X117.118 Y115.334 E9.80463
G1 X116.844 Y115.401 E9.81401
G1 X116.402 Y115.584 E9.82993
G1 X116.094 Y115.81 E9.84263
G1 X115.751 Y116.152 E9.85874
G1 X115.547 Y116.49 E9.87187
G1 X115.435 Y116.746 E9.88117
G1 X115.313 Y117.198 E9.89674
G1 X115.303 Y117.597 E9.91001
G1 X115.334 Y117.885 E9.91965
G1 X115.401 Y118.156 E9.92893
G1 X115.584 Y118.598 E9.94484
G1 X115.81 Y118.906 E9.95755
G1 X116.152 Y119.249 E9.97366
G1 X116.49 Y119.453 E9.98679
G1 X116.746 Y119.565 E9.99608
G1 X117.119 Y119.665 E10.00893
G1 X117.501 Y119.699 E10.02168
G1 F2700 E5.02168
;MESH:NONMESH
G0 F300 X117.501 Y119.699 Z0.8
G0 F9750 X117.5 Y119.398
G0 X116.821 Y119.029
G0 X116.349 Y118.672
G0 X116.107 Y118.376
G0 X115.893 Y117.863
G0 X115.872 Y117.395
G0 X116.232 Y115.98
G0 X115.591 Y115.106
G0 X117.258 Y113.575
G0 X119.277 Y112.998
G0 X120.714 Y111.525
G0 X121.292 Y109.397
G0 X120.701 Y107.352
G0 X119.256 Y105.804
G0 X117.222 Y105.218
G0 X110.904 Y107.016
G0 X110.714 Y107.214
G0 X111.432 Y107.894
;TIME_ELAPSED:34.144959
;LAYER:3
;TYPE:SUPPORT
G1 F2700 E10.02168
G1 F882.7 X112.988 Y107.455 E10.07546
G1 X114.54 Y107.889 E10.12906
G1 X114.669 Y107.829 E10.13379
G1 X115.693 Y106.72 E10.18399
G1 X117.251 Y106.279 E10.23785
G1 X118.806 Y106.728 E10.29168
G1 X119.932 Y107.945 E10.34683
G1 X120.388 Y109.541 E10.40203
G1 X119.94 Y111.136 E10.45714
G1 X118.753 Y112.319 E10.51288
G1 X117.257 Y112.751 E10.56467
G1 X115.609 Y112.258 E10.62188
G1 X115.479 Y112.316 E10.62661
G1 X114.539 Y113.253 E10.67076
G1 X112.983 Y113.688 E10.72449
G1 X112.088 Y113.427 E10.7555
G1 X111.993 Y113.432 E10.75867
G1 X111.896 Y113.496 E10.76253
G1 X111.744 Y113.739 E10.77206
G1 X111.718 Y113.848 E10.77579
G1 X111.758 Y113.962 E10.77981
G1 X112.094 Y114.317 E10.79607
G1 X112.526 Y115.803 E10.84754
