;FLAVOR:Marlin
;TIME:3018
;Filament used: 1.96221m
;Layer height: 0.2
;MINX:109.825
;MINY:85.388
;MINZ:0.2
;MAXX:125.17
;MAXY:145.123
;MAXZ:26
;Generated with Cura_SteamEngine 5.4.0
M140 S60
M105
M190 S60
M104 S210
M105
M109 S210
M82 ;absolute extrusion mode
; Ender 3 Custom Start G-code
G92 E0 ; Reset Extruder
G28 ; Home all axes
G1 Z2.0 F3000 ; Move Z Axis up little to prevent scratching of Heat Bed
G1 X0.1 Y20 Z0.3 F5000.0 ; Move to start position
G1 X0.1 Y200.0 Z0.3 F1500.0 E15 ; Draw the first line
G1 X0.4 Y200.0 Z0.3 F5000.0 ; Move to side a little
G1 X0.4 Y20 Z0.3 F1500.0 E30 ; Draw the second line
G92 E0 ; Reset Extruder
G1 Z2.0 F3000 ; Move Z Axis up little to prevent scratching of Heat Bed
G1 X5 Y20 Z0.3 F5000.0 ; Move over to prevent blob squish
G92 E0
G92 E0
G1 F2700 E-5
;LAYER_COUNT:130
;LAYER:0
M107
;MESH:trigger01.stl
G0 F6000 X114.273 Y143.571 Z0.2
;TYPE:WALL-INNER
G1 F2700 E0
G1 F1200 X120.513 Y143.574 E0.20754
G1 X120.766 Y143.562 E0.21597
G1 X121.032 Y143.53 E0.22488
G1 X121.348 Y143.466 E0.2356
G1 X121.726 Y143.335 E0.24891
G1 X122.201 Y143.109 E0.2664
G1 X122.537 Y142.868 E0.28016
G1 X122.817 Y142.629 E0.2924
G1 X123.057 Y142.364 E0.30429
G1 X123.336 Y141.995 E0.31968
G1 X123.572 Y141.554 E0.33631
G1 X123.74 Y141.096 E0.35254
G1 X123.819 Y140.791 E0.36302
G1 X123.895 Y140.344 E0.3781
G1 X123.899 Y105.374 E1.54121
G1 X120.664 Y105.373 E1.6488
G1 X120.471 Y105.305 E1.65561
G1 X120.315 Y105.188 E1.66209
G1 X120.208 Y105.032 E1.66839
G1 X120.152 Y104.826 E1.67549
G1 X120.15 Y102.65 E1.74786
G1 X120.242 Y102.398 E1.75678
G1 X120.378 Y102.248 E1.76352
G1 X120.698 Y102.12 E1.77498
G1 X123.9 Y102.119 E1.88148
G1 X123.9 Y101.264 E1.90992
G1 X120.698 Y101.262 E2.01642
G1 X120.378 Y101.134 E2.02788
G1 X120.242 Y100.984 E2.03461
G1 X120.15 Y100.664 E2.04569
G1 X120.15 Y98.54 E2.11633
G1 X120.242 Y98.288 E2.12526
G1 X120.378 Y98.138 E2.13199
G1 X120.698 Y98.01 E2.14345
G1 X123.9 Y98.009 E2.24995
G1 X123.9 Y97.153 E2.27842
G1 X120.698 Y97.15 E2.38492
G1 X120.378 Y97.024 E2.39636
G1 X120.242 Y96.874 E2.40309
G1 X120.15 Y96.553 E2.4142
G1 X120.15 Y94.429 E2.48485
G1 X120.242 Y94.177 E2.49377
G1 X120.378 Y94.027 E2.5005
G1 X120.698 Y93.899 E2.51197
G1 X123.9 Y93.897 E2.61846
G1 X123.9 Y93.043 E2.64687
G1 X120.698 Y93.041 E2.75337
G1 X120.378 Y92.913 E2.76483
G1 X120.242 Y92.763 E2.77156
G1 X120.15 Y92.443 E2.78264
G1 X120.154 Y90.317 E2.85335
G1 X120.259 Y90.041 E2.86317
G1 X120.403 Y89.897 E2.86995
G1 X120.698 Y89.789 E2.88039
G1 X123.9 Y89.788 E2.98689
G1 X123.9 Y88.932 E3.01536
G1 X120.698 Y88.929 E3.12186
G1 X120.403 Y88.822 E3.1323
G1 X120.259 Y88.679 E3.13905
G1 X120.184 Y88.532 E3.14454
G1 X120.15 Y88.331 E3.15132
G1 X120.15 Y86.876 E3.19971
G1 X114.85 Y86.877 E3.37599
G1 X114.85 Y88.332 E3.42438
G1 X114.816 Y88.532 E3.43113
G1 X114.741 Y88.679 E3.43662
G1 X114.597 Y88.822 E3.44337
G1 X114.25 Y88.932 E3.45548
G1 X111.1 Y88.932 E3.56025
G1 X111.1 Y89.788 E3.58872
G1 X114.25 Y89.788 E3.69349
G1 X114.597 Y89.898 E3.70559
G1 X114.741 Y90.041 E3.71234
G1 X114.846 Y90.317 E3.72217
G1 X114.848 Y92.496 E3.79464
G1 X114.758 Y92.764 E3.80404
G1 X114.623 Y92.915 E3.81078
G1 X114.25 Y93.044 E3.82391
G1 X111.1 Y93.042 E3.92868
G1 X111.1 Y93.898 E3.95715
G1 X114.25 Y93.898 E4.06192
G1 X114.623 Y94.027 E4.07504
G1 X114.758 Y94.177 E4.08176
G1 X114.85 Y94.498 E4.09286
G1 X114.848 Y96.606 E4.16297
G1 X114.758 Y96.874 E4.17238
G1 X114.623 Y97.024 E4.17909
G1 X114.25 Y97.153 E4.19222
G1 X111.1 Y97.153 E4.29699
G1 X111.1 Y98.009 E4.32546
G1 X114.25 Y98.009 E4.43023
G1 X114.623 Y98.138 E4.44335
G1 X114.758 Y98.288 E4.45006
G1 X114.85 Y98.54 E4.45899
G1 X114.848 Y100.717 E4.53139
G1 X114.758 Y100.985 E4.5408
G1 X114.623 Y101.136 E4.54753
G1 X114.25 Y101.265 E4.56066
G1 X111.101 Y101.265 E4.6654
G1 X111.101 Y102.119 E4.6938
G1 X114.25 Y102.119 E4.79854
G1 X114.623 Y102.248 E4.81166
G1 X114.758 Y102.398 E4.81838
G1 X114.85 Y102.719 E4.82948
G1 X114.848 Y104.827 E4.8996
G1 X114.792 Y105.033 E4.9067
G1 X114.636 Y105.234 E4.91516
G1 X114.336 Y105.374 E4.92617
G1 X111.1 Y105.374 E5.0338
G1 X111.103 Y140.176 E6.19132
G1 X111.131 Y140.526 E6.203
G1 X111.199 Y140.874 E6.21479
G1 X111.31 Y141.271 E6.2285
G1 X111.462 Y141.618 E6.2411
G1 X111.637 Y141.948 E6.25352
G1 X111.832 Y142.226 E6.26482
G1 X112.067 Y142.504 E6.27693
G1 X112.32 Y142.752 E6.28871
G1 X112.597 Y142.965 E6.30033
G1 X112.92 Y143.177 E6.31318
G1 X113.434 Y143.401 E6.33183
G1 X113.893 Y143.518 E6.34758
G1 X114.273 Y143.571 E6.36035
G0 F6000 X114.245 Y143.971
;TYPE:WALL-OUTER
G1 F1200 X120.522 Y143.974 E6.56912
G1 X120.8 Y143.961 E6.57838
G1 X121.096 Y143.925 E6.58829
G1 X121.453 Y143.853 E6.60041
G1 X121.878 Y143.706 E6.61536
G1 X122.298 Y143.505 E6.63085
G1 X122.521 Y143.371 E6.6395
G1 X122.783 Y143.184 E6.65021
G1 X123.096 Y142.917 E6.66389
G1 X123.365 Y142.62 E6.67722
G1 X123.674 Y142.211 E6.69427
G1 X123.938 Y141.718 E6.71287
G1 X124.122 Y141.215 E6.73068
G1 X124.211 Y140.875 E6.74237
G1 X124.268 Y140.537 E6.75377
G1 X124.295 Y140.256 E6.76316
G1 X124.299 Y104.974 E7.93665
G1 X120.711 Y104.97 E8.05599
G1 X120.621 Y104.927 E8.0593
G1 X120.55 Y104.791 E8.06441
G1 X120.552 Y102.687 E8.13438
G1 X120.626 Y102.562 E8.13922
G1 X120.732 Y102.519 E8.14302
G1 X124.3 Y102.519 E8.26169
G1 X124.3 Y100.864 E8.31674
G1 X120.732 Y100.863 E8.43541
G1 X120.626 Y100.82 E8.43922
G1 X120.55 Y100.681 E8.44448
G1 X120.552 Y98.577 E8.51446
G1 X120.626 Y98.452 E8.5193
G1 X120.732 Y98.409 E8.5231
G1 X124.3 Y98.409 E8.64177
G1 X124.3 Y96.753 E8.69685
G1 X120.732 Y96.752 E8.81552
G1 X120.626 Y96.71 E8.81932
G1 X120.55 Y96.57 E8.82461
G1 X120.552 Y94.466 E8.89459
G1 X120.626 Y94.341 E8.89942
G1 X120.732 Y94.298 E8.90323
G1 X124.3 Y94.297 E9.0219
G1 X124.3 Y92.643 E9.07691
G1 X120.732 Y92.642 E9.19559
G1 X120.626 Y92.599 E9.19939
G1 X120.55 Y92.46 E9.20466
G1 X120.551 Y90.364 E9.27437
G1 X120.634 Y90.224 E9.27979
G1 X120.732 Y90.188 E9.28326
G1 X124.3 Y90.188 E9.40193
G1 X124.3 Y88.532 E9.45701
G1 X120.732 Y88.531 E9.57568
G1 X120.634 Y88.495 E9.57915
G1 X120.55 Y88.383 E9.58381
G1 X120.55 Y86.476 E9.64724
G1 X114.45 Y86.477 E9.85012
G1 X114.45 Y88.332 E9.91182
G1 X114.366 Y88.496 E9.91795
G1 X114.25 Y88.532 E9.92199
G1 X110.7 Y88.532 E10.04006
G1 X110.7 Y90.188 E10.09514
G1 X114.25 Y90.188 E10.21322
G1 X114.366 Y90.224 E10.21726
G1 X114.449 Y90.364 E10.22267
G1 X114.45 Y92.461 E10.29242
G1 X114.375 Y92.601 E10.2977
G1 X114.25 Y92.644 E10.30209
G1 X110.7 Y92.642 E10.42017
G1 X110.7 Y94.298 E10.47525
G1 X114.25 Y94.298 E10.59332
G1 X114.375 Y94.341 E10.59772
G1 X114.448 Y94.466 E10.60253
G1 X114.45 Y96.571 E10.67254
G1 X114.375 Y96.71 E10.6778
G1 X114.25 Y96.753 E10.68219
G1 X110.7 Y96.753 E10.80027
G1 X110.7 Y98.409 E10.85535
G1 X114.25 Y98.409 E10.97342
G1 X114.375 Y98.452 E10.97782
G1 X114.448 Y98.577 E10.98263
G1 X114.45 Y100.682 E11.05264
G1 X114.375 Y100.822 E11.05793
G1 X114.25 Y100.865 E11.06232
G1 X110.701 Y100.865 E11.18036
G1 X110.701 Y102.519 E11.23537
G1 X114.25 Y102.519 E11.35342
G1 X114.375 Y102.562 E11.35781
G1 X114.448 Y102.687 E11.36263
G1 X114.45 Y104.792 E11.43264
G1 X114.379 Y104.928 E11.43774
G1 X114.289 Y104.971 E11.44106
G1 X110.7 Y104.974 E11.56043
G1 X110.703 Y140.192 E12.73179
G1 X110.734 Y140.58 E12.74473
G1 X110.809 Y140.966 E12.75781
G1 X110.932 Y141.406 E12.77301
G1 X111.102 Y141.792 E12.78703
G1 X111.295 Y142.158 E12.8008
G1 X111.515 Y142.47 E12.81349
G1 X111.773 Y142.776 E12.82681
G1 X112.057 Y143.054 E12.84002
G1 X112.365 Y143.291 E12.85295
G1 X112.604 Y143.448 E12.86246
G1 X112.839 Y143.578 E12.87139
G1 X113.304 Y143.781 E12.88827
G1 X113.816 Y143.911 E12.90584
G1 X114.245 Y143.971 E12.92025
G1 F2700 E7.92025
G0 F6000 X114.397 Y143.471
G0 X121.006 Y143.371
G0 X121.665 Y143.186
G0 X122.437 Y142.741
G0 X122.933 Y142.262
G0 X123.425 Y141.488
G0 X123.662 Y140.757
G0 X123.734 Y140.334
G0 X123.727 Y105.546
G0 X120.115 Y105.198
G0 X120.322 Y102.291
G0 X123.728 Y101.947
G0 X123.728 Y101.436
G0 X120.689 Y101.362
G0 X120.688 Y101.691
;TYPE:SKIN
G1 F2700 E12.92025
G1 F893.9 X123.472 Y101.691 E13.04456
G0 F6000 X123.473 Y101.364
G0 X120.322 Y101.091
G0 X120.322 Y98.181
G0 X123.748 Y98.167
G0 X123.8 Y97.581
G0 X123.472 Y97.581
G1 F892.2 X120.689 Y97.58 E13.16905
G0 F6000 X120.69 Y97.25
G0 X120.322 Y96.98
G0 X120.322 Y94.07
G0 X123.728 Y93.725
G0 X123.728 Y93.215
G0 X120.698 Y93.142
G0 X120.665 Y93.47
G1 F893.9 X123.473 Y93.47 E13.29444
G0 F6000 X123.8 Y93.47
G0 X123.8 Y92.882
G0 X120.322 Y92.87
G0 X120.322 Y89.96
G0 X123.8 Y89.948
G0 X123.8 Y89.36
G0 X123.472 Y89.36
G1 F888.9 X120.667 Y89.359 E13.42038
G0 F6000 X120.698 Y89.688
G0 X123.728 Y89.616
G0 X123.728 Y89.104
G0 X120.128 Y88.771
G0 X119.978 Y87.048
G0 X115.022 Y87.049
G0 X114.725 Y88.761
G0 X114.243 Y89.032
G0 X114.244 Y89.36
G1 F895.5 X111.528 Y89.36 E13.54143
G0 F6000 X111.527 Y89.032
G0 X111.272 Y89.104
G0 X111.272 Y89.616
G0 X114.678 Y89.96
G0 X114.678 Y92.871
G0 X111.529 Y93.143
G0 X111.528 Y93.47
G1 F897.2 X114.243 Y93.471 E13.66221
G0 F6000 X114.244 Y93.144
G0 X111.272 Y93.214
G0 X111.272 Y93.726
G0 X114.678 Y94.07
G0 X114.678 Y96.981
G0 X114.242 Y97.253
G0 X114.243 Y97.581
G1 F895.5 X111.528 Y97.581 E13.78321
G0 F6000 X111.527 Y97.253
G0 X111.272 Y97.325
G0 X111.272 Y97.837
G0 X114.678 Y98.181
G0 X114.678 Y101.092
G0 X111.528 Y101.365
G0 X111.528 Y101.692
G1 F898.9 X114.243 Y101.692 E13.90376
G1 F2700 E8.90376
G0 F6000 X114.243 Y101.365
G0 X111.273 Y101.437
G0 X111.273 Y101.947
G0 X114.678 Y102.291
G0 X114.678 Y105.202
G0 X111.272 Y105.546
G0 X111.291 Y140.504
G0 X111.462 Y141.217
G0 X111.96 Y142.128
G0 X112.691 Y142.835
G0 X113.335 Y143.168
G0 X114.397 Y143.471
G0 X114.294 Y143.211
G1 F2700 E13.90376
G1 F1200 X113.971 Y143.165 E13.91462
G1 X113.548 Y143.058 E13.92913
G1 X113.177 Y142.896 E13.94259
G1 X112.815 Y142.677 E13.95667
G1 X112.549 Y142.472 E13.96783
G1 X112.34 Y142.267 E13.97757
G1 X112.114 Y142.001 E13.98918
G1 X111.946 Y141.76 E13.99895
G1 X111.782 Y141.45 E14.01062
G1 X111.65 Y141.152 E14.02146
G1 X111.549 Y140.787 E14.03405
G1 X111.487 Y140.463 E14.04503
G1 X111.463 Y140.174 E14.05467
G1 X111.46 Y105.734 E15.20015
G1 X114.403 Y105.73 E15.29803
G1 X114.75 Y105.601 E15.31035
G1 X115.101 Y105.268 E15.32644
G1 X115.207 Y104.866 E15.34027
G1 X115.207 Y102.599 E15.41567
G1 X115.07 Y102.218 E15.42913
G1 F1176.5 X114.849 Y101.962 E15.44061
G1 F1132.1 X114.262 Y101.692 E15.46339
G1 X114.849 Y101.422 E15.48617
G1 F1176.5 X115.071 Y101.164 E15.49771
G1 F1200 X115.206 Y100.759 E15.51191
G1 X115.207 Y98.489 E15.58741
G1 X115.07 Y98.108 E15.60088
G1 F1176.5 X114.85 Y97.853 E15.6123
G1 F1129.4 X114.262 Y97.581 E15.6352
G1 X114.85 Y97.309 E15.65809
G1 F1176.5 X115.068 Y97.053 E15.6695
G1 F1200 X115.206 Y96.648 E15.68373
G1 X115.207 Y94.378 E15.75923
G1 X115.07 Y93.997 E15.7727
G1 F1176.5 X114.849 Y93.741 E15.78417
G1 F1132.1 X114.262 Y93.471 E15.80695
G1 X114.849 Y93.201 E15.82973
G1 F1176.5 X115.071 Y92.943 E15.84128
G1 F1200 X115.208 Y92.524 E15.85594
G1 X115.204 Y90.27 E15.93091
G1 F1188.1 X115.098 Y89.89 E15.94416
G1 F1165 X114.81 Y89.605 E15.95804
G1 F1129.4 X114.265 Y89.36 E15.97916
G1 X114.816 Y89.113 E16.0005
G1 F1176.5 X115.038 Y88.884 E16.01132
G1 F1200 X115.156 Y88.652 E16.01997
G1 X115.208 Y88.367 E16.02961
G1 X115.21 Y87.237 E16.06719
G1 X119.79 Y87.236 E16.21953
G1 X119.792 Y88.367 E16.25714
G1 X119.846 Y88.654 E16.26686
G1 F1173.6 X119.963 Y88.888 E16.27575
G1 F1124.1 X120.185 Y89.111 E16.28693
G1 F1057.3 X120.659 Y89.363 E16.30719
G1 F1100.9 X120.166 Y89.628 E16.32748
G1 F1200 X119.961 Y89.833 E16.33712
G1 X119.801 Y90.246 E16.35186
G1 X119.794 Y92.537 E16.42806
G1 X119.938 Y92.959 E16.44289
G1 F1103.4 X120.148 Y93.193 E16.45426
G1 F950.5 X120.665 Y93.47 E16.47889
G1 X120.146 Y93.748 E16.50361
G1 F1103.4 X119.93 Y93.998 E16.51556
G1 F1200 X119.793 Y94.378 E16.529
G1 X119.792 Y96.631 E16.60393
G1 X119.932 Y97.052 E16.61869
G1 F1156.6 X120.15 Y97.305 E16.63021
G1 F1078.7 X120.666 Y97.58 E16.65185
G1 F1054.9 X120.146 Y97.859 E16.67417
G1 F1129.4 X119.93 Y98.109 E16.68585
G1 F1200 X119.793 Y98.489 E16.69928
G1 X119.794 Y100.758 E16.77475
G1 X119.938 Y101.18 E16.78958
G1 F1129.4 X120.147 Y101.414 E16.80067
G1 F1041.2 X120.662 Y101.691 E16.82308
G1 X120.146 Y101.969 E16.84555
G1 F1129.4 X119.93 Y102.219 E16.85723
G1 F1200 X119.793 Y102.599 E16.87066
G1 X119.792 Y104.855 E16.9457
G1 X119.884 Y105.191 E16.95728
G1 X120.059 Y105.442 E16.96746
G1 X120.251 Y105.596 E16.97565
G1 X120.603 Y105.734 E16.98822
G1 X123.538 Y105.734 E17.08584
G1 X123.535 Y140.312 E18.23591
G1 X123.465 Y140.716 E18.24955
G1 X123.392 Y140.994 E18.25911
G1 X123.241 Y141.411 E18.27386
G1 X123.035 Y141.795 E18.28835
G1 X122.777 Y142.136 E18.30257
G1 X122.561 Y142.375 E18.31329
G1 X122.326 Y142.576 E18.32357
G1 X122.018 Y142.796 E18.33616
G1 X121.588 Y143.001 E18.35201
G1 X121.255 Y143.117 E18.36373
G1 X120.974 Y143.174 E18.37327
G1 X120.645 Y143.213 E18.38429
G1 X114.294 Y143.211 E18.59553
G0 F6000 X114.397 Y143.471
G0 X113.487 Y143.248
G0 X112.691 Y142.835
G0 X112.1 Y142.263
G0 X111.57 Y141.607
G0 X111.978 Y141.394
G1 F1200 X113.326 Y142.742 E18.65893
G0 F6000 X114.135 Y142.985
G1 F1200 X111.708 Y140.557 E18.77311
G0 F6000 X111.662 Y139.946
G1 F1200 X114.726 Y143.01 E18.91723
G0 F6000 X115.292 Y143.01
G1 F1200 X111.662 Y139.38 E19.08798
G0 F6000 X111.662 Y138.814
G1 F1200 X115.858 Y143.01 E19.28535
G0 F6000 X116.423 Y143.01
G1 F1200 X111.662 Y138.249 E19.50929
G0 F6000 X111.662 Y137.683
G1 F1200 X116.989 Y143.01 E19.75985
G0 F6000 X117.555 Y143.011
G1 F1200 X111.662 Y137.117 E20.03707
G0 F6000 X111.662 Y136.552
G1 F1200 X118.121 Y143.011 E20.34088
G0 F6000 X118.687 Y143.011
G1 F1200 X111.662 Y135.986 E20.67131
G0 F6000 X111.662 Y135.42
G1 F1200 X119.252 Y143.011 E21.02835
G0 F6000 X119.818 Y143.011
G1 F1200 X111.662 Y134.855 E21.41198
G0 F6000 X111.662 Y134.289
G1 F1200 X120.384 Y143.011 E21.82224
G0 F6000 X120.916 Y142.978
G1 F1200 X111.662 Y133.723 E22.25754
G0 F6000 X111.661 Y133.157
G1 F1200 X121.369 Y142.865 E22.71417
G0 F6000 X121.764 Y142.694
G1 F1200 X111.661 Y132.591 E23.18939
G0 F6000 X111.661 Y132.026
G1 F1200 X122.115 Y142.479 E23.68109
G0 F6000 X122.426 Y142.225
G1 F1200 X111.661 Y131.46 E24.18744
G0 F6000 X111.661 Y130.894
G1 F1200 X122.688 Y141.921 E24.70612
G0 F6000 X122.919 Y141.587
G1 F1200 X111.661 Y130.328 E25.23568
G0 F6000 X111.661 Y129.763
G1 F1200 X123.103 Y141.204 E25.77386
G0 F6000 X123.241 Y140.777
G1 F1200 X111.661 Y129.197 E26.31854
G0 F6000 X111.661 Y128.631
G1 F1200 X123.333 Y140.304 E26.86758
G0 F6000 X123.335 Y139.74
G1 F1200 X111.661 Y128.066 E27.41669
G0 F6000 X111.661 Y127.5
G1 F1200 X123.335 Y139.174 E27.9658
G0 F6000 X123.335 Y138.609
G1 F1200 X111.661 Y126.934 E28.51493
G0 F6000 X111.66 Y126.368
G1 F1200 X123.335 Y138.043 E29.06409
G0 F6000 X123.335 Y137.477
G1 F1200 X111.66 Y125.802 E29.61325
G0 F6000 X111.66 Y125.237
G1 F1200 X123.335 Y136.912 E30.1624
G0 F6000 X123.335 Y136.346
G1 F1200 X111.66 Y124.671 E30.71156
G0 F6000 X111.66 Y124.105
G1 F1200 X123.335 Y135.78 E31.26071
G0 F6000 X123.335 Y135.215
G1 F1200 X111.66 Y123.54 E31.80987
G0 F6000 X111.66 Y122.974
G1 F1200 X123.335 Y134.649 E32.35903
G0 F6000 X123.335 Y134.083
G1 F1200 X111.66 Y122.408 E32.90818
G0 F6000 X111.66 Y121.842
G1 F1200 X123.335 Y133.518 E33.45736
G0 F6000 X123.335 Y132.952
G1 F1200 X111.66 Y121.277 E34.00652
G0 F6000 X111.66 Y120.711
G1 F1200 X123.335 Y132.386 E34.55567
G0 F6000 X123.335 Y131.82
G1 F1200 X111.66 Y120.145 E35.10483
G0 F6000 X111.659 Y119.579
G1 F1200 X123.335 Y131.255 E35.65403
G0 F6000 X123.335 Y130.689
G1 F1200 X111.659 Y119.013 E36.20324
G0 F6000 X111.659 Y118.448
G1 F1200 X123.335 Y130.123 E36.75242
G0 F6000 X123.335 Y129.558
G1 F1200 X111.659 Y117.882 E37.30162
G0 F6000 X111.659 Y117.316
G1 F1200 X123.335 Y128.992 E37.85082
G0 F6000 X123.336 Y128.427
G1 F1200 X111.659 Y116.751 E38.40005
G0 F6000 X111.659 Y116.185
G1 F1200 X123.336 Y127.861 E38.94928
G0 F6000 X123.336 Y127.296
G1 F1200 X111.659 Y115.619 E39.49853
G0 F6000 X111.659 Y115.054
G1 F1200 X123.336 Y126.73 E40.04775
G0 F6000 X123.336 Y126.164
G1 F1200 X111.659 Y114.488 E40.59698
G0 F6000 X111.659 Y113.922
